zhengzhouyi2020/ur16e/ur16e_controller/data/20220422_194808.csv
# px py pz qx qy qz qw joint1 joint2 joint3 joint4 joint5 joint6 fx fy fz tx ty tz
-0.180067,0.476965,0.009710,-1.000000,-0.000371,0.000017,0.000098,-1.557429,-1.096266,2.263526,-2.738315,-1.570756,0.012543,0.081689,-19.874752,2.345605,0.526525,0.001207,-0.004957
-0.180045,0.483759,0.008902,-1.000000,-0.000650,0.000087,0.000632,-1.557750,-1.086622,2.245865,-2.731474,-1.570621,0.011707,0.117390,-17.085759,1.988466,0.452972,0.002249,-0.004244
-0.179982,0.493037,0.007821,-0.999998,-0.000880,0.000204,0.001669,-1.558252,-1.073896,2.222792,-2.723293,-1.570403,0.010744,0.156525,-13.694553,1.586457,0.363425,0.003410,-0.003394
-0.179860,0.503459,0.006600,-0.999995,-0.001062,0.000351,0.003077,-1.558906,-1.059789,2.197419,-2.714899,-1.570134,0.009738,0.184646,-10.862520,1.280878,0.288502,0.004271,-0.002695
-0.179669,0.514129,0.005320,-0.999988,-0.001210,0.000508,0.004672,-1.559682,-1.045410,2.171709,-2.706779,-1.569845,0.008675,0.203121,-8.591417,1.045104,0.228319,0.004865,-0.002137
-0.179407,0.524480,0.004034,-0.999979,-0.001330,0.000661,0.006295,-1.560554,-1.031454,2.146852,-2.699116,-1.569560,0.007569,0.213302,-6.794484,0.856850,0.180635,0.005225,-0.001697
-0.179075,0.534184,0.002779,-0.999968,-0.001432,0.000801,0.007829,-1.561500,-1.018333,2.123526,-2.691950,-1.569294,0.006426,0.217144,-5.380398,0.702812,0.143068,0.005403,-0.001350
-0.178679,0.543070,0.001581,-0.999956,-0.001520,0.000923,0.009198,-1.562503,-1.006268,2.102073,-2.685263,-1.569055,0.005254,0.216396,-4.269606,0.575120,0.113531,0.005447,-0.001076
-0.178225,0.551070,0.000456,-0.999945,-0.001598,0.001024,0.010364,-1.563552,-0.995349,2.082626,-2.679021,-1.568849,0.004055,0.212521,-3.396834,0.468801,0.090308,0.005397,-0.000861
-0.177720,0.558185,-0.000586,-0.999934,-0.001669,0.001105,0.011310,-1.564634,-0.985586,2.065181,-2.673187,-1.568674,0.002835,0.206644,-2.710039,0.380340,0.072024,0.005284,-0.000690
-0.177172,0.564453,-0.001541,-0.999925,-0.001735,0.001168,0.012040,-1.565740,-0.976961,2.049643,-2.667753,-1.568653,0.001546,0.503010,-2.341691,2.127125,0.179771,-0.051362,-0.000602
-0.175676,0.570567,-0.001736,-0.999905,-0.002046,-0.000659,0.013614,-1.566715,-0.970155,2.035338,-2.663584,-1.572649,-0.000065,0.745246,-2.069175,3.877334,0.289556,-0.105692,-0.000220
-0.173998,0.576239,-0.001500,-0.999875,-0.002207,-0.002787,0.015424,-1.567730,-0.964624,2.022469,-2.659809,-1.576727,-0.001462,0.650821,-1.693427,4.140551,0.297252,-0.109136,0.000433
-0.172672,0.581159,-0.001251,-0.999847,-0.002301,-0.004123,0.016863,-1.568842,-0.959896,2.011157,-2.656030,-1.579221,-0.002809,0.543413,-1.357954,4.389635,0.301915,-0.109867,0.000984
-0.171638,0.585366,-0.001065,-0.999825,-0.002348,-0.004812,0.017918,-1.570025,-0.955807,2.001300,-2.652318,-1.580432,-0.004103,0.462913,-1.084651,4.597339,0.305545,-0.107445,0.001395
-0.170821,0.588956,-0.000936,-0.999810,-0.002381,-0.005015,0.018666,-1.571261,-0.952277,1.992744,-2.648747,-1.580725,-0.005420,0.403369,-0.865636,4.780215,0.309554,-0.102795,0.001693
-0.170102,0.592014,-0.000853,-0.999801,-0.002411,-0.004991,0.019171,-1.572520,-0.949234,1.985335,-2.645361,-1.580599,-0.006740,0.364282,-0.689197,4.938793,0.313481,-0.098308,0.001942
-0.169420,0.594618,-0.000804,-0.999795,-0.002439,-0.004873,0.019486,-1.573791,-0.946623,1.978933,-2.642179,-1.580300,-0.008064,0.335897,-0.546283,5.077742,0.317314,-0.094137,0.002150
-0.168747,0.596833,-0.000778,-0.999793,-0.002465,-0.004722,0.019651,-1.575068,-0.944392,1.973413,-2.639203,-1.579942,-0.009387,0.313298,-0.429767,5.200772,0.321021,-0.090322,0.002324
-0.168071,0.598714,-0.000769,-0.999793,-0.002489,-0.004565,0.019694,-1.576348,-0.942495,1.968664,-2.636426,-1.579576,-0.010709,0.294203,-0.334223,5.310789,0.324596,-0.086851,0.002471
-0.167387,0.600307,-0.000774,-0.999794,-0.002512,-0.004414,0.019640,-1.577632,-0.940891,1.964590,-2.633839,-1.579225,-0.012030,0.277488,-0.255499,5.409974,0.328038,-0.083691,0.002594
-0.166694,0.601644,-0.000799,-0.999798,-0.002533,-0.004273,0.019495,-1.578917,-0.939530,1.961112,-2.631424,-1.578913,-0.013362,0.270890,-0.191441,5.514268,0.332307,-0.082396,0.002734
-0.165902,0.602774,-0.000826,-0.999801,-0.002600,-0.004333,0.019296,-1.580184,-0.938391,1.958138,-2.629196,-1.579021,-0.014753,0.263212,-0.138712,5.611077,0.336515,-0.081272,0.002876
-0.165107,0.603728,-0.000853,-0.999805,-0.002622,-0.004392,0.019057,-1.581460,-0.937455,1.955610,-2.627128,-1.579070,-0.016070,0.245973,-0.093883,5.686659,0.339629,-0.078876,0.002975
-0.164351,0.604523,-0.000884,-0.999811,-0.002640,-0.004358,0.018775,-1.582749,-0.936687,1.953476,-2.625201,-1.578951,-0.017390,0.230523,-0.056026,5.754839,0.342476,-0.076659,0.003051
-0.163588,0.605183,-0.000921,-0.999817,-0.002680,-0.004335,0.018460,-1.584039,-0.936061,1.951685,-2.623412,-1.578897,-0.018768,0.223478,-0.024111,5.815102,0.344966,-0.075728,0.003157
-0.162786,0.605726,-0.000963,-0.999823,-0.002694,-0.004386,0.018122,-1.585328,-0.935557,1.950191,-2.621753,-1.578942,-0.020068,0.216113,0.002658,5.870849,0.347372,-0.074895,0.003255
-0.162017,0.606172,-0.001005,-0.999829,-0.002712,-0.004363,0.017767,-1.586627,-0.935164,1.948959,-2.620211,-1.578862,-0.021411,0.209369,0.025252,5.922224,0.349662,-0.074114,0.003320
-0.161219,0.606533,-0.001051,-0.999835,-0.002737,-0.004395,0.017401,-1.587925,-0.934860,1.947952,-2.618786,-1.578896,-0.022746,0.203773,0.044347,5.970526,0.351894,-0.073368,0.003379
-0.160436,0.606817,-0.001104,-0.999842,-0.002754,-0.004392,0.017020,-1.589230,-0.934628,1.947149,-2.617459,-1.578871,-0.024096,0.199435,0.059410,6.031033,0.355150,-0.072870,0.003456
-0.159619,0.607043,-0.001154,-0.999848,-0.002775,-0.004457,0.016641,-1.590532,-0.934471,1.946512,-2.616240,-1.578964,-0.025422,0.196897,0.404339,6.149085,0.355417,-0.073643,0.003670
-0.158829,0.607225,-0.001195,-0.999854,-0.002788,-0.004458,0.016273,-1.591845,-0.934383,1.946021,-2.615113,-1.578929,-0.026762,0.188444,0.941739,6.334411,0.355730,-0.074544,0.003958
-0.158042,0.607363,-0.001238,-0.999860,-0.002811,-0.004451,0.015907,-1.593161,-0.934344,1.945662,-2.614072,-1.578903,-0.028121,0.177869,1.242096,6.549460,0.362441,-0.075514,0.004200
-0.157242,0.607463,-0.001281,-0.999865,-0.002820,-0.004468,0.015546,-1.594479,-0.934347,1.945417,-2.613114,-1.578903,-0.029450,0.165914,1.380622,6.780266,0.373476,-0.076529,0.004403
-0.156436,0.607532,-0.001324,-0.999870,-0.002842,-0.004494,0.015190,-1.595797,-0.934385,1.945272,-2.612234,-1.578945,-0.030812,0.153545,1.413648,7.020462,0.387303,-0.077560,0.004568
-0.155634,0.607576,-0.001366,-0.999876,-0.002849,-0.004511,0.014844,-1.597120,-0.934456,1.945213,-2.611425,-1.578949,-0.032145,0.141533,1.381427,7.267812,0.402899,-0.078587,0.004718
-0.154843,0.607592,-0.001415,-0.999881,-0.002858,-0.004501,0.014497,-1.598446,-0.934543,1.945238,-2.610678,-1.578925,-0.033497,0.136517,1.310858,7.531726,0.420303,-0.080742,0.004880
-0.154024,0.607593,-0.001459,-0.999885,-0.002867,-0.004550,0.014165,-1.599770,-0.934661,1.945322,-2.610001,-1.578994,-0.034823,0.132179,1.221033,7.798494,0.438212,-0.082881,0.005039
-0.153224,0.607586,-0.001493,-0.999890,-0.002874,-0.004554,0.013854,-1.601101,-0.934807,1.945459,-2.609383,-1.578978,-0.036171,0.122585,1.124943,8.055945,0.455517,-0.083849,0.005172
-0.152428,0.607567,-0.001527,-0.999894,-0.002885,-0.004549,0.013553,-1.602434,-0.934968,1.945647,-2.608821,-1.578961,-0.037523,0.114423,1.029285,8.316644,0.472920,-0.084782,0.005312
-0.151622,0.607538,-0.001562,-0.999897,-0.002890,-0.004563,0.013261,-1.603768,-0.935142,1.945880,-2.608312,-1.578966,-0.038863,0.000870,0.998860,7.941085,0.447473,-0.065922,0.005470
-0.150816,0.607500,-0.001595,-0.999901,-0.002900,-0.004576,0.012981,-1.605103,-0.935326,1.946151,-2.607852,-1.578981,-0.040215,-0.111614,0.980247,7.447332,0.414057,-0.044170,0.005501
-0.150013,0.607457,-0.001628,-0.999905,-0.002904,-0.004582,0.012712,-1.606440,-0.935516,1.946458,-2.607438,-1.578971,-0.041551,-0.102987,0.907715,7.351923,0.408246,-0.039744,0.005369
-0.149192,0.607399,-0.001672,-0.999908,-0.002926,-0.004627,0.012440,-1.607773,-0.935706,1.946798,-2.607071,-1.579062,-0.042936,-0.082148,0.827537,7.243992,0.403279,-0.036306,0.005240
-0.148374,0.607350,-0.001698,-0.999910,-0.002929,-0.004664,0.012198,-1.609110,-0.935918,1.947153,-2.606747,-1.579117,-0.044275,-0.064244,0.747170,7.244032,0.406159,-0.034603,0.005167
-0.147566,0.607299,-0.001723,-0.999913,-0.002932,-0.004677,0.011967,-1.610451,-0.936136,1.947531,-2.606458,-1.579126,-0.045622,-0.051870,0.676851,7.244417,0.408643,-0.034218,0.005126
-0.146762,0.607246,-0.001749,-0.999916,-0.002935,-0.004681,0.011745,-1.611794,-0.936357,1.947929,-2.606205,-1.579119,-0.046967,-0.046347,0.615145,7.246255,0.410937,-0.034040,0.005090
-0.145959,0.607191,-0.001774,-0.999918,-0.002937,-0.004683,0.011532,-1.613138,-0.936581,1.948345,-2.605985,-1.579110,-0.048315,-0.044243,0.561004,7.249027,0.413049,-0.033972,0.005062
-0.145155,0.607135,-0.001798,-0.999920,-0.002940,-0.004687,0.011329,-1.614482,-0.936807,1.948775,-2.605797,-1.579106,-0.049663,-0.043719,0.513408,7.252394,0.415004,-0.033960,0.005040
-0.144349,0.607079,-0.001822,-0.999923,-0.002943,-0.004694,0.011136,-1.615827,-0.937035,1.949218,-2.605640,-1.579109,-0.051012,-0.043927,0.471498,7.256065,0.416817,-0.033977,0.005025
-0.143541,0.607023,-0.001844,-0.999925,-0.002946,-0.004706,0.010952,-1.617173,-0.937264,1.949672,-2.605511,-1.579120,-0.052361,-0.044479,0.434556,7.259857,0.418500,-0.034014,0.005016
-0.142731,0.606969,-0.001866,-0.999926,-0.002949,-0.004722,0.010777,-1.618518,-0.937494,1.950135,-2.605410,-1.579141,-0.053712,-0.051170,0.402736,7.253428,0.419378,-0.032926,0.004987
-0.141918,0.606915,-0.001886,-0.999928,-0.002952,-0.004742,0.010611,-1.619864,-0.937724,1.950605,-2.605334,-1.579170,-0.055064,-0.056621,0.375016,7.245712,0.420032,-0.031797,0.004948
-0.141108,0.606855,-0.001917,-0.999930,-0.002955,-0.004759,0.010442,-1.621210,-0.937941,1.951093,-2.605280,-1.579195,-0.056415,-0.053892,0.349436,7.253760,0.421684,-0.031753,0.004938
-0.140290,0.606806,-0.001933,-0.999931,-0.002960,-0.004791,0.010295,-1.622556,-0.938174,1.951574,-2.605252,-1.579246,-0.057769,-0.051510,0.326445,7.262583,0.423342,-0.031724,0.004940
-0.139470,0.606759,-0.001947,-0.999932,-0.002964,-0.004826,0.010157,-1.623903,-0.938408,1.952059,-2.605245,-1.579303,-0.059124,-0.055487,0.306349,7.268113,0.424715,-0.030741,0.004909
-0.138648,0.606713,-0.001961,-0.999933,-0.002968,-0.004864,0.010026,-1.625250,-0.938640,1.952549,-2.605258,-1.579366,-0.060480,-0.058731,0.288630,7.273968,0.426020,-0.029736,0.004878
-0.137826,0.606668,-0.001975,-0.999935,-0.002973,-0.004905,0.009900,-1.626597,-0.938870,1.953043,-2.605289,-1.579435,-0.061836,-0.062052,0.272848,7.280144,0.427287,-0.028742,0.004873
-0.137002,0.606625,-0.001990,-0.999936,-0.002979,-0.004949,0.009780,-1.627944,-0.939098,1.953541,-2.605337,-1.579511,-0.063194,-0.066025,0.258785,7.285810,0.428467,-0.027768,0.004869
-0.136176,0.606582,-0.002004,-0.999936,-0.002985,-0.004996,0.009666,-1.629291,-0.939324,1.954041,-2.605402,-1.579594,-0.064552,-0.070883,0.247333,7.276253,0.428501,-0.026605,0.004846
-0.135349,0.606541,-0.002017,-0.999937,-0.002991,-0.005047,0.009558,-1.630638,-0.939550,1.954543,-2.605482,-1.579683,-0.065912,-0.075387,0.237426,7.267553,0.428514,-0.025433,0.004823
-0.134520,0.606502,-0.002030,-0.999938,-0.002997,-0.005102,0.009456,-1.631985,-0.939774,1.955046,-2.605577,-1.579778,-0.067273,-0.073828,0.227772,7.270865,0.429310,-0.025422,0.004831
-0.133689,0.606464,-0.002042,-0.999938,-0.003004,-0.005159,0.009358,-1.633333,-0.939996,1.955550,-2.605685,-1.579880,-0.068634,-0.072844,0.218987,7.272005,0.429951,-0.025427,0.004829
-0.132862,0.606419,-0.002065,-0.999939,-0.003010,-0.005211,0.009254,-1.634680,-0.940204,1.956065,-2.605804,-1.579972,-0.069995,-0.071610,0.210715,7.278498,0.430947,-0.025444,0.004834
-0.132027,0.606386,-0.002073,-0.999940,-0.003019,-0.005278,0.009169,-1.636027,-0.940427,1.956567,-2.605937,-1.580091,-0.071358,-0.070444,0.203221,7.285226,0.431925,-0.025466,0.004853
-0.131191,0.606355,-0.002080,-0.999940,-0.003027,-0.005347,0.009090,-1.637375,-0.940649,1.957068,-2.606081,-1.580214,-0.072723,-0.069643,0.196919,7.286266,0.432444,-0.025481,0.004869
-0.130354,0.606325,-0.002087,-0.999940,-0.003035,-0.005417,0.009014,-1.638723,-0.940868,1.957571,-2.606236,-1.580340,-0.074088,-0.075177,0.192123,7.276187,0.432161,-0.024359,0.004864
-0.129517,0.606295,-0.002096,-0.999940,-0.003043,-0.005489,0.008940,-1.640071,-0.941084,1.958074,-2.606400,-1.580468,-0.075453,-0.080529,0.188070,7.266934,0.431878,-0.023231,0.004861
-0.128679,0.606266,-0.002104,-0.999941,-0.003052,-0.005561,0.008870,-1.641419,-0.941299,1.958576,-2.606573,-1.580599,-0.076820,-0.079757,0.183602,7.269437,0.432388,-0.023242,0.004884
-0.127841,0.606238,-0.002112,-0.999941,-0.003061,-0.005635,0.008803,-1.642767,-0.941511,1.959078,-2.606754,-1.580730,-0.078186,-0.079567,0.179362,7.270095,0.432786,-0.023262,0.004901
-0.127003,0.606211,-0.002120,-0.999941,-0.003070,-0.005708,0.008739,-1.644116,-0.941722,1.959579,-2.606942,-1.580860,-0.079554,-0.079430,0.175518,7.270551,0.433147,-0.023273,0.004920
-0.126167,0.606185,-0.002127,-0.999941,-0.003078,-0.005779,0.008679,-1.645465,-0.941931,1.960079,-2.607138,-1.580985,-0.080921,-0.079512,0.171994,7.271483,0.433518,-0.023257,0.004949
-0.125348,0.606163,-0.002134,-0.999941,-0.003079,-0.005812,0.008625,-1.646820,-0.942141,1.960579,-2.607340,-1.581019,-0.082274,-0.077680,0.161070,7.377298,0.441513,-0.023217,0.005001
-0.124554,0.606144,-0.002139,-0.999942,-0.003078,-0.005789,0.008579,-1.648180,-0.942352,1.961078,-2.607547,-1.580951,-0.083631,-0.076294,0.150808,7.484778,0.449520,-0.022905,0.005047
-0.123769,0.606118,-0.002155,-0.999942,-0.003077,-0.005752,0.008525,-1.649540,-0.942549,1.961586,-2.607759,-1.580870,-0.084991,-0.075356,0.147968,7.495894,0.450489,-0.022566,0.005077
-0.122954,0.606100,-0.002160,-0.999943,-0.003084,-0.005776,0.008482,-1.650895,-0.942756,1.962079,-2.607978,-1.580906,-0.086357,-0.074518,0.144782,7.505636,0.451430,-0.022228,0.005111
-0.122145,0.606085,-0.002160,-0.999943,-0.003083,-0.005789,0.008446,-1.652252,-0.942966,1.962569,-2.608203,-1.580904,-0.087713,-0.076142,0.142294,7.506934,0.451719,-0.021653,0.005135
-0.121350,0.606072,-0.002162,-0.999943,-0.003081,-0.005769,0.008414,-1.653613,-0.943173,1.963059,-2.608432,-1.580842,-0.089068,-0.077610,0.140182,7.508256,0.451971,-0.021072,0.005156
-0.120549,0.606059,-0.002165,-0.999943,-0.003085,-0.005765,0.008382,-1.654972,-0.943377,1.963547,-2.608665,-1.580826,-0.090435,-0.078787,0.138240,7.510104,0.452247,-0.020482,0.005181
-0.119741,0.606045,-0.002168,-0.999944,-0.003084,-0.005774,0.008350,-1.656330,-0.943578,1.964034,-2.608903,-1.580819,-0.091789,-0.080188,0.136413,7.511861,0.452508,-0.019899,0.005207
-0.118943,0.606033,-0.002171,-0.999944,-0.003082,-0.005761,0.008322,-1.657690,-0.943779,1.964519,-2.609143,-1.580773,-0.093145,-0.081487,0.134764,7.513033,0.452717,-0.019312,0.005227
-0.118142,0.606012,-0.002186,-0.999944,-0.003085,-0.005758,0.008282,-1.659048,-0.943962,1.965012,-2.609386,-1.580762,-0.094511,-0.082364,0.132788,7.520309,0.453363,-0.018712,0.005258
-0.117327,0.606001,-0.002186,-0.999944,-0.003085,-0.005784,0.008257,-1.660405,-0.944161,1.965489,-2.609634,-1.580788,-0.095866,-0.083515,0.130878,7.527228,0.453980,-0.018120,0.005289
-0.116521,0.605993,-0.002185,-0.999945,-0.003084,-0.005788,0.008237,-1.661765,-0.944361,1.965964,-2.609884,-1.580773,-0.097224,-0.085014,0.130009,7.522428,0.453719,-0.017518,0.005304
-0.115720,0.605985,-0.002186,-0.999945,-0.003083,-0.005784,0.008218,-1.663125,-0.944557,1.966438,-2.610137,-1.580744,-0.098582,-0.086082,0.129338,7.518198,0.453475,-0.016903,0.005317
-0.114919,0.605977,-0.002187,-0.999945,-0.003082,-0.005779,0.008199,-1.664486,-0.944751,1.966910,-2.610391,-1.580714,-0.099940,-0.086689,0.128285,7.519442,0.453637,-0.016290,0.005335
-0.114116,0.605969,-0.002188,-0.999945,-0.003081,-0.005776,0.008181,-1.665847,-0.944942,1.967381,-2.610648,-1.580690,-0.101298,-0.087175,0.127251,7.520297,0.453774,-0.015670,0.005351
-0.113313,0.605961,-0.002190,-0.999945,-0.003080,-0.005777,0.008164,-1.667207,-0.945132,1.967849,-2.610906,-1.580673,-0.102657,-0.087619,0.126307,7.521093,0.453899,-0.015047,0.005366
-0.112506,0.605953,-0.002192,-0.999945,-0.003080,-0.005783,0.008147,-1.668567,-0.945319,1.968314,-2.611166,-1.580666,-0.104017,-0.088036,0.125447,7.521874,0.454012,-0.014421,0.005380
-0.111698,0.605945,-0.002194,-0.999945,-0.003081,-0.005794,0.008132,-1.669926,-0.945505,1.968777,-2.611427,-1.580668,-0.105377,-0.088430,0.124660,7.522638,0.454117,-0.013793,0.005393
-0.110888,0.605938,-0.002195,-0.999945,-0.003081,-0.005810,0.008117,-1.671285,-0.945689,1.969237,-2.611690,-1.580679,-0.106738,-0.088803,0.123936,7.523381,0.454213,-0.013161,0.005405
-0.110075,0.605931,-0.002197,-0.999945,-0.003082,-0.005830,0.008102,-1.672644,-0.945868,1.969697,-2.611954,-1.580694,-0.108090,-0.093764,0.131104,7.418401,0.446507,-0.012629,0.005394
-0.109256,0.605914,-0.002211,-0.999945,-0.003096,-0.005866,0.008074,-1.674000,-0.946037,1.970158,-2.612219,-1.580760,-0.109486,-0.098724,0.137919,7.312124,0.438766,-0.012072,0.005383
-0.108430,0.605909,-0.002209,-0.999945,-0.003097,-0.005915,0.008063,-1.675357,-0.946220,1.970606,-2.612487,-1.580834,-0.110841,-0.099618,0.137351,7.305825,0.438391,-0.011390,0.005388
-0.107609,0.605905,-0.002207,-0.999945,-0.003099,-0.005952,0.008054,-1.676715,-0.946402,1.971052,-2.612754,-1.580884,-0.112204,-0.100641,0.137270,7.301122,0.438051,-0.010712,0.005391
-0.106785,0.605900,-0.002206,-0.999945,-0.003103,-0.005996,0.008043,-1.678072,-0.946580,1.971497,-2.613022,-1.580956,-0.113570,-0.100688,0.136862,7.301934,0.438123,-0.010145,0.005401
-0.105951,0.605892,-0.002207,-0.999945,-0.003108,-0.006062,0.008029,-1.679427,-0.946754,1.971939,-2.613291,-1.581062,-0.114934,-0.102986,0.136050,7.303346,0.438201,-0.009170,0.005410
-0.105155,0.605890,-0.002207,-0.999945,-0.003099,-0.006047,0.008026,-1.680792,-0.946930,1.972381,-2.613560,-1.580992,-0.116282,-0.105077,0.135291,7.304774,0.438269,-0.008141,0.005412
-0.104357,0.605888,-0.002207,-0.999945,-0.003103,-0.006036,0.008022,-1.682154,-0.947104,1.972820,-2.613830,-1.580962,-0.117653,-0.103537,0.135135,7.304982,0.438292,-0.007606,0.005412
-0.103543,0.605883,-0.002208,-0.999945,-0.003101,-0.006059,0.008015,-1.683515,-0.947276,1.973255,-2.614100,-1.580975,-0.119006,-0.104386,0.134685,7.305809,0.438302,-0.006604,0.005409
-0.102745,0.605882,-0.002208,-0.999945,-0.003103,-0.006049,0.008013,-1.684878,-0.947447,1.973688,-2.614369,-1.580941,-0.120377,-0.105457,0.134228,7.306718,0.438309,-0.005566,0.005404
-0.101942,0.605879,-0.002208,-0.999945,-0.003097,-0.006049,0.008011,-1.686241,-0.947617,1.974119,-2.614639,-1.580910,-0.121726,-0.103737,0.134206,7.306827,0.438306,-0.005020,0.005398
-0.101135,0.605877,-0.002209,-0.999945,-0.003101,-0.006057,0.008008,-1.687602,-0.947784,1.974546,-2.614908,-1.580912,-0.123097,-0.103346,0.133921,7.307844,0.438331,-0.004281,0.005398
-0.100341,0.605870,-0.002216,-0.999945,-0.003090,-0.006039,0.008000,-1.688967,-0.947941,1.974978,-2.615175,-1.580846,-0.124440,-0.101420,0.132590,7.324110,0.439506,-0.003856,0.005409
-0.099528,0.605865,-0.002220,-0.999945,-0.003099,-0.006060,0.007993,-1.690327,-0.948103,1.975401,-2.615443,-1.580877,-0.125814,-0.101842,0.131563,7.331243,0.440026,-0.003195,0.005406
-0.098730,0.605867,-0.002216,-0.999945,-0.003091,-0.006049,0.007998,-1.691692,-0.948273,1.975816,-2.615710,-1.580814,-0.127164,-0.103070,0.131835,7.322684,0.439360,-0.002483,0.005388
-0.097928,0.605869,-0.002213,-0.999945,-0.003096,-0.006048,0.008002,-1.693055,-0.948439,1.976229,-2.615978,-1.580805,-0.128539,-0.099643,0.132262,7.321950,0.439300,-0.002476,0.005381
-0.097118,0.605868,-0.002211,-0.999945,-0.003090,-0.006062,0.008002,-1.694418,-0.948602,1.976640,-2.616244,-1.580793,-0.129886,-0.099087,0.132152,7.321907,0.439259,-0.002021,0.005381
-0.096324,0.605869,-0.002210,-0.999945,-0.003092,-0.006043,0.008007,-1.695782,-0.948764,1.977049,-2.616509,-1.580744,-0.131259,-0.098816,0.132065,7.321222,0.439173,-0.001573,0.005377
-0.095514,0.605868,-0.002209,-0.999945,-0.003087,-0.006057,0.008007,-1.697145,-0.948923,1.977454,-2.616773,-1.580736,-0.132608,-0.098157,0.132050,7.320602,0.439085,-0.001112,0.005372
-0.094711,0.605868,-0.002209,-0.999945,-0.003092,-0.006058,0.008009,-1.698508,-0.949080,1.977857,-2.617035,-1.580725,-0.133983,-0.100040,0.131576,7.321899,0.439085,-0.000192,0.005376
-0.093910,0.605868,-0.002208,-0.999945,-0.003084,-0.006054,0.008012,-1.699873,-0.949234,1.978261,-2.617296,-1.580674,-0.135321,-0.105735,0.139567,7.211011,0.430866,0.000165,0.005346
-0.093106,0.605859,-0.002220,-0.999945,-0.003099,-0.006058,0.008000,-1.701234,-0.949377,1.978664,-2.617556,-1.580682,-0.136725,-0.110806,0.147285,7.098831,0.422610,0.000539,0.005311
-0.092299,0.605861,-0.002216,-0.999945,-0.003091,-0.006065,0.008006,-1.702598,-0.949536,1.979055,-2.617817,-1.580656,-0.138067,-0.112191,0.146537,7.098551,0.422556,0.001471,0.005310
-0.091505,0.605865,-0.002212,-0.999945,-0.003091,-0.006046,0.008016,-1.703963,-0.949692,1.979444,-2.618075,-1.580604,-0.139437,-0.111643,0.146570,7.098014,0.422468,0.001932,0.005309
-0.090692,0.605865,-0.002209,-0.999945,-0.003087,-0.006069,0.008018,-1.705325,-0.949845,1.979829,-2.618333,-1.580616,-0.140787,-0.111206,0.146633,7.097754,0.422392,0.002390,0.005309
-0.089899,0.605868,-0.002207,-0.999945,-0.003083,-0.006046,0.008026,-1.706691,-0.949997,1.980214,-2.618587,-1.580548,-0.142148,-0.111321,0.146611,7.097838,0.422334,0.002950,0.005307
-0.089084,0.605866,-0.002207,-0.999945,-0.003087,-0.006072,0.008026,-1.708052,-0.950144,1.980594,-2.618841,-1.580588,-0.143516,-0.109548,0.146907,7.097330,0.422273,0.003157,0.005309
-0.088247,0.605861,-0.002207,-0.999944,-0.003093,-0.006145,0.008019,-1.709408,-0.950288,1.980971,-2.619093,-1.580716,-0.144886,-0.108499,0.147099,7.096713,0.422210,0.003341,0.005315
-0.087416,0.605857,-0.002207,-0.999944,-0.003091,-0.006205,0.008014,-1.710766,-0.950432,1.981344,-2.619344,-1.580794,-0.146239,-0.110023,0.146860,7.096704,0.422146,0.003929,0.005317
-0.086625,0.605859,-0.002206,-0.999944,-0.003084,-0.006180,0.008021,-1.712134,-0.950578,1.981717,-2.619591,-1.580708,-0.147593,-0.112848,0.146411,7.097262,0.422065,0.004963,0.005313
-0.085842,0.605854,-0.002216,-0.999944,-0.003083,-0.006139,0.008018,-1.713500,-0.950709,1.982097,-2.619834,-1.580618,-0.148961,-0.107521,0.138156,7.209748,0.430277,0.005728,0.005341
-0.085018,0.605852,-0.002214,-0.999944,-0.003088,-0.006184,0.008017,-1.714860,-0.950851,1.982460,-2.620081,-1.580686,-0.150326,-0.102452,0.130202,7.323557,0.438529,0.006465,0.005368
-0.084214,0.605855,-0.002210,-0.999944,-0.003083,-0.006186,0.008025,-1.716225,-0.950997,1.982820,-2.620325,-1.580651,-0.151681,-0.104526,0.130238,7.325542,0.438482,0.007482,0.005361
-0.083425,0.605860,-0.002206,-0.999944,-0.003081,-0.006157,0.008036,-1.717592,-0.951140,1.983178,-2.620566,-1.580574,-0.153047,-0.103733,0.130409,7.325443,0.438389,0.008108,0.005356
-0.082610,0.605859,-0.002205,-0.999944,-0.003082,-0.006182,0.008038,-1.718954,-0.951279,1.983533,-2.620807,-1.580599,-0.154406,-0.103485,0.130468,7.325565,0.438310,0.008843,0.005349
-0.081813,0.605861,-0.002203,-0.999944,-0.003076,-0.006169,0.008045,-1.720320,-0.951417,1.983886,-2.621045,-1.580538,-0.155762,-0.103134,0.130523,7.325485,0.438213,0.009590,0.005336
-0.081006,0.605861,-0.002203,-0.999944,-0.003081,-0.006178,0.008048,-1.721682,-0.951552,1.984236,-2.621282,-1.580543,-0.157135,-0.102641,0.130608,7.325676,0.438137,0.010294,0.005329
-0.080201,0.605862,-0.002202,-0.999944,-0.003076,-0.006183,0.008052,-1.723046,-0.951686,1.984583,-2.621518,-1.580517,-0.158488,-0.105788,0.130134,7.327064,0.438099,0.011482,0.005323
-0.079410,0.605857,-0.002210,-0.999944,-0.003071,-0.006159,0.008050,-1.724412,-0.951808,1.984936,-2.621748,-1.580455,-0.159848,-0.103528,0.129509,7.339327,0.438964,0.011815,0.005326
-0.078590,0.605854,-0.002211,-0.999944,-0.003075,-0.006196,0.008047,-1.725772,-0.951937,1.985276,-2.621981,-1.580505,-0.161210,-0.100961,0.128799,7.350954,0.439810,0.012104,0.005331
-0.077785,0.605857,-0.002207,-0.999944,-0.003072,-0.006200,0.008056,-1.727136,-0.952073,1.985610,-2.622212,-1.580479,-0.162569,-0.104063,0.128262,7.351287,0.439719,0.013233,0.005324
-0.076993,0.605862,-0.002203,-0.999944,-0.003067,-0.006177,0.008067,-1.728503,-0.952206,1.985943,-2.622439,-1.580402,-0.163926,-0.104269,0.128390,7.350976,0.439598,0.013908,0.005311
-0.076188,0.605863,-0.002201,-0.999944,-0.003070,-0.006183,0.008073,-1.729866,-0.952335,1.986273,-2.622666,-1.580397,-0.165297,-0.105318,0.129636,7.335484,0.438350,0.014633,0.005292
-0.075381,0.605864,-0.002199,-0.999943,-0.003067,-0.006192,0.008077,-1.731229,-0.952462,1.986600,-2.622891,-1.580383,-0.166653,-0.106707,0.130961,7.320849,0.437141,0.015349,0.005278
-0.074584,0.605866,-0.002198,-0.999944,-0.003064,-0.006179,0.008085,-1.732595,-0.952588,1.986924,-2.623112,-1.580330,-0.168011,-0.107025,0.131139,7.321516,0.437076,0.016020,0.005274
-0.073783,0.605858,-0.002208,-0.999944,-0.003064,-0.006178,0.008077,-1.733957,-0.952698,1.987255,-2.623331,-1.580316,-0.169378,-0.109395,0.130003,7.331723,0.437696,0.017211,0.005283
-0.072966,0.605858,-0.002206,-0.999943,-0.003064,-0.006207,0.008079,-1.735318,-0.952822,1.987572,-2.623551,-1.580342,-0.170735,-0.109572,0.129141,7.340650,0.438288,0.017930,0.005288
-0.072160,0.605861,-0.002202,-0.999943,-0.003062,-0.006213,0.008087,-1.736682,-0.952948,1.987883,-2.623769,-1.580326,-0.172096,-0.110206,0.129032,7.340395,0.438198,0.018587,0.005281
-0.071358,0.605864,-0.002198,-0.999943,-0.003060,-0.006211,0.008096,-1.738046,-0.953071,1.988193,-2.623984,-1.580292,-0.173455,-0.110646,0.129085,7.340603,0.438118,0.019250,0.005274
-0.070558,0.605866,-0.002196,-0.999943,-0.003058,-0.006206,0.008103,-1.739410,-0.953192,1.988501,-2.624196,-1.580256,-0.174815,-0.108423,0.129594,7.339420,0.437988,0.019457,0.005263
-0.069756,0.605867,-0.002195,-0.999943,-0.003056,-0.006204,0.008109,-1.740774,-0.953310,1.988806,-2.624406,-1.580226,-0.176175,-0.102694,0.122098,7.444204,0.445622,0.020220,0.005275
-0.068952,0.605868,-0.002194,-0.999943,-0.003055,-0.006205,0.008114,-1.742137,-0.953426,1.989108,-2.624615,-1.580204,-0.177536,-0.097255,0.114930,7.550533,0.453305,0.020977,0.005291
-0.068147,0.605868,-0.002193,-0.999943,-0.003054,-0.006212,0.008118,-1.743500,-0.953541,1.989407,-2.624822,-1.580190,-0.178896,-0.095313,0.115717,7.551042,0.453242,0.021179,0.005284
-0.067339,0.605868,-0.002192,-0.999943,-0.003053,-0.006222,0.008121,-1.744862,-0.953654,1.989703,-2.625027,-1.580187,-0.180257,-0.095698,0.115640,7.551430,0.453196,0.021840,0.005277
-0.066529,0.605867,-0.002192,-0.999943,-0.003053,-0.006238,0.008123,-1.746224,-0.953765,1.989995,-2.625230,-1.580192,-0.181619,-0.096192,0.115545,7.551503,0.453131,0.022497,0.005271
-0.065717,0.605866,-0.002192,-0.999943,-0.003053,-0.006258,0.008124,-1.747584,-0.953875,1.990285,-2.625432,-1.580207,-0.182981,-0.096245,0.115557,7.551226,0.453045,0.023046,0.005267
-0.064909,0.605857,-0.002202,-0.999943,-0.003051,-0.006273,0.008114,-1.748945,-0.953971,1.990580,-2.625629,-1.580217,-0.184339,-0.097816,0.114637,7.560137,0.453585,0.024001,0.005267
-0.064092,0.605855,-0.002201,-0.999943,-0.003054,-0.006303,0.008114,-1.750304,-0.954080,1.990861,-2.625828,-1.580254,-0.185703,-0.098686,0.113779,7.568686,0.454102,0.024977,0.005265
-0.063272,0.605856,-0.002196,-0.999942,-0.003056,-0.006340,0.008117,-1.751663,-0.954190,1.991137,-2.626025,-1.580300,-0.187068,-0.097473,0.114030,7.567996,0.453983,0.025489,0.005259
-0.062451,0.605855,-0.002194,-0.999942,-0.003059,-0.006378,0.008118,-1.753022,-0.954296,1.991411,-2.626220,-1.580351,-0.188432,-0.095007,0.114587,7.567201,0.453896,0.025553,0.005260
-0.061629,0.605852,-0.002192,-0.999942,-0.003062,-0.006419,0.008116,-1.754380,-0.954401,1.991683,-2.626413,-1.580408,-0.189796,-0.096067,0.115100,7.560168,0.453313,0.025987,0.005252
-0.060805,0.605849,-0.002191,-0.999942,-0.003065,-0.006463,0.008113,-1.755738,-0.954502,1.991951,-2.626604,-1.580471,-0.191162,-0.096843,0.115698,7.553022,0.452716,0.026427,0.005243
-0.059980,0.605845,-0.002191,-0.999941,-0.003069,-0.006511,0.008109,-1.757095,-0.954602,1.992217,-2.626793,-1.580542,-0.192527,-0.094751,0.116143,7.552083,0.452635,0.026472,0.005247
-0.059155,0.605841,-0.002191,-0.999941,-0.003072,-0.006560,0.008105,-1.758452,-0.954701,1.992480,-2.626980,-1.580613,-0.193892,-0.095541,0.115976,7.551909,0.452572,0.026954,0.005250
-0.058332,0.605837,-0.002191,-0.999941,-0.003076,-0.006602,0.008101,-1.759810,-0.954798,1.992740,-2.627165,-1.580673,-0.195257,-0.096588,0.115797,7.551540,0.452485,0.027470,0.005253
-0.057511,0.605834,-0.002190,-0.999940,-0.003079,-0.006644,0.008097,-1.761167,-0.954894,1.992997,-2.627348,-1.580730,-0.196622,-0.095347,0.116047,7.550396,0.452387,0.027573,0.005262
-0.056690,0.605828,-0.002194,-0.999940,-0.003078,-0.006682,0.008090,-1.762524,-0.954982,1.993255,-2.627527,-1.580781,-0.197975,-0.092993,0.114712,7.571825,0.453934,0.027827,0.005244
-0.055871,0.605818,-0.002202,-0.999940,-0.003089,-0.006720,0.008077,-1.763881,-0.955069,1.993510,-2.627705,-1.580839,-0.199358,-0.090377,0.113130,7.591949,0.455436,0.028085,0.005227
-0.055057,0.605819,-0.002197,-0.999940,-0.003086,-0.006742,0.008082,-1.765241,-0.955167,1.993755,-2.627883,-1.580843,-0.200709,-0.093130,0.113430,7.577825,0.454339,0.028801,0.005224
-0.054264,0.605824,-0.002193,-0.999940,-0.003083,-0.006720,0.008095,-1.766605,-0.955265,1.993997,-2.628057,-1.580770,-0.202069,-0.095460,0.114337,7.565427,0.453277,0.029535,0.005219
-0.053459,0.605825,-0.002191,-0.999940,-0.003085,-0.006726,0.008100,-1.767965,-0.955358,1.994238,-2.628230,-1.580762,-0.203433,-0.093199,0.115037,7.564882,0.453179,0.029670,0.005229
-0.052652,0.605825,-0.002189,-0.999940,-0.003082,-0.006735,0.008104,-1.769326,-0.955450,1.994475,-2.628400,-1.580745,-0.204785,-0.092756,0.115129,7.564135,0.453067,0.030016,0.005237
-0.051852,0.605826,-0.002188,-0.999940,-0.003082,-0.006728,0.008110,-1.770687,-0.955540,1.994710,-2.628568,-1.580710,-0.206149,-0.092494,0.115220,7.562877,0.452920,0.030354,0.005245
-0.051047,0.605826,-0.002187,-0.999940,-0.003079,-0.006735,0.008113,-1.772047,-0.955628,1.994942,-2.628734,-1.580690,-0.207501,-0.091843,0.115404,7.561648,0.452769,0.030705,0.005251
-0.050249,0.605818,-0.002198,-0.999940,-0.003079,-0.006727,0.008106,-1.773407,-0.955701,1.995180,-2.628895,-1.580661,-0.208864,-0.090869,0.115070,7.567697,0.453146,0.031105,0.005267
-0.049438,0.605818,-0.002195,-0.999940,-0.003078,-0.006745,0.008109,-1.774765,-0.955788,1.995403,-2.629059,-1.580664,-0.210215,-0.090490,0.115362,7.564133,0.452831,0.031438,0.005271
-0.048638,0.605822,-0.002191,-0.999940,-0.003074,-0.006737,0.008120,-1.776127,-0.955877,1.995622,-2.629219,-1.580616,-0.211571,-0.091226,0.116075,7.554527,0.452009,0.031969,0.005263
-0.047836,0.605824,-0.002188,-0.999940,-0.003076,-0.006737,0.008127,-1.777486,-0.955963,1.995840,-2.629378,-1.580593,-0.212933,-0.091291,0.116164,7.554921,0.451908,0.032573,0.005270
-0.047030,0.605824,-0.002186,-0.999940,-0.003073,-0.006744,0.008131,-1.778845,-0.956046,1.996054,-2.629534,-1.580576,-0.214285,-0.091796,0.116045,7.554790,0.451796,0.033161,0.005277
-0.046230,0.605826,-0.002184,-0.999940,-0.003070,-0.006737,0.008138,-1.780206,-0.956127,1.996266,-2.629688,-1.580532,-0.215639,-0.092421,0.115935,7.554230,0.451653,0.033743,0.005281
-0.045426,0.605816,-0.002195,-0.999940,-0.003072,-0.006743,0.008127,-1.781562,-0.956191,1.996485,-2.629837,-1.580532,-0.217003,-0.092797,0.115504,7.558465,0.451855,0.034369,0.005293
-0.044611,0.605816,-0.002192,-0.999939,-0.003071,-0.006769,0.008130,-1.782919,-0.956272,1.996687,-2.629989,-1.580552,-0.218356,-0.093468,0.115018,7.562477,0.452043,0.034984,0.005304
-0.043804,0.605818,-0.002187,-0.999939,-0.003069,-0.006779,0.008136,-1.784276,-0.956352,1.996887,-2.630138,-1.580542,-0.219711,-0.094363,0.114936,7.561735,0.451879,0.035553,0.005310
-0.042999,0.605820,-0.002185,-0.999939,-0.003068,-0.006783,0.008142,-1.785634,-0.956430,1.997084,-2.630284,-1.580521,-0.221065,-0.094954,0.114958,7.561252,0.451725,0.036134,0.005316
-0.042195,0.605820,-0.002183,-0.999939,-0.003066,-0.006787,0.008146,-1.786992,-0.956505,1.997280,-2.630428,-1.580502,-0.222419,-0.095369,0.114989,7.560754,0.451572,0.036720,0.005321
-0.041389,0.605820,-0.002182,-0.999939,-0.003065,-0.006793,0.008149,-1.788349,-0.956578,1.997472,-2.630569,-1.580488,-0.223774,-0.095694,0.115015,7.560220,0.451420,0.037309,0.005326
-0.040582,0.605819,-0.002181,-0.999939,-0.003064,-0.006804,0.008151,-1.789706,-0.956649,1.997661,-2.630709,-1.580483,-0.225129,-0.096402,0.115666,7.551051,0.450640,0.037845,0.005322
-0.039772,0.605817,-0.002181,-0.999939,-0.003064,-0.006818,0.008152,-1.791061,-0.956718,1.997847,-2.630846,-1.580487,-0.226484,-0.097095,0.116368,7.542312,0.449881,0.038383,0.005319
-0.038961,0.605815,-0.002180,-0.999939,-0.003064,-0.006837,0.008151,-1.792416,-0.956785,1.998030,-2.630981,-1.580499,-0.227840,-0.097302,0.116397,7.542166,0.449756,0.038979,0.005322
-0.038148,0.605812,-0.002180,-0.999939,-0.003064,-0.006861,0.008149,-1.793770,-0.956852,1.998209,-2.631115,-1.580520,-0.229195,-0.097467,0.116336,7.541518,0.449613,0.039575,0.005325
-0.037332,0.605809,-0.002180,-0.999938,-0.003065,-0.006888,0.008147,-1.795123,-0.956916,1.998385,-2.631247,-1.580550,-0.230551,-0.097655,0.116293,7.540840,0.449464,0.040172,0.005327
-0.036521,0.605797,-0.002191,-0.999938,-0.003066,-0.006909,0.008131,-1.796476,-0.956966,1.998568,-2.631373,-1.580573,-0.231905,-0.097560,0.115873,7.545750,0.449716,0.040821,0.005335
-0.035700,0.605794,-0.002189,-0.999938,-0.003069,-0.006948,0.008129,-1.797827,-0.957031,1.998735,-2.631502,-1.580626,-0.233262,-0.097486,0.115453,7.550406,0.449950,0.041468,0.005342
-0.034878,0.605792,-0.002185,-0.999938,-0.003071,-0.006991,0.008127,-1.799179,-0.957095,1.998898,-2.631629,-1.580685,-0.234620,-0.097575,0.115519,7.549460,0.449778,0.042022,0.005344
-0.034055,0.605788,-0.002183,-0.999938,-0.003074,-0.007034,0.008122,-1.800529,-0.957156,1.999059,-2.631753,-1.580744,-0.235975,-0.098084,0.115513,7.548933,0.449608,0.042640,0.005345
-0.033240,0.605786,-0.002181,-0.999937,-0.003073,-0.007059,0.008121,-1.801882,-0.957216,1.999219,-2.631876,-1.580763,-0.237327,-0.099051,0.115354,7.548555,0.449427,0.043365,0.005345
-0.032433,0.605785,-0.002180,-0.999937,-0.003072,-0.007069,0.008124,-1.803236,-0.957275,1.999376,-2.631997,-1.580753,-0.238679,-0.101089,0.116834,7.525217,0.447574,0.043940,0.005369
-0.031629,0.605785,-0.002180,-0.999937,-0.003072,-0.007074,0.008127,-1.804590,-0.957332,1.999530,-2.632116,-1.580736,-0.240032,-0.103009,0.118652,7.503153,0.445760,0.044523,0.005392
-0.030824,0.605784,-0.002179,-0.999937,-0.003071,-0.007080,0.008130,-1.805943,-0.957387,1.999681,-2.632233,-1.580720,-0.241384,-0.102400,0.119116,7.503813,0.445646,0.045037,0.005390
-0.030017,0.605783,-0.002179,-0.999937,-0.003070,-0.007088,0.008131,-1.807296,-0.957441,1.999828,-2.632348,-1.580710,-0.242736,-0.102188,0.119120,7.503266,0.445510,0.045537,0.005391
-0.029209,0.605781,-0.002178,-0.999937,-0.003070,-0.007100,0.008132,-1.808648,-0.957494,1.999973,-2.632460,-1.580707,-0.244087,-0.103524,0.118776,7.502859,0.445348,0.046258,0.005389
-0.028400,0.605779,-0.002178,-0.999937,-0.003070,-0.007115,0.008132,-1.809999,-0.957544,2.000114,-2.632571,-1.580712,-0.245439,-0.103505,0.118780,7.502007,0.445189,0.046751,0.005390
-0.027594,0.605769,-0.002189,-0.999937,-0.003069,-0.007124,0.008120,-1.811349,-0.957580,2.000261,-2.632676,-1.580710,-0.246787,-0.103249,0.118279,7.508140,0.445531,0.047313,0.005398
-0.026780,0.605767,-0.002187,-0.999937,-0.003071,-0.007151,0.008120,-1.812699,-0.957631,2.000393,-2.632784,-1.580737,-0.248140,-0.103171,0.117718,7.513897,0.445853,0.047868,0.005407
-0.025962,0.605766,-0.002183,-0.999937,-0.003072,-0.007181,0.008120,-1.814048,-0.957682,2.000521,-2.632890,-1.580771,-0.249493,-0.103948,0.118180,7.505808,0.445164,0.048297,0.005403
-0.025149,0.605765,-0.002180,-0.999936,-0.003069,-0.007204,0.008121,-1.815398,-0.957731,2.000648,-2.632993,-1.580777,-0.250833,-0.107160,0.118065,7.499025,0.444423,0.049236,0.005393
-0.024352,0.605767,-0.002178,-0.999936,-0.003070,-0.007193,0.008129,-1.816750,-0.957778,2.000772,-2.633095,-1.580734,-0.252192,-0.108431,0.117762,7.498738,0.444204,0.050005,0.005392
-0.023543,0.605766,-0.002177,-0.999936,-0.003069,-0.007207,0.008130,-1.818100,-0.957822,2.000893,-2.633194,-1.580727,-0.253533,-0.109812,0.117365,7.497744,0.443951,0.050767,0.005391
-0.022741,0.605766,-0.002177,-0.999936,-0.003070,-0.007206,0.008134,-1.819450,-0.957865,2.001012,-2.633290,-1.580705,-0.254891,-0.111157,0.116994,7.496717,0.443693,0.051531,0.005390
-0.021939,0.605766,-0.002176,-0.999936,-0.003066,-0.007205,0.008139,-1.820800,-0.957907,2.001127,-2.633385,-1.580672,-0.256231,-0.110043,0.117319,7.495343,0.443533,0.051793,0.005396
-0.021137,0.605765,-0.002175,-0.999936,-0.003062,-0.007204,0.008142,-1.822150,-0.957948,2.001239,-2.633477,-1.580643,-0.257575,-0.109288,0.117972,7.489151,0.443025,0.052009,0.005396
-0.020334,0.605765,-0.002175,-0.999936,-0.003058,-0.007206,0.008146,-1.823500,-0.957987,2.001348,-2.633567,-1.580614,-0.258915,-0.108009,0.118768,7.483149,0.442523,0.052243,0.005389
-0.019529,0.605764,-0.002174,-0.999936,-0.003060,-0.007212,0.008147,-1.824848,-0.958024,2.001454,-2.633655,-1.580604,-0.260265,-0.108958,0.118432,7.482935,0.442320,0.053031,0.005390
-0.018731,0.605765,-0.002174,-0.999936,-0.003056,-0.007202,0.008154,-1.826197,-0.958061,2.001557,-2.633741,-1.580554,-0.261608,-0.110256,0.117979,7.482480,0.442109,0.053808,0.005398
-0.017923,0.605763,-0.002174,-0.999936,-0.003054,-0.007215,0.008153,-1.827544,-0.958095,2.001655,-2.633825,-1.580548,-0.262948,-0.111617,0.117574,7.481761,0.441875,0.054578,0.005396
-0.017124,0.605763,-0.002173,-0.999936,-0.003054,-0.007209,0.008158,-1.828892,-0.958129,2.001751,-2.633906,-1.580516,-0.264301,-0.112873,0.117231,7.481063,0.441636,0.055354,0.005395
-0.016321,0.605762,-0.002173,-0.999936,-0.003049,-0.007209,0.008162,-1.830240,-0.958162,2.001844,-2.633986,-1.580484,-0.265635,-0.111668,0.117626,7.479550,0.441461,0.055630,0.005398
-0.015518,0.605761,-0.002172,-0.999936,-0.003045,-0.007212,0.008164,-1.831586,-0.958193,2.001933,-2.634063,-1.580461,-0.266974,-0.110375,0.118066,7.477944,0.441277,0.055910,0.005396
-0.014714,0.605761,-0.002172,-0.999936,-0.003042,-0.007214,0.008167,-1.832933,-0.958223,2.002020,-2.634139,-1.580437,-0.268314,-0.108731,0.118629,7.476213,0.441078,0.056202,0.005382
-0.013912,0.605760,-0.002172,-0.999936,-0.003040,-0.007215,0.008169,-1.834279,-0.958251,2.002102,-2.634212,-1.580411,-0.269656,-0.106889,0.119266,7.474396,0.440868,0.056502,0.005362
-0.013110,0.605759,-0.002171,-0.999936,-0.003038,-0.007215,0.008173,-1.835624,-0.958279,2.002182,-2.634283,-1.580387,-0.271000,-0.105020,0.119902,7.472653,0.440664,0.056806,0.005350
-0.012306,0.605758,-0.002171,-0.999936,-0.003036,-0.007218,0.008175,-1.836969,-0.958305,2.002258,-2.634351,-1.580364,-0.272338,-0.106123,0.120086,7.466673,0.440032,0.057554,0.005346
-0.011504,0.605758,-0.002171,-0.999936,-0.003033,-0.007217,0.008178,-1.838314,-0.958329,2.002331,-2.634418,-1.580332,-0.273677,-0.107149,0.120313,7.460862,0.439407,0.058308,0.005333
-0.010706,0.605752,-0.002178,-0.999936,-0.003026,-0.007210,0.008173,-1.839657,-0.958342,2.002408,-2.634479,-1.580298,-0.275009,-0.104022,0.119941,7.474894,0.440339,0.058801,0.005323
-0.009900,0.605748,-0.002181,-0.999936,-0.003025,-0.007220,0.008170,-1.841000,-0.958363,2.002476,-2.634541,-1.580285,-0.276344,-0.102698,0.118773,7.488538,0.441185,0.059680,0.005315
-0.009097,0.605750,-0.002177,-0.999936,-0.003029,-0.007221,0.008177,-1.842344,-0.958388,2.002536,-2.634603,-1.580267,-0.277699,-0.104490,0.118021,7.487887,0.440896,0.060778,0.005309
-0.008299,0.605753,-0.002173,-0.999936,-0.003020,-0.007211,0.008186,-1.843688,-0.958412,2.002593,-2.634662,-1.580209,-0.279026,-0.104234,0.118157,7.487292,0.440695,0.061379,0.005307
-0.007487,0.605751,-0.002171,-0.999936,-0.003024,-0.007231,0.008185,-1.845028,-0.958432,2.002648,-2.634719,-1.580228,-0.280371,-0.104214,0.118246,7.486632,0.440492,0.061970,0.005299
-0.006691,0.605753,-0.002170,-0.999936,-0.003015,-0.007217,0.008193,-1.846372,-0.958451,2.002701,-2.634772,-1.580163,-0.281699,-0.104182,0.118323,7.485899,0.440287,0.062561,0.005287
-0.005883,0.605750,-0.002169,-0.999936,-0.003019,-0.007231,0.008192,-1.847712,-0.958466,2.002750,-2.634824,-1.580172,-0.283044,-0.104037,0.118415,7.485160,0.440083,0.063155,0.005275
-0.005086,0.605751,-0.002168,-0.999936,-0.003010,-0.007220,0.008198,-1.849055,-0.958482,2.002797,-2.634872,-1.580111,-0.284371,-0.103827,0.118527,7.484312,0.439871,0.063750,0.005261
-0.004279,0.605749,-0.002168,-0.999936,-0.003013,-0.007231,0.008197,-1.850394,-0.958495,2.002840,-2.634919,-1.580115,-0.285713,-0.103493,0.118680,7.483338,0.439651,0.064346,0.005245
-0.003486,0.605746,-0.002173,-0.999936,-0.003000,-0.007211,0.008198,-1.851735,-0.958499,2.002887,-2.634960,-1.580044,-0.287033,-0.102055,0.118160,7.494209,0.440280,0.065085,0.005220
-0.002674,0.605737,-0.002179,-0.999936,-0.003009,-0.007235,0.008186,-1.853071,-0.958505,2.002926,-2.635003,-1.580079,-0.288383,-0.100516,0.117448,7.504460,0.440900,0.065822,0.005194
-0.001871,0.605739,-0.002174,-0.999936,-0.003002,-0.007235,0.008193,-1.854411,-0.958520,2.002956,-2.635044,-1.580037,-0.289708,-0.102384,0.116662,7.503761,0.440615,0.066906,0.005177
-0.001076,0.605743,-0.002171,-0.999936,-0.003003,-0.007219,0.008204,-1.855751,-0.958532,2.002985,-2.635083,-1.579988,-0.291054,-0.099275,0.117603,7.501866,0.440454,0.067002,0.005170
-0.000264,0.605740,-0.002169,-0.999936,-0.002997,-0.007239,0.008202,-1.857088,-0.958541,2.003010,-2.635119,-1.579990,-0.292374,-0.096686,0.118414,7.500116,0.440305,0.067083,0.005164
0.000530,0.605742,-0.002167,-0.999936,-0.002995,-0.007222,0.008210,-1.858427,-0.958548,2.003033,-2.635152,-1.579934,-0.293714,-0.094282,0.119181,7.498147,0.440145,0.067158,0.005156
0.001337,0.605740,-0.002167,-0.999936,-0.002990,-0.007232,0.008209,-1.859763,-0.958553,2.003053,-2.635183,-1.579918,-0.295035,-0.091647,0.120010,7.496186,0.439984,0.067239,0.005147
0.002140,0.605739,-0.002166,-0.999936,-0.002991,-0.007234,0.008210,-1.861099,-0.958557,2.003070,-2.635212,-1.579901,-0.296376,-0.093892,0.119340,7.496278,0.439725,0.068311,0.005129
0.002938,0.605739,-0.002166,-0.999936,-0.002984,-0.007226,0.008214,-1.862436,-0.958556,2.003087,-2.635237,-1.579844,-0.297690,-0.101184,0.126008,7.391665,0.432054,0.067729,0.005094
0.003746,0.605726,-0.002177,-0.999936,-0.002999,-0.007242,0.008196,-1.863768,-0.958545,2.003103,-2.635260,-1.579877,-0.299063,-0.108475,0.132251,7.285737,0.424358,0.067136,0.005065
0.004558,0.605725,-0.002174,-0.999936,-0.002993,-0.007263,0.008196,-1.865101,-0.958549,2.003107,-2.635286,-1.579880,-0.300378,-0.108302,0.131903,7.283313,0.424112,0.067686,0.005051
0.005353,0.605728,-0.002170,-0.999936,-0.002986,-0.007246,0.008207,-1.866438,-0.958552,2.003109,-2.635306,-1.579811,-0.301702,-0.108131,0.132061,7.281928,0.423866,0.068236,0.005030
0.006146,0.605731,-0.002167,-0.999936,-0.002984,-0.007227,0.008216,-1.867773,-0.958552,2.003108,-2.635323,-1.579755,-0.303036,-0.105235,0.133093,7.279861,0.423682,0.068324,0.005023
0.006955,0.605728,-0.002166,-0.999936,-0.002977,-0.007240,0.008214,-1.869106,-0.958549,2.003105,-2.635338,-1.579747,-0.304352,-0.102709,0.133968,7.277744,0.423506,0.068398,0.005016
0.007751,0.605729,-0.002165,-0.999936,-0.002972,-0.007227,0.008219,-1.870440,-0.958545,2.003099,-2.635350,-1.579693,-0.305678,-0.102595,0.134141,7.276095,0.423242,0.068973,0.004993
0.008558,0.605716,-0.002177,-0.999936,-0.002973,-0.007240,0.008202,-1.871769,-0.958523,2.003098,-2.635358,-1.579708,-0.307008,-0.102079,0.133926,7.280318,0.423393,0.069641,0.004981
0.009368,0.605715,-0.002174,-0.999936,-0.002970,-0.007256,0.008201,-1.873099,-0.958518,2.003083,-2.635369,-1.579708,-0.308332,-0.104467,0.132698,7.285875,0.423535,0.070772,0.004985
0.010169,0.605716,-0.002170,-0.999936,-0.002966,-0.007253,0.008207,-1.874431,-0.958514,2.003065,-2.635376,-1.579670,-0.309655,-0.107201,0.131896,7.285784,0.423272,0.071807,0.004989
0.010966,0.605718,-0.002167,-0.999936,-0.002962,-0.007243,0.008213,-1.875763,-0.958507,2.003044,-2.635379,-1.579620,-0.310978,-0.109591,0.131256,7.285939,0.423015,0.072854,0.004984
0.011763,0.605718,-0.002166,-0.999936,-0.002958,-0.007232,0.008218,-1.877094,-0.958497,2.003021,-2.635380,-1.579569,-0.312301,-0.109083,0.131501,7.284766,0.422784,0.073413,0.004963
0.012567,0.605716,-0.002165,-0.999936,-0.002957,-0.007235,0.008218,-1.878423,-0.958484,2.002995,-2.635380,-1.579553,-0.313628,-0.108574,0.131700,7.283749,0.422569,0.073972,0.004950
0.013373,0.605714,-0.002165,-0.999936,-0.002954,-0.007243,0.008216,-1.879751,-0.958470,2.002966,-2.635378,-1.579541,-0.314950,-0.111950,0.132016,7.268408,0.421208,0.074847,0.004939
0.014177,0.605711,-0.002165,-0.999936,-0.002952,-0.007248,0.008215,-1.881078,-0.958454,2.002933,-2.635373,-1.579525,-0.316273,-0.112970,0.133231,7.252888,0.419926,0.075229,0.004925
0.014982,0.605708,-0.002165,-0.999936,-0.002950,-0.007254,0.008213,-1.882405,-0.958437,2.002897,-2.635366,-1.579511,-0.317595,-0.110414,0.134189,7.251513,0.419793,0.075285,0.004911
0.015788,0.605705,-0.002165,-0.999936,-0.002948,-0.007263,0.008210,-1.883731,-0.958418,2.002859,-2.635356,-1.579505,-0.318918,-0.110222,0.134197,7.250118,0.419574,0.075828,0.004894
0.016596,0.605700,-0.002165,-0.999936,-0.002947,-0.007276,0.008205,-1.885056,-0.958398,2.002816,-2.635345,-1.579506,-0.320240,-0.110076,0.134184,7.248790,0.419361,0.076369,0.004883
0.017404,0.605694,-0.002168,-0.999936,-0.002942,-0.007289,0.008196,-1.886379,-0.958370,2.002775,-2.635330,-1.579508,-0.321552,-0.108603,0.132701,7.270229,0.420753,0.077275,0.004851
0.018211,0.605683,-0.002177,-0.999936,-0.002947,-0.007303,0.008181,-1.887701,-0.958340,2.002731,-2.635313,-1.579521,-0.322889,-0.107121,0.130927,7.290389,0.422104,0.078170,0.004820
0.019027,0.605679,-0.002173,-0.999935,-0.002947,-0.007332,0.008176,-1.889023,-0.958320,2.002675,-2.635299,-1.579553,-0.324210,-0.107244,0.130593,7.287827,0.421850,0.078687,0.004817
0.019844,0.605674,-0.002170,-0.999935,-0.002948,-0.007363,0.008170,-1.890344,-0.958298,2.002617,-2.635281,-1.579591,-0.325532,-0.107737,0.130507,7.286690,0.421640,0.079202,0.004815
0.020662,0.605668,-0.002169,-0.999935,-0.002949,-0.007397,0.008160,-1.891663,-0.958273,2.002557,-2.635261,-1.579635,-0.326854,-0.109711,0.131582,7.266910,0.420091,0.079499,0.004817
0.021481,0.605661,-0.002168,-0.999935,-0.002950,-0.007433,0.008149,-1.892982,-0.958245,2.002494,-2.635239,-1.579685,-0.328176,-0.111761,0.132853,7.248061,0.418573,0.079799,0.004819
0.022302,0.605653,-0.002168,-0.999935,-0.002952,-0.007473,0.008136,-1.894299,-0.958215,2.002428,-2.635214,-1.579743,-0.329498,-0.109971,0.133642,7.247023,0.418464,0.079826,0.004820
0.023124,0.605643,-0.002169,-0.999934,-0.002954,-0.007515,0.008121,-1.895615,-0.958183,2.002358,-2.635188,-1.579807,-0.330820,-0.110718,0.133299,7.246185,0.418304,0.080329,0.004818
0.023947,0.605633,-0.002169,-0.999934,-0.002957,-0.007561,0.008104,-1.896931,-0.958150,2.002286,-2.635159,-1.579878,-0.332142,-0.111485,0.132954,7.245162,0.418132,0.080826,0.004817
0.024772,0.605623,-0.002170,-0.999934,-0.002961,-0.007610,0.008087,-1.898245,-0.958115,2.002211,-2.635128,-1.579955,-0.333464,-0.112297,0.132616,7.244229,0.417964,0.081319,0.004818
0.025598,0.605612,-0.002171,-0.999934,-0.002964,-0.007661,0.008068,-1.899559,-0.958079,2.002132,-2.635095,-1.580039,-0.334786,-0.113358,0.132217,7.243268,0.417797,0.081801,0.004821
0.026415,0.605594,-0.002182,-0.999934,-0.002964,-0.007696,0.008040,-1.900872,-0.958029,2.002059,-2.635056,-1.580092,-0.336100,-0.112164,0.131955,7.247956,0.418111,0.082008,0.004835
0.027231,0.605588,-0.002181,-0.999933,-0.002966,-0.007725,0.008031,-1.902187,-0.957994,2.001973,-2.635021,-1.580125,-0.337418,-0.106174,0.124226,7.357154,0.425795,0.083971,0.004866
0.028043,0.605585,-0.002177,-0.999933,-0.002966,-0.007747,0.008028,-1.903503,-0.957960,2.001882,-2.634983,-1.580140,-0.338735,-0.100594,0.117454,7.460835,0.433016,0.085823,0.004890
0.028854,0.605581,-0.002175,-0.999933,-0.002967,-0.007765,0.008023,-1.904818,-0.957923,2.001790,-2.634943,-1.580150,-0.340050,-0.099891,0.118134,7.460340,0.432849,0.086033,0.004897
0.029664,0.605576,-0.002174,-0.999933,-0.002967,-0.007783,0.008018,-1.906132,-0.957884,2.001695,-2.634901,-1.580162,-0.341366,-0.099031,0.118336,7.458765,0.432682,0.086245,0.004906
0.030476,0.605571,-0.002174,-0.999933,-0.002968,-0.007803,0.008010,-1.907445,-0.957842,2.001597,-2.634856,-1.580178,-0.342680,-0.100953,0.117597,7.458087,0.432474,0.086923,0.004910
0.031288,0.605565,-0.002174,-0.999933,-0.002969,-0.007826,0.008001,-1.908757,-0.957799,2.001496,-2.634809,-1.580202,-0.343995,-0.102671,0.116948,7.457416,0.432260,0.087606,0.004915
0.032103,0.605557,-0.002174,-0.999933,-0.002970,-0.007852,0.007991,-1.910068,-0.957754,2.001392,-2.634760,-1.580232,-0.345309,-0.104470,0.116258,7.457069,0.432070,0.088287,0.004931
0.032918,0.605549,-0.002175,-0.999933,-0.002971,-0.007882,0.007979,-1.911378,-0.957707,2.001284,-2.634709,-1.580270,-0.346622,-0.106779,0.115907,7.450916,0.431472,0.088868,0.004943
0.033734,0.605542,-0.002175,-0.999933,-0.002971,-0.007911,0.007967,-1.912688,-0.957660,2.001174,-2.634655,-1.580300,-0.347929,-0.108044,0.115850,7.444134,0.430834,0.089295,0.004947
0.034521,0.605537,-0.002184,-0.999933,-0.002960,-0.007881,0.007965,-1.914002,-0.957602,2.001069,-2.634595,-1.580213,-0.349225,-0.107907,0.114643,7.455697,0.431491,0.090043,0.004962
0.035321,0.605533,-0.002186,-0.999933,-0.002964,-0.007878,0.007962,-1.915313,-0.957552,2.000953,-2.634537,-1.580193,-0.350541,-0.106086,0.113938,7.465627,0.432166,0.090469,0.004981
0.036136,0.605529,-0.002182,-0.999933,-0.002965,-0.007906,0.007956,-1.916621,-0.957506,2.000830,-2.634480,-1.580219,-0.351849,-0.107057,0.113365,7.463564,0.431888,0.090978,0.004992
0.036933,0.605531,-0.002179,-0.999933,-0.002959,-0.007893,0.007963,-1.917933,-0.957458,2.000705,-2.634419,-1.580160,-0.353151,-0.108159,0.112961,7.462082,0.431620,0.091486,0.005002
0.037738,0.605528,-0.002178,-0.999933,-0.002961,-0.007900,0.007961,-1.919241,-0.957407,2.000577,-2.634355,-1.580155,-0.354461,-0.107332,0.113314,7.459972,0.431406,0.091691,0.005014
0.038538,0.605526,-0.002177,-0.999933,-0.002953,-0.007897,0.007962,-1.920550,-0.957354,2.000447,-2.634289,-1.580113,-0.355754,-0.106503,0.113644,7.457809,0.431192,0.091897,0.005024
0.039343,0.605523,-0.002177,-0.999933,-0.002955,-0.007901,0.007959,-1.921856,-0.957299,2.000314,-2.634221,-1.580105,-0.357065,-0.107229,0.113314,7.456586,0.430942,0.092424,0.005037
0.040142,0.605521,-0.002177,-0.999933,-0.002948,-0.007896,0.007959,-1.923164,-0.957243,2.000178,-2.634150,-1.580060,-0.358359,-0.107888,0.113005,7.455361,0.430692,0.092954,0.005050
0.040941,0.605510,-0.002187,-0.999933,-0.002948,-0.007894,0.007944,-1.924468,-0.957171,2.000047,-2.634073,-1.580051,-0.359665,-0.106401,0.112820,7.461564,0.431067,0.093313,0.005068
0.041747,0.605507,-0.002186,-0.999933,-0.002942,-0.007901,0.007942,-1.925774,-0.957114,1.999903,-2.634000,-1.580026,-0.360952,-0.107906,0.113419,7.445190,0.429757,0.093609,0.005106
0.042547,0.605508,-0.002183,-0.999933,-0.002944,-0.007897,0.007946,-1.927079,-0.957058,1.999755,-2.633924,-1.579999,-0.362265,-0.110537,0.114695,7.422065,0.427876,0.093881,0.005137
0.043349,0.605507,-0.002180,-0.999933,-0.002936,-0.007896,0.007948,-1.928383,-0.957000,1.999604,-2.633846,-1.579961,-0.363551,-0.109968,0.115291,7.421488,0.427673,0.094225,0.005140
0.044154,0.605504,-0.002179,-0.999933,-0.002938,-0.007903,0.007946,-1.929685,-0.956938,1.999450,-2.633766,-1.579956,-0.364858,-0.110075,0.115199,7.420028,0.427400,0.094773,0.005138
0.044953,0.605503,-0.002178,-0.999933,-0.002931,-0.007897,0.007947,-1.930988,-0.956875,1.999294,-2.633683,-1.579910,-0.366147,-0.110034,0.115138,7.418381,0.427115,0.095327,0.005135
0.045758,0.605499,-0.002178,-0.999933,-0.002932,-0.007903,0.007943,-1.932289,-0.956810,1.999135,-2.633598,-1.579904,-0.367450,-0.109893,0.115138,7.416662,0.426822,0.095883,0.005130
0.046556,0.605497,-0.002178,-0.999933,-0.002926,-0.007896,0.007944,-1.933590,-0.956744,1.998972,-2.633510,-1.579858,-0.368739,-0.110189,0.114966,7.415293,0.426513,0.096558,0.005124
0.047356,0.605485,-0.002190,-0.999933,-0.002929,-0.007895,0.007927,-1.934888,-0.956661,1.998816,-2.633416,-1.579853,-0.370043,-0.110221,0.114492,7.418561,0.426522,0.097328,0.005125
0.048166,0.605482,-0.002187,-0.999933,-0.002924,-0.007911,0.007923,-1.936186,-0.956596,1.998644,-2.633327,-1.579850,-0.371330,-0.111348,0.113574,7.422124,0.426488,0.098294,0.005127
0.048961,0.605484,-0.002183,-0.999933,-0.002918,-0.007896,0.007931,-1.937487,-0.956530,1.998470,-2.633234,-1.579786,-0.372618,-0.112502,0.113131,7.420879,0.426110,0.099169,0.005118
0.049764,0.605482,-0.002182,-0.999933,-0.002920,-0.007898,0.007931,-1.938784,-0.956460,1.998293,-2.633138,-1.579772,-0.373919,-0.113261,0.112849,7.420265,0.425762,0.100069,0.005109
0.050568,0.605479,-0.002181,-0.999933,-0.002915,-0.007904,0.007928,-1.940080,-0.956388,1.998113,-2.633041,-1.579754,-0.375205,-0.114087,0.113117,7.412640,0.424961,0.100749,0.005094
0.051364,0.605479,-0.002180,-0.999933,-0.002910,-0.007891,0.007931,-1.941378,-0.956315,1.997931,-2.632940,-1.579700,-0.376492,-0.113052,0.114202,7.403906,0.424215,0.101012,0.005075
0.052168,0.605465,-0.002192,-0.999933,-0.002912,-0.007898,0.007911,-1.942670,-0.956225,1.997755,-2.632833,-1.579711,-0.377789,-0.111494,0.114399,7.406660,0.424282,0.101485,0.005067
0.052980,0.605460,-0.002189,-0.999933,-0.002909,-0.007920,0.007904,-1.943962,-0.956152,1.997563,-2.632731,-1.579724,-0.379075,-0.111861,0.113706,7.409752,0.424294,0.102248,0.005063
0.053783,0.605460,-0.002185,-0.999933,-0.002905,-0.007922,0.007906,-1.945256,-0.956078,1.997369,-2.632626,-1.579699,-0.380361,-0.112520,0.113391,7.408217,0.423977,0.102912,0.005053
0.054583,0.605459,-0.002183,-0.999933,-0.002901,-0.007916,0.007908,-1.946550,-0.956001,1.997173,-2.632517,-1.579659,-0.381646,-0.112868,0.113259,7.406966,0.423665,0.103589,0.005042
0.055381,0.605458,-0.002182,-0.999933,-0.002897,-0.007909,0.007909,-1.947843,-0.955922,1.996974,-2.632405,-1.579618,-0.382931,-0.113028,0.113183,7.405730,0.423354,0.104273,0.005030
0.056180,0.605456,-0.002182,-0.999933,-0.002894,-0.007904,0.007909,-1.949134,-0.955841,1.996772,-2.632291,-1.579583,-0.384215,-0.113087,0.113127,7.404482,0.423043,0.104960,0.005016
0.056981,0.605453,-0.002182,-0.999933,-0.002891,-0.007902,0.007907,-1.950424,-0.955758,1.996567,-2.632175,-1.579555,-0.385500,-0.113090,0.113082,7.403227,0.422732,0.105650,0.005002
0.057784,0.605449,-0.002182,-0.999933,-0.002888,-0.007904,0.007903,-1.951713,-0.955674,1.996359,-2.632057,-1.579537,-0.386783,-0.111561,0.113629,7.401366,0.422484,0.106022,0.004991
0.058588,0.605444,-0.002183,-0.999933,-0.002886,-0.007910,0.007897,-1.953001,-0.955587,1.996148,-2.631937,-1.579527,-0.388067,-0.111270,0.114827,7.386866,0.421355,0.106160,0.004974
0.059395,0.605439,-0.002183,-0.999933,-0.002884,-0.007921,0.007889,-1.954287,-0.955500,1.995933,-2.631815,-1.579527,-0.389350,-0.113023,0.115357,7.373656,0.420198,0.106606,0.004954
0.060203,0.605432,-0.002184,-0.999933,-0.002883,-0.007935,0.007880,-1.955573,-0.955410,1.995715,-2.631691,-1.579535,-0.390632,-0.112196,0.115718,7.372416,0.419991,0.106959,0.004943
0.061007,0.605419,-0.002195,-0.999933,-0.002879,-0.007942,0.007860,-1.956856,-0.955307,1.995503,-2.631561,-1.579537,-0.391911,-0.110746,0.115396,7.378915,0.420346,0.107483,0.004941
0.061820,0.605411,-0.002194,-0.999933,-0.002881,-0.007967,0.007848,-1.958139,-0.955217,1.995277,-2.631435,-1.579567,-0.393194,-0.111124,0.114305,7.385603,0.420626,0.108307,0.004936
0.062636,0.605405,-0.002191,-0.999933,-0.002881,-0.007997,0.007837,-1.959420,-0.955128,1.995046,-2.631307,-1.579604,-0.394478,-0.112118,0.113790,7.384022,0.420323,0.108952,0.004928
0.063453,0.605397,-0.002189,-0.999933,-0.002882,-0.008028,0.007824,-1.960700,-0.955035,1.994813,-2.631177,-1.579646,-0.395759,-0.111732,0.113975,7.381959,0.420074,0.109273,0.004918
0.064270,0.605388,-0.002189,-0.999933,-0.002883,-0.008061,0.007809,-1.961979,-0.954940,1.994577,-2.631044,-1.579694,-0.397041,-0.111442,0.114106,7.379898,0.419831,0.109590,0.004908
0.065088,0.605377,-0.002189,-0.999933,-0.002884,-0.008096,0.007791,-1.963257,-0.954843,1.994339,-2.630909,-1.579745,-0.398321,-0.113600,0.113948,7.370461,0.418946,0.110139,0.004894
0.065901,0.605369,-0.002189,-0.999933,-0.002884,-0.008121,0.007778,-1.964535,-0.954745,1.994098,-2.630771,-1.579772,-0.399598,-0.114440,0.114345,7.360954,0.418126,0.110445,0.004882
0.066711,0.605361,-0.002190,-0.999933,-0.002883,-0.008139,0.007767,-1.965813,-0.954646,1.993854,-2.630632,-1.579787,-0.400876,-0.114139,0.114402,7.359426,0.417911,0.110785,0.004878
0.067521,0.605354,-0.002190,-0.999933,-0.002883,-0.008155,0.007756,-1.967090,-0.954545,1.993607,-2.630490,-1.579797,-0.402151,-0.115998,0.113448,7.358367,0.417595,0.111562,0.004876
0.068320,0.605351,-0.002190,-0.999933,-0.002878,-0.008150,0.007754,-1.968369,-0.954444,1.993357,-2.630345,-1.579758,-0.403420,-0.116682,0.113002,7.356837,0.417307,0.112141,0.004875
0.069119,0.605349,-0.002191,-0.999933,-0.002877,-0.008145,0.007752,-1.969647,-0.954342,1.993104,-2.630199,-1.579727,-0.404697,-0.116553,0.112953,7.355100,0.417047,0.112594,0.004874
0.069925,0.605343,-0.002191,-0.999933,-0.002875,-0.008153,0.007745,-1.970922,-0.954237,1.992848,-2.630051,-1.579722,-0.405968,-0.117155,0.112591,7.353679,0.416759,0.113175,0.004876
0.070723,0.605340,-0.002192,-0.999933,-0.002871,-0.008146,0.007744,-1.972199,-0.954133,1.992589,-2.629900,-1.579680,-0.407236,-0.117280,0.112442,7.351914,0.416483,0.113641,0.004875
0.071525,0.605336,-0.002192,-0.999933,-0.002870,-0.008148,0.007739,-1.973473,-0.954026,1.992326,-2.629748,-1.579667,-0.408509,-0.117499,0.112676,7.345578,0.415888,0.114018,0.004868
0.072328,0.605322,-0.002203,-0.999933,-0.002867,-0.008154,0.007719,-1.974745,-0.953905,1.992068,-2.629589,-1.579671,-0.409777,-0.116004,0.112696,7.349258,0.416046,0.114421,0.004868
0.073145,0.605312,-0.002204,-0.999933,-0.002871,-0.008187,0.007701,-1.976014,-0.953795,1.991797,-2.629434,-1.579723,-0.411051,-0.114031,0.112356,7.356949,0.416560,0.114775,0.004878
0.073968,0.605302,-0.002201,-0.999932,-0.002873,-0.008232,0.007683,-1.977281,-0.953688,1.991521,-2.629279,-1.579793,-0.412324,-0.113374,0.112429,7.353725,0.416333,0.114876,0.004882
0.074792,0.605290,-0.002199,-0.999932,-0.002875,-0.008279,0.007661,-1.978547,-0.953577,1.991242,-2.629121,-1.579872,-0.413596,-0.112779,0.112643,7.351080,0.416120,0.114979,0.004886
0.075617,0.605276,-0.002199,-0.999932,-0.002878,-0.008328,0.007637,-1.979811,-0.953463,1.990961,-2.628960,-1.579956,-0.414868,-0.113824,0.112129,7.349758,0.415903,0.115394,0.004897
0.076438,0.605264,-0.002199,-0.999932,-0.002878,-0.008370,0.007616,-1.981076,-0.953348,1.990677,-2.628797,-1.580018,-0.416132,-0.115936,0.111537,7.344048,0.415327,0.115865,0.004901
0.077245,0.605258,-0.002199,-0.999932,-0.002876,-0.008381,0.007607,-1.982344,-0.953233,1.990391,-2.628630,-1.580013,-0.417395,-0.116665,0.111509,7.337822,0.414745,0.116203,0.004899
0.078044,0.605255,-0.002199,-0.999932,-0.002873,-0.008375,0.007605,-1.983612,-0.953117,1.990102,-2.628460,-1.579976,-0.418656,-0.116711,0.111317,7.336138,0.414479,0.116648,0.004903
0.078840,0.605253,-0.002199,-0.999932,-0.002870,-0.008364,0.007605,-1.984880,-0.953000,1.989811,-2.628287,-1.579930,-0.419918,-0.116797,0.111088,7.334186,0.414200,0.117089,0.004906
0.079637,0.605251,-0.002200,-0.999932,-0.002867,-0.008354,0.007604,-1.986147,-0.952882,1.989516,-2.628113,-1.579886,-0.421178,-0.116934,0.110875,7.332231,0.413918,0.117527,0.004909
0.080435,0.605248,-0.002200,-0.999932,-0.002864,-0.008346,0.007602,-1.987412,-0.952762,1.989218,-2.627936,-1.579847,-0.422437,-0.117099,0.110678,7.330296,0.413634,0.117964,0.004912
0.081234,0.605244,-0.002201,-0.999932,-0.002861,-0.008342,0.007599,-1.988676,-0.952641,1.988916,-2.627758,-1.579817,-0.423696,-0.117278,0.110491,7.328372,0.413349,0.118400,0.004916
0.082034,0.605238,-0.002204,-0.999932,-0.002855,-0.008338,0.007591,-1.989939,-0.952511,1.988616,-2.627575,-1.579788,-0.424942,-0.115865,0.109040,7.348674,0.414578,0.119353,0.004892
0.082832,0.605227,-0.002213,-0.999932,-0.002859,-0.008334,0.007577,-1.991200,-0.952380,1.988312,-2.627391,-1.579770,-0.426215,-0.114243,0.107356,7.367725,0.415769,0.120299,0.004869
0.083640,0.605223,-0.002210,-0.999932,-0.002857,-0.008346,0.007571,-1.992460,-0.952259,1.987998,-2.627210,-1.579772,-0.427470,-0.114250,0.106961,7.364441,0.415434,0.120724,0.004872
0.084448,0.605218,-0.002207,-0.999932,-0.002855,-0.008361,0.007564,-1.993718,-0.952135,1.987681,-2.627025,-1.579780,-0.428726,-0.114507,0.106836,7.362443,0.415134,0.121154,0.004875
0.085258,0.605212,-0.002206,-0.999932,-0.002854,-0.008378,0.007553,-1.994975,-0.952008,1.987361,-2.626838,-1.579795,-0.429980,-0.115293,0.107245,7.352193,0.414261,0.121412,0.004871
0.086069,0.605204,-0.002206,-0.999932,-0.002853,-0.008398,0.007540,-1.996231,-0.951879,1.987039,-2.626649,-1.579817,-0.431235,-0.116068,0.107683,7.342353,0.413412,0.121677,0.004867
0.086881,0.605194,-0.002206,-0.999932,-0.002853,-0.008421,0.007525,-1.997485,-0.951748,1.986714,-2.626458,-1.579846,-0.432489,-0.116231,0.107543,7.340863,0.413149,0.122119,0.004870
0.087695,0.605184,-0.002207,-0.999932,-0.002853,-0.008447,0.007507,-1.998738,-0.951615,1.986386,-2.626265,-1.579882,-0.433743,-0.116333,0.107311,7.338869,0.412869,0.122558,0.004872
0.088506,0.605175,-0.002208,-0.999932,-0.002850,-0.008467,0.007493,-1.999991,-0.951481,1.986055,-2.626069,-1.579899,-0.434988,-0.117320,0.106665,7.337112,0.412518,0.123191,0.004871
0.089300,0.605174,-0.002208,-0.999932,-0.002844,-0.008450,0.007495,-2.001248,-0.951348,1.985722,-2.625872,-1.579838,-0.436234,-0.117617,0.106367,7.335273,0.412174,0.123773,0.004868
0.090100,0.605170,-0.002209,-0.999932,-0.002844,-0.008448,0.007491,-2.002501,-0.951212,1.985385,-2.625672,-1.579818,-0.437487,-0.116429,0.106810,7.333075,0.411906,0.124108,0.004868
0.090905,0.605164,-0.002209,-0.999932,-0.002840,-0.008455,0.007482,-2.003752,-0.951074,1.985045,-2.625471,-1.579806,-0.438727,-0.116464,0.106672,7.331168,0.411578,0.124627,0.004866
0.091703,0.605161,-0.002210,-0.999932,-0.002839,-0.008450,0.007480,-2.005004,-0.950936,1.984702,-2.625268,-1.579778,-0.439979,-0.115972,0.106777,7.329032,0.411285,0.125013,0.004864
0.092504,0.605157,-0.002210,-0.999932,-0.002832,-0.008447,0.007476,-2.006255,-0.950797,1.984356,-2.625063,-1.579745,-0.441215,-0.114648,0.107312,7.326589,0.411057,0.125203,0.004863
0.093306,0.605152,-0.002211,-0.999932,-0.002832,-0.008449,0.007469,-2.007503,-0.950656,1.984006,-2.624856,-1.579732,-0.442463,-0.115124,0.106995,7.324724,0.410738,0.125706,0.004860
0.094104,0.605148,-0.002211,-0.999932,-0.002827,-0.008443,0.007467,-2.008752,-0.950514,1.983653,-2.624646,-1.579695,-0.443702,-0.114877,0.107006,7.322634,0.410453,0.126083,0.004858
0.094907,0.605143,-0.002212,-0.999933,-0.002825,-0.008446,0.007460,-2.009999,-0.950370,1.983297,-2.624435,-1.579683,-0.444944,-0.114605,0.107033,7.320536,0.410166,0.126459,0.004856
0.095706,0.605140,-0.002213,-0.999933,-0.002820,-0.008439,0.007458,-2.011246,-0.950226,1.982938,-2.624222,-1.579644,-0.446182,-0.114375,0.107055,7.318346,0.409875,0.126833,0.004851
0.096509,0.605135,-0.002213,-0.999933,-0.002819,-0.008443,0.007451,-2.012490,-0.950080,1.982576,-2.624007,-1.579634,-0.447423,-0.114653,0.107790,7.305860,0.408872,0.126989,0.004836
0.097309,0.605130,-0.002214,-0.999933,-0.002815,-0.008441,0.007446,-2.013735,-0.949932,1.982210,-2.623790,-1.579605,-0.448659,-0.116262,0.107961,7.294550,0.407798,0.127478,0.004822
0.098108,0.605127,-0.002214,-0.999933,-0.002813,-0.008436,0.007443,-2.014979,-0.949784,1.981842,-2.623570,-1.579576,-0.449898,-0.116851,0.107597,7.293570,0.407437,0.128201,0.004815
0.098910,0.605122,-0.002215,-0.999933,-0.002809,-0.008436,0.007437,-2.016221,-0.949634,1.981470,-2.623349,-1.579555,-0.451132,-0.117196,0.107207,7.292012,0.407054,0.128926,0.004807
0.099709,0.605119,-0.002216,-0.999933,-0.002805,-0.008432,0.007434,-2.017462,-0.949480,1.981097,-2.623124,-1.579521,-0.452358,-0.124126,0.112884,7.188818,0.399820,0.127102,0.004784
0.100510,0.605104,-0.002228,-0.999933,-0.002814,-0.008435,0.007412,-2.018700,-0.949317,1.980725,-2.622897,-1.579528,-0.453624,-0.130046,0.118637,7.083917,0.392585,0.125115,0.004762
0.101320,0.605098,-0.002225,-0.999933,-0.002810,-0.008453,0.007403,-2.019937,-0.949167,1.980340,-2.622672,-1.579542,-0.454850,-0.129016,0.118561,7.080175,0.392227,0.125503,0.004754
0.102127,0.605094,-0.002222,-0.999933,-0.002807,-0.008465,0.007396,-2.021174,-0.949015,1.979952,-2.622445,-1.579542,-0.456082,-0.128786,0.118600,7.077974,0.391915,0.125882,0.004748
0.102933,0.605088,-0.002221,-0.999933,-0.002803,-0.008474,0.007388,-2.022410,-0.948861,1.979562,-2.622214,-1.579541,-0.457311,-0.128737,0.118580,7.075963,0.391616,0.126256,0.004741
0.103739,0.605082,-0.002221,-0.999933,-0.002800,-0.008484,0.007379,-2.023646,-0.948704,1.979170,-2.621981,-1.579539,-0.458540,-0.129153,0.118298,7.074105,0.391294,0.126716,0.004735
0.104538,0.605079,-0.002221,-0.999933,-0.002795,-0.008479,0.007376,-2.024881,-0.948547,1.978775,-2.621745,-1.579505,-0.459764,-0.129453,0.118060,7.072138,0.390967,0.127176,0.004726
0.105339,0.605075,-0.002221,-0.999933,-0.002793,-0.008477,0.007372,-2.026115,-0.948387,1.978377,-2.621507,-1.579483,-0.460994,-0.129150,0.118121,7.069965,0.390663,0.127552,0.004719
0.106141,0.605069,-0.002221,-0.999933,-0.002788,-0.008479,0.007365,-2.027348,-0.948226,1.977976,-2.621267,-1.579465,-0.462217,-0.130851,0.119230,7.045755,0.388821,0.127500,0.004738
0.106935,0.605063,-0.002227,-0.999933,-0.002779,-0.008465,0.007358,-2.028581,-0.948055,1.977578,-2.621022,-1.579420,-0.463431,-0.131330,0.119610,7.041001,0.388241,0.127917,0.004750
0.107736,0.605053,-0.002233,-0.999933,-0.002782,-0.008467,0.007344,-2.029810,-0.947887,1.977173,-2.620777,-1.579417,-0.464668,-0.129938,0.118555,7.057679,0.389160,0.128852,0.004738
0.108545,0.605048,-0.002230,-0.999933,-0.002779,-0.008481,0.007336,-2.031039,-0.947726,1.976759,-2.620533,-1.579420,-0.465890,-0.130189,0.117994,7.054899,0.388784,0.129399,0.004732
0.109348,0.605045,-0.002228,-0.999933,-0.002776,-0.008485,0.007332,-2.032268,-0.947563,1.976343,-2.620286,-1.579405,-0.467112,-0.130559,0.117687,7.052909,0.388418,0.129950,0.004723
0.110151,0.605041,-0.002227,-0.999933,-0.002773,-0.008486,0.007327,-2.033495,-0.947398,1.975925,-2.620037,-1.579386,-0.468333,-0.130748,0.117502,7.051053,0.388054,0.130507,0.004713
0.110953,0.605036,-0.002227,-0.999933,-0.002770,-0.008488,0.007321,-2.034722,-0.947230,1.975504,-2.619784,-1.579371,-0.469554,-0.130828,0.117362,7.049204,0.387689,0.131068,0.004702
0.111756,0.605030,-0.002227,-0.999933,-0.002767,-0.008493,0.007312,-2.035947,-0.947060,1.975080,-2.619530,-1.579362,-0.470774,-0.130850,0.117241,7.047351,0.387324,0.131631,0.004691
0.112555,0.605017,-0.002239,-0.999934,-0.002766,-0.008491,0.007292,-2.037169,-0.946875,1.974663,-2.619270,-1.579359,-0.471996,-0.128338,0.117942,7.049667,0.387447,0.131846,0.004691
0.113379,0.605002,-0.002237,-0.999933,-0.002768,-0.008539,0.007265,-2.038387,-0.946703,1.974230,-2.619015,-1.579443,-0.473216,-0.126828,0.118106,7.051992,0.387556,0.132111,0.004693
0.114192,0.604994,-0.002235,-0.999933,-0.002766,-0.008564,0.007251,-2.039608,-0.946533,1.973793,-2.618757,-1.579468,-0.474432,-0.128778,0.117020,7.050279,0.387160,0.132774,0.004684
0.114995,0.604990,-0.002233,-0.999933,-0.002762,-0.008566,0.007246,-2.040829,-0.946360,1.973355,-2.618495,-1.579448,-0.475646,-0.129360,0.116686,7.048428,0.386822,0.133259,0.004676
0.115794,0.604987,-0.002232,-0.999933,-0.002758,-0.008559,0.007243,-2.042050,-0.946186,1.972915,-2.618229,-1.579414,-0.476860,-0.129578,0.116510,7.046586,0.386482,0.133757,0.004668
0.116591,0.604984,-0.002232,-0.999933,-0.002755,-0.008552,0.007241,-2.043270,-0.946009,1.972472,-2.617961,-1.579377,-0.478073,-0.130686,0.115861,7.045044,0.386082,0.134448,0.004662
0.117389,0.604981,-0.002233,-0.999934,-0.002752,-0.008545,0.007237,-2.044489,-0.945831,1.972026,-2.617692,-1.579344,-0.479285,-0.130854,0.115665,7.043132,0.385743,0.134948,0.004658
0.118189,0.604976,-0.002233,-0.999934,-0.002749,-0.008542,0.007231,-2.045706,-0.945651,1.971578,-2.617420,-1.579319,-0.480496,-0.131080,0.115432,7.041198,0.385405,0.135446,0.004652
0.118990,0.604971,-0.002234,-0.999934,-0.002746,-0.008542,0.007224,-2.046922,-0.945469,1.971125,-2.617146,-1.579302,-0.481706,-0.131349,0.115169,7.039279,0.385070,0.135944,0.004646
0.119793,0.604964,-0.002235,-0.999934,-0.002744,-0.008546,0.007214,-2.048136,-0.945286,1.970670,-2.616871,-1.579293,-0.482916,-0.131725,0.114845,7.037392,0.384739,0.136439,0.004643
0.120598,0.604957,-0.002236,-0.999934,-0.002742,-0.008553,0.007203,-2.049349,-0.945102,1.970211,-2.616593,-1.579293,-0.484125,-0.132190,0.114473,7.035490,0.384409,0.136931,0.004641
0.121397,0.604942,-0.002248,-0.999934,-0.002740,-0.008552,0.007180,-2.050560,-0.944903,1.969759,-2.616310,-1.579288,-0.485332,-0.131473,0.114310,7.037440,0.384418,0.137346,0.004641
0.122207,0.604934,-0.002246,-0.999934,-0.002740,-0.008571,0.007167,-2.051769,-0.944719,1.969291,-2.616030,-1.579309,-0.486540,-0.130860,0.114106,7.039140,0.384412,0.137751,0.004639
0.123019,0.604926,-0.002243,-0.999934,-0.002739,-0.008592,0.007153,-2.052978,-0.944534,1.968820,-2.615749,-1.579336,-0.487748,-0.130651,0.114141,7.036631,0.384122,0.138038,0.004634
0.123831,0.604917,-0.002242,-0.999934,-0.002738,-0.008615,0.007136,-2.054184,-0.944346,1.968346,-2.615466,-1.579368,-0.488954,-0.123845,0.108166,7.135967,0.390689,0.140877,0.004644
0.124644,0.604906,-0.002242,-0.999934,-0.002738,-0.008640,0.007117,-2.055390,-0.944155,1.967871,-2.615179,-1.579405,-0.490160,-0.117348,0.102440,7.236718,0.397297,0.143722,0.004654
0.125458,0.604893,-0.002243,-0.999934,-0.002739,-0.008667,0.007095,-2.056593,-0.943963,1.967392,-2.614891,-1.579448,-0.491365,-0.117903,0.102424,7.236285,0.397044,0.144129,0.004654
0.126266,0.604884,-0.002244,-0.999933,-0.002736,-0.008681,0.007080,-2.057798,-0.943769,1.966911,-2.614601,-1.579457,-0.492562,-0.118542,0.101834,7.234485,0.396717,0.144633,0.004652
0.127066,0.604879,-0.002244,-0.999934,-0.002733,-0.008679,0.007074,-2.059003,-0.943575,1.966428,-2.614308,-1.579432,-0.493761,-0.118992,0.101345,7.232380,0.396370,0.145137,0.004648
0.127863,0.604876,-0.002245,-0.999934,-0.002729,-0.008671,0.007070,-2.060208,-0.943380,1.965941,-2.614013,-1.579397,-0.494958,-0.118815,0.101225,7.230111,0.396041,0.145560,0.004643
0.128661,0.604872,-0.002246,-0.999934,-0.002726,-0.008663,0.007066,-2.061411,-0.943183,1.965451,-2.613716,-1.579362,-0.496155,-0.118677,0.101111,7.227941,0.395715,0.145983,0.004641
0.129459,0.604868,-0.002246,-0.999934,-0.002723,-0.008657,0.007061,-2.062614,-0.942982,1.964961,-2.613416,-1.579328,-0.497342,-0.126005,0.106295,7.125645,0.388737,0.143686,0.004628
0.130252,0.604856,-0.002258,-0.999934,-0.002728,-0.008643,0.007046,-2.063814,-0.942773,1.964471,-2.613112,-1.579299,-0.498564,-0.132639,0.111421,7.021681,0.381743,0.141290,0.004615
0.131057,0.604852,-0.002256,-0.999934,-0.002724,-0.008650,0.007039,-2.065012,-0.942576,1.963969,-2.612812,-1.579294,-0.499751,-0.133833,0.111949,6.999671,0.380142,0.141230,0.004619
0.131863,0.604847,-0.002253,-0.999934,-0.002721,-0.008659,0.007031,-2.066210,-0.942378,1.963463,-2.612509,-1.579294,-0.500944,-0.135587,0.112937,6.980065,0.378602,0.141180,0.004620
0.132669,0.604840,-0.002252,-0.999934,-0.002719,-0.008670,0.007019,-2.067406,-0.942176,1.962956,-2.612204,-1.579302,-0.502136,-0.134976,0.113445,6.978571,0.378366,0.141414,0.004616
0.133486,0.604826,-0.002253,-0.999934,-0.002721,-0.008702,0.006995,-2.068597,-0.941971,1.962445,-2.611897,-1.579363,-0.503332,-0.133895,0.113861,6.975932,0.378153,0.141539,0.004618
0.134311,0.604807,-0.002254,-0.999934,-0.002724,-0.008753,0.006960,-2.069786,-0.941762,1.961931,-2.611589,-1.579465,-0.504528,-0.133332,0.113969,6.973187,0.377947,0.141647,0.004622
0.135139,0.604786,-0.002255,-0.999933,-0.002727,-0.008813,0.006919,-2.070972,-0.941552,1.961415,-2.611278,-1.579583,-0.505722,-0.133268,0.113813,6.970476,0.377738,0.141765,0.004627
0.135964,0.604767,-0.002257,-0.999933,-0.002728,-0.008864,0.006883,-2.072159,-0.941342,1.960895,-2.610966,-1.579675,-0.506908,-0.135086,0.112574,6.968459,0.377385,0.142256,0.004631
0.136759,0.604765,-0.002257,-0.999933,-0.002717,-0.008850,0.006883,-2.073353,-0.941133,1.960374,-2.610650,-1.579611,-0.508082,-0.138775,0.110825,6.962333,0.376539,0.143089,0.004621
0.137540,0.604761,-0.002268,-0.999934,-0.002714,-0.008811,0.006882,-2.074546,-0.940911,1.959859,-2.610327,-1.579530,-0.509270,-0.138727,0.110480,6.963594,0.376365,0.143751,0.004620
0.138352,0.604750,-0.002268,-0.999934,-0.002718,-0.008833,0.006863,-2.075732,-0.940699,1.959329,-2.610009,-1.579569,-0.510461,-0.136523,0.110649,6.969005,0.376638,0.144195,0.004630
0.139158,0.604744,-0.002265,-0.999934,-0.002711,-0.008843,0.006854,-2.076920,-0.940490,1.958795,-2.609689,-1.579558,-0.511634,-0.136410,0.110384,6.966535,0.376322,0.144565,0.004627
0.139951,0.604745,-0.002263,-0.999934,-0.002707,-0.008824,0.006859,-2.078109,-0.940280,1.958260,-2.609365,-1.579499,-0.512817,-0.136390,0.110258,6.964208,0.375996,0.144929,0.004622
0.140753,0.604740,-0.002263,-0.999934,-0.002707,-0.008826,0.006851,-2.079294,-0.940065,1.957722,-2.609039,-1.579490,-0.514002,-0.136319,0.110167,6.962066,0.375679,0.145300,0.004622
0.141557,0.604732,-0.002263,-0.999934,-0.002704,-0.008832,0.006840,-2.080478,-0.939848,1.957180,-2.608711,-1.579488,-0.515180,-0.136522,0.109904,6.959911,0.375370,0.145661,0.004623
0.142357,0.604727,-0.002263,-0.999934,-0.002700,-0.008829,0.006833,-2.081662,-0.939630,1.956637,-2.608380,-1.579461,-0.516354,-0.136748,0.109628,6.957594,0.375052,0.146018,0.004623
0.143155,0.604723,-0.002264,-0.999934,-0.002697,-0.008824,0.006827,-2.082845,-0.939411,1.956090,-2.608047,-1.579435,-0.517531,-0.136783,0.109458,6.955266,0.374730,0.146380,0.004623
0.143957,0.604716,-0.002265,-0.999934,-0.002694,-0.008824,0.006818,-2.084025,-0.939190,1.955540,-2.607713,-1.579419,-0.518705,-0.137502,0.108877,6.953148,0.374340,0.146898,0.004622
0.144756,0.604711,-0.002266,-0.999934,-0.002692,-0.008820,0.006811,-2.085206,-0.938968,1.954987,-2.607376,-1.579396,-0.519881,-0.138916,0.107875,6.951270,0.373883,0.147573,0.004620
0.145555,0.604706,-0.002267,-0.999934,-0.002689,-0.008816,0.006804,-2.086384,-0.938744,1.954431,-2.607038,-1.579373,-0.521054,-0.140536,0.107158,6.945208,0.373146,0.148138,0.004616
0.146354,0.604701,-0.002268,-0.999934,-0.002686,-0.008812,0.006797,-2.087562,-0.938519,1.953872,-2.606697,-1.579347,-0.522224,-0.142091,0.106467,6.939346,0.372420,0.148711,0.004612
0.147154,0.604695,-0.002269,-0.999935,-0.002682,-0.008808,0.006790,-2.088739,-0.938293,1.953309,-2.606355,-1.579323,-0.523394,-0.143202,0.105566,6.937661,0.371975,0.149405,0.004608
0.147953,0.604690,-0.002269,-0.999935,-0.002679,-0.008804,0.006783,-2.089914,-0.938066,1.952744,-2.606011,-1.579300,-0.524563,-0.143423,0.105170,6.935476,0.371581,0.149945,0.004604
0.148752,0.604685,-0.002270,-0.999935,-0.002675,-0.008801,0.006776,-2.091089,-0.937837,1.952176,-2.605666,-1.579276,-0.525728,-0.143642,0.104806,6.933327,0.371184,0.150486,0.004600
0.149551,0.604680,-0.002271,-0.999935,-0.002671,-0.008797,0.006769,-2.092262,-0.937607,1.951604,-2.605318,-1.579252,-0.526894,-0.143299,0.104798,6.930936,0.370815,0.150926,0.004592
0.150350,0.604675,-0.002272,-0.999935,-0.002668,-0.008793,0.006762,-2.093433,-0.937375,1.951029,-2.604968,-1.579230,-0.528059,-0.142493,0.105066,6.928440,0.370485,0.151267,0.004585
0.151150,0.604669,-0.002273,-0.999935,-0.002664,-0.008790,0.006754,-2.094604,-0.937143,1.950451,-2.604617,-1.579207,-0.529222,-0.142754,0.104696,6.926368,0.370103,0.151762,0.004583
0.151949,0.604664,-0.002274,-0.999935,-0.002660,-0.008785,0.006748,-2.095774,-0.936909,1.949870,-2.604264,-1.579182,-0.530384,-0.142466,0.104689,6.923943,0.369786,0.152091,0.004577
0.152748,0.604659,-0.002275,-0.999935,-0.002657,-0.008782,0.006741,-2.096942,-0.936674,1.949286,-2.603908,-1.579159,-0.531544,-0.142253,0.104644,6.921515,0.369468,0.152418,0.004571
0.153547,0.604654,-0.002276,-0.999935,-0.002653,-0.008778,0.006734,-2.098109,-0.936437,1.948699,-2.603551,-1.579135,-0.532703,-0.135906,0.098557,7.019709,0.375715,0.155710,0.004576
0.154347,0.604648,-0.002277,-0.999935,-0.002649,-0.008775,0.006726,-2.099275,-0.936200,1.948109,-2.603192,-1.579114,-0.533862,-0.129847,0.092752,7.119386,0.381988,0.159037,0.004578
0.155146,0.604643,-0.002278,-0.999935,-0.002647,-0.008772,0.006719,-2.100440,-0.935961,1.947515,-2.602832,-1.579092,-0.535021,-0.130698,0.092484,7.118944,0.381634,0.159590,0.004571
0.155945,0.604638,-0.002279,-0.999936,-0.002644,-0.008767,0.006712,-2.101603,-0.935720,1.946919,-2.602469,-1.579069,-0.536178,-0.131225,0.091896,7.117037,0.381247,0.160137,0.004566
0.156744,0.604633,-0.002280,-0.999936,-0.002639,-0.008762,0.006706,-2.102766,-0.935479,1.946319,-2.602104,-1.579043,-0.537332,-0.131309,0.091590,7.114787,0.380886,0.160600,0.004560
0.157543,0.604627,-0.002281,-0.999936,-0.002634,-0.008759,0.006698,-2.103927,-0.935236,1.945716,-2.601737,-1.579020,-0.538483,-0.131558,0.091236,7.112644,0.380486,0.161147,0.004549
0.158341,0.604613,-0.002293,-0.999936,-0.002634,-0.008756,0.006675,-2.105085,-0.934979,1.945119,-2.601365,-1.579021,-0.539642,-0.132063,0.090326,7.115105,0.380276,0.162018,0.004540
0.159148,0.604605,-0.002291,-0.999936,-0.002631,-0.008768,0.006663,-2.106242,-0.934737,1.944507,-2.600997,-1.579027,-0.540791,-0.132368,0.089547,7.117380,0.380048,0.162888,0.004528
0.159949,0.604602,-0.002289,-0.999936,-0.002627,-0.008769,0.006658,-2.107400,-0.934494,1.943892,-2.600626,-1.579007,-0.541941,-0.131063,0.090180,7.114757,0.379683,0.163251,0.004514
0.160749,0.604599,-0.002287,-0.999936,-0.002623,-0.008764,0.006654,-2.108557,-0.934248,1.943275,-2.600252,-1.578979,-0.543090,-0.129329,0.091101,7.112049,0.379396,0.163438,0.004506
0.161547,0.604595,-0.002287,-0.999936,-0.002619,-0.008759,0.006649,-2.109712,-0.934001,1.942656,-2.599876,-1.578952,-0.544238,-0.130199,0.091265,7.101744,0.378488,0.163656,0.004487
0.162354,0.604585,-0.002288,-0.999936,-0.002621,-0.008770,0.006633,-2.110864,-0.933750,1.942033,-2.599498,-1.578974,-0.545394,-0.130247,0.092004,7.091197,0.377653,0.163690,0.004468
0.163178,0.604565,-0.002289,-0.999936,-0.002626,-0.008820,0.006594,-2.112010,-0.933495,1.941407,-2.599121,-1.579084,-0.546551,-0.128516,0.092929,7.088210,0.377466,0.163674,0.004469
0.164011,0.604538,-0.002291,-0.999936,-0.002631,-0.008891,0.006542,-2.113152,-0.933238,1.940777,-2.598742,-1.579238,-0.547705,-0.127781,0.093095,7.085128,0.377298,0.163656,0.004475
0.164843,0.604513,-0.002293,-0.999935,-0.002633,-0.008957,0.006493,-2.114294,-0.932980,1.940144,-2.598361,-1.579369,-0.548851,-0.128470,0.092404,7.082327,0.377050,0.163826,0.004474
0.165658,0.604498,-0.002294,-0.999935,-0.002632,-0.008986,0.006466,-2.115440,-0.932724,1.939509,-2.597977,-1.579419,-0.549995,-0.129513,0.091524,7.079871,0.376715,0.164188,0.004470
0.166463,0.604489,-0.002295,-0.999935,-0.002630,-0.008996,0.006450,-2.116586,-0.932466,1.938872,-2.597589,-1.579427,-0.551139,-0.130053,0.090985,7.077495,0.376372,0.164565,0.004468
0.167265,0.604481,-0.002296,-0.999935,-0.002629,-0.008999,0.006438,-2.117732,-0.932208,1.938231,-2.597198,-1.579419,-0.552281,-0.130457,0.090546,7.075121,0.376025,0.164945,0.004466
0.168067,0.604474,-0.002297,-0.999935,-0.002627,-0.008999,0.006427,-2.118877,-0.931949,1.937588,-2.596806,-1.579409,-0.553423,-0.130020,0.090613,7.072524,0.375743,0.165174,0.004465
0.168868,0.604466,-0.002298,-0.999935,-0.002625,-0.009001,0.006414,-2.120021,-0.931688,1.936941,-2.596411,-1.579402,-0.554563,-0.128812,0.091145,7.069677,0.375527,0.165248,0.004465
0.169664,0.604453,-0.002310,-0.999936,-0.002621,-0.008993,0.006394,-2.121163,-0.931414,1.936301,-2.596011,-1.579387,-0.555698,-0.127056,0.091247,7.074810,0.375824,0.165571,0.004469
0.170469,0.604444,-0.002310,-0.999936,-0.002622,-0.009002,0.006379,-2.122303,-0.931152,1.935646,-2.595614,-1.579397,-0.556838,-0.125294,0.091292,7.079515,0.376105,0.165884,0.004472
0.171277,0.604436,-0.002308,-0.999936,-0.002621,-0.009017,0.006365,-2.123442,-0.930891,1.934987,-2.595216,-1.579414,-0.557976,-0.124272,0.091710,7.076209,0.375869,0.165937,0.004473
0.172086,0.604426,-0.002306,-0.999936,-0.002620,-0.009032,0.006348,-2.124580,-0.930627,1.934326,-2.594815,-1.579434,-0.559112,-0.124190,0.091666,7.073619,0.375585,0.166146,0.004474
0.172894,0.604415,-0.002306,-0.999936,-0.002620,-0.009048,0.006328,-2.125715,-0.930360,1.933662,-2.594412,-1.579461,-0.560247,-0.124103,0.091598,7.071018,0.375306,0.166355,0.004475
0.173704,0.604403,-0.002307,-0.999936,-0.002620,-0.009067,0.006307,-2.126850,-0.930092,1.932996,-2.594007,-1.579493,-0.561382,-0.124072,0.091461,7.068409,0.375032,0.166562,0.004479
0.174515,0.604390,-0.002308,-0.999936,-0.002620,-0.009088,0.006283,-2.127982,-0.929821,1.932327,-2.593601,-1.579531,-0.562516,-0.124121,0.091259,7.065747,0.374760,0.166764,0.004483
0.175326,0.604376,-0.002309,-0.999936,-0.002621,-0.009111,0.006257,-2.129114,-0.929549,1.931655,-2.593192,-1.579575,-0.563648,-0.123437,0.091495,7.062741,0.374551,0.166804,0.004486
0.176139,0.604361,-0.002311,-0.999935,-0.002622,-0.009137,0.006230,-2.130243,-0.929275,1.930980,-2.592782,-1.579626,-0.564780,-0.123628,0.091184,7.060063,0.374286,0.166999,0.004494
0.176953,0.604346,-0.002312,-0.999935,-0.002623,-0.009165,0.006201,-2.131371,-0.929000,1.930302,-2.592370,-1.579681,-0.565912,-0.123907,0.090816,7.057365,0.374024,0.167188,0.004504
0.177760,0.604325,-0.002324,-0.999935,-0.002621,-0.009182,0.006164,-2.132498,-0.928712,1.929630,-2.591952,-1.579727,-0.567037,-0.122885,0.090477,7.062342,0.374341,0.167465,0.004521
0.178577,0.604308,-0.002325,-0.999935,-0.002625,-0.009217,0.006133,-2.133623,-0.928436,1.928944,-2.591537,-1.579799,-0.568168,-0.121865,0.090071,7.066863,0.374655,0.167706,0.004541
0.179397,0.604292,-0.002323,-0.999935,-0.002628,-0.009256,0.006101,-2.134746,-0.928160,1.928253,-2.591121,-1.579875,-0.569298,-0.121495,0.090084,7.063313,0.374460,0.167663,0.004556
0.180216,0.604275,-0.002322,-0.999935,-0.002630,-0.009295,0.006069,-2.135869,-0.927882,1.927561,-2.590703,-1.579953,-0.570426,-0.121206,0.090154,7.060150,0.374277,0.167621,0.004569
0.181008,0.604275,-0.002322,-0.999935,-0.002618,-0.009274,0.006074,-2.136998,-0.927604,1.926869,-2.590286,-1.579874,-0.571529,-0.121532,0.089804,7.057577,0.374036,0.167778,0.004582
0.181805,0.604272,-0.002322,-0.999935,-0.002619,-0.009265,0.006071,-2.138122,-0.927324,1.926174,-2.589867,-1.579850,-0.572657,-0.121475,0.089707,7.055045,0.373778,0.167970,0.004596
0.182616,0.604259,-0.002323,-0.999935,-0.002622,-0.009288,0.006047,-2.139243,-0.927041,1.925474,-2.589444,-1.579889,-0.573779,-0.125230,0.087372,7.048249,0.372781,0.168676,0.004616
0.183405,0.604260,-0.002324,-0.999935,-0.002615,-0.009262,0.006054,-2.140368,-0.926758,1.924774,-2.589022,-1.579811,-0.574894,-0.128838,0.085080,7.041723,0.371812,0.169373,0.004636
0.184207,0.604253,-0.002324,-0.999935,-0.002616,-0.009266,0.006042,-2.141487,-0.926472,1.924069,-2.588596,-1.579818,-0.576015,-0.127577,0.085666,7.038801,0.371640,0.169373,0.004651
0.185005,0.604248,-0.002326,-0.999936,-0.002605,-0.009260,0.006036,-2.142608,-0.926186,1.923362,-2.588169,-1.579779,-0.577113,-0.126488,0.086094,7.035915,0.371479,0.169372,0.004664
0.185804,0.604243,-0.002326,-0.999936,-0.002608,-0.009255,0.006030,-2.143726,-0.925898,1.922651,-2.587741,-1.579766,-0.578236,-0.125770,0.086333,7.033202,0.371281,0.169452,0.004677
0.186605,0.604236,-0.002327,-0.999936,-0.002598,-0.009255,0.006020,-2.144843,-0.925609,1.921938,-2.587310,-1.579743,-0.579332,-0.125754,0.086164,7.030935,0.371010,0.169722,0.004684
0.187404,0.604231,-0.002328,-0.999936,-0.002601,-0.009252,0.006013,-2.145958,-0.925318,1.921221,-2.586878,-1.579735,-0.580455,-0.125723,0.086025,7.028833,0.370685,0.170105,0.004686
0.188198,0.604229,-0.002329,-0.999936,-0.002590,-0.009238,0.006013,-2.147074,-0.925027,1.920502,-2.586444,-1.579677,-0.581547,-0.125011,0.086340,7.026507,0.370343,0.170477,0.004689
0.188999,0.604223,-0.002330,-0.999936,-0.002593,-0.009238,0.006003,-2.148187,-0.924734,1.919779,-2.586008,-1.579680,-0.582667,-0.123098,0.087431,7.023732,0.370071,0.170650,0.004694
0.189798,0.604217,-0.002331,-0.999936,-0.002582,-0.009235,0.005995,-2.149299,-0.924440,1.919054,-2.585571,-1.579647,-0.583756,-0.120602,0.088885,7.020646,0.369879,0.170636,0.004698
0.190599,0.604211,-0.002332,-0.999936,-0.002586,-0.009236,0.005985,-2.150409,-0.924144,1.918324,-2.585131,-1.579651,-0.584875,-0.118567,0.090043,7.017627,0.369701,0.170612,0.004701
0.191395,0.604208,-0.002333,-0.999936,-0.002576,-0.009225,0.005983,-2.151520,-0.923848,1.917593,-2.584690,-1.579602,-0.585964,-0.116900,0.090988,7.014463,0.369521,0.170573,0.004708
0.192200,0.604198,-0.002334,-0.999936,-0.002578,-0.009234,0.005967,-2.152626,-0.923549,1.916858,-2.584247,-1.579613,-0.587070,-0.119648,0.088840,7.012181,0.368838,0.171373,0.004710
0.192997,0.604194,-0.002335,-0.999936,-0.002579,-0.009227,0.005963,-2.153733,-0.923250,1.916120,-2.583802,-1.579590,-0.588185,-0.123294,0.086040,7.010394,0.368050,0.172385,0.004715
0.193794,0.604190,-0.002336,-0.999936,-0.002574,-0.009220,0.005958,-2.154839,-0.922949,1.915379,-2.583356,-1.579562,-0.589279,-0.123374,0.086581,6.999766,0.367257,0.172302,0.004718
0.194592,0.604186,-0.002337,-0.999937,-0.002568,-0.009214,0.005952,-2.155944,-0.922648,1.914635,-2.582907,-1.579535,-0.590373,-0.122527,0.087890,6.988936,0.366576,0.172012,0.004718
0.195391,0.604181,-0.002338,-0.999937,-0.002563,-0.009210,0.005945,-2.157047,-0.922345,1.913888,-2.582457,-1.579513,-0.591466,-0.120903,0.088860,6.986156,0.366415,0.171982,0.004723
0.196191,0.604175,-0.002339,-0.999937,-0.002560,-0.009208,0.005937,-2.158148,-0.922040,1.913137,-2.582005,-1.579499,-0.592560,-0.119120,0.089831,6.982933,0.366237,0.171951,0.004727
0.196989,0.604170,-0.002340,-0.999937,-0.002554,-0.009203,0.005931,-2.159249,-0.921735,1.912384,-2.581551,-1.579471,-0.593648,-0.117274,0.090883,6.979662,0.366050,0.171921,0.004724
0.197786,0.604166,-0.002341,-0.999937,-0.002550,-0.009195,0.005927,-2.160349,-0.921428,1.911628,-2.581095,-1.579442,-0.594741,-0.115272,0.092079,6.976440,0.365857,0.171896,0.004719
0.198583,0.604162,-0.002342,-0.999937,-0.002544,-0.009189,0.005921,-2.161448,-0.921119,1.910869,-2.580637,-1.579412,-0.595826,-0.113141,0.093371,6.973407,0.365671,0.171881,0.004718
0.199384,0.604155,-0.002343,-0.999937,-0.002539,-0.009189,0.005911,-2.162544,-0.920810,1.910106,-2.580178,-1.579400,-0.596913,-0.110812,0.094804,6.970536,0.365488,0.171877,0.004706
0.200183,0.604150,-0.002344,-0.999937,-0.002537,-0.009185,0.005904,-2.163639,-0.920499,1.909341,-2.579716,-1.579383,-0.598005,-0.108319,0.096381,6.967499,0.365288,0.171875,0.004688
0.200980,0.604146,-0.002345,-0.999937,-0.002534,-0.009177,0.005900,-2.164734,-0.920187,1.908572,-2.579253,-1.579356,-0.599093,-0.105911,0.097924,6.964275,0.365076,0.171866,0.004680
0.201781,0.604139,-0.002346,-0.999937,-0.002532,-0.009179,0.005889,-2.165826,-0.919873,1.907800,-2.578788,-1.579345,-0.600177,-0.108548,0.096660,6.954230,0.363869,0.172450,0.004679
0.202578,0.604135,-0.002347,-0.999937,-0.002528,-0.009171,0.005884,-2.166918,-0.919559,1.907026,-2.578321,-1.579316,-0.601266,-0.111041,0.095555,6.944713,0.362681,0.173051,0.004668
0.203377,0.604130,-0.002348,-0.999938,-0.002526,-0.009168,0.005876,-2.168008,-0.919243,1.906248,-2.577852,-1.579302,-0.602351,-0.109401,0.096501,6.942750,0.362405,0.173283,0.004655
0.204177,0.604124,-0.002349,-0.999938,-0.002523,-0.009166,0.005868,-2.169098,-0.918925,1.905467,-2.577381,-1.579278,-0.603429,-0.112035,0.094265,6.941327,0.361619,0.174350,0.004646
0.204973,0.604121,-0.002349,-0.999938,-0.002521,-0.009156,0.005865,-2.170186,-0.918607,1.904683,-2.576909,-1.579250,-0.604519,-0.113788,0.092783,6.938948,0.360902,0.175190,0.004631
0.205773,0.604114,-0.002350,-0.999938,-0.002519,-0.009156,0.005855,-2.171272,-0.918287,1.903896,-2.576434,-1.579238,-0.605594,-0.116030,0.090970,6.936737,0.360205,0.176020,0.004626
0.206570,0.604110,-0.002351,-0.999938,-0.002514,-0.009149,0.005850,-2.172357,-0.917966,1.903106,-2.575958,-1.579210,-0.606675,-0.113847,0.092203,6.934128,0.360041,0.176021,0.004604
0.207369,0.604105,-0.002352,-0.999938,-0.002512,-0.009145,0.005842,-2.173441,-0.917644,1.902313,-2.575480,-1.579195,-0.607754,-0.108236,0.095925,6.930867,0.360255,0.175390,0.004578
0.208167,0.604100,-0.002353,-0.999938,-0.002506,-0.009140,0.005836,-2.174524,-0.917321,1.901517,-2.574999,-1.579165,-0.608821,-0.108261,0.095679,6.928947,0.359866,0.175801,0.004555
0.208964,0.604096,-0.002354,-0.999938,-0.002503,-0.009132,0.005831,-2.175606,-0.916996,1.900718,-2.574517,-1.579142,-0.609901,-0.107162,0.096316,6.926079,0.359546,0.175995,0.004529
0.209764,0.604090,-0.002355,-0.999938,-0.002498,-0.009131,0.005821,-2.176686,-0.916670,1.899916,-2.574033,-1.579125,-0.610968,-0.106156,0.096905,6.923096,0.359220,0.176181,0.004507
0.210563,0.604084,-0.002356,-0.999938,-0.002498,-0.009127,0.005814,-2.177765,-0.916342,1.899111,-2.573547,-1.579108,-0.612045,-0.109562,0.094240,6.921617,0.358436,0.177220,0.004502
0.211360,0.604080,-0.002357,-0.999938,-0.002493,-0.009120,0.005808,-2.178842,-0.916013,1.898303,-2.573060,-1.579084,-0.613117,-0.112020,0.092305,6.919489,0.357744,0.178045,0.004503
0.212160,0.604073,-0.002358,-0.999938,-0.002490,-0.009120,0.005798,-2.179918,-0.915683,1.897491,-2.572570,-1.579068,-0.614180,-0.114431,0.090415,6.917224,0.357044,0.178864,0.004487
0.212958,0.604069,-0.002359,-0.999939,-0.002487,-0.009112,0.005792,-2.180994,-0.915352,1.896677,-2.572079,-1.579035,-0.615251,-0.120829,0.085591,6.916218,0.355865,0.180534,0.004464
0.213757,0.604063,-0.002361,-0.999939,-0.002489,-0.009110,0.005784,-2.182067,-0.915020,1.895860,-2.571585,-1.579023,-0.616327,-0.126875,0.081025,6.915192,0.354676,0.182214,0.004434
0.214556,0.604057,-0.002362,-0.999939,-0.002491,-0.009107,0.005775,-2.183139,-0.914685,1.895039,-2.571090,-1.579015,-0.617405,-0.132996,0.076356,6.914682,0.353519,0.183909,0.004413
0.215351,0.604054,-0.002363,-0.999939,-0.002487,-0.009095,0.005773,-2.184211,-0.914351,1.894216,-2.570593,-1.578982,-0.618474,-0.135279,0.074517,6.912880,0.352845,0.184747,0.004403
0.216149,0.604049,-0.002364,-0.999939,-0.002479,-0.009089,0.005766,-2.185281,-0.914014,1.893390,-2.570094,-1.578958,-0.619524,-0.129435,0.078578,6.908391,0.353127,0.183867,0.004403
0.216946,0.604045,-0.002365,-0.999939,-0.002470,-0.009083,0.005760,-2.186350,-0.913677,1.892560,-2.569593,-1.578931,-0.620577,-0.122753,0.083249,6.903418,0.353517,0.182773,0.004398
0.217744,0.604039,-0.002366,-0.999939,-0.002463,-0.009078,0.005752,-2.187417,-0.913338,1.891728,-2.569090,-1.578908,-0.621628,-0.120018,0.085154,6.899227,0.353387,0.182529,0.004386
0.218542,0.604034,-0.002367,-0.999939,-0.002457,-0.009072,0.005745,-2.188483,-0.912998,1.890892,-2.568585,-1.578888,-0.622684,-0.118059,0.086474,6.895662,0.353159,0.182505,0.004374
0.219341,0.604028,-0.002368,-0.999939,-0.002452,-0.009069,0.005736,-2.189548,-0.912657,1.890054,-2.568078,-1.578872,-0.623737,-0.116199,0.087731,6.892069,0.352931,0.182478,0.004363
0.220142,0.604021,-0.002369,-0.999940,-0.002448,-0.009068,0.005725,-2.190611,-0.912314,1.889212,-2.567569,-1.578857,-0.624788,-0.118552,0.085824,6.890114,0.352253,0.183305,0.004351
0.220938,0.604017,-0.002370,-0.999940,-0.002445,-0.009060,0.005720,-2.191674,-0.911970,1.888367,-2.567058,-1.578826,-0.625848,-0.120638,0.084125,6.888184,0.351569,0.184142,0.004325
0.221736,0.604012,-0.002371,-0.999940,-0.002441,-0.009055,0.005712,-2.192735,-0.911625,1.887520,-2.566546,-1.578809,-0.626901,-0.118440,0.085684,6.884356,0.351316,0.184118,0.004289
0.222536,0.604005,-0.002372,-0.999940,-0.002442,-0.009054,0.005702,-2.193793,-0.911278,1.886669,-2.566032,-1.578802,-0.627958,-0.120684,0.083873,6.882471,0.350637,0.184953,0.004278
0.223334,0.604000,-0.002373,-0.999940,-0.002440,-0.009049,0.005694,-2.194852,-0.910930,1.885815,-2.565516,-1.578779,-0.629012,-0.127448,0.078620,6.882589,0.349540,0.186645,0.004287
0.224132,0.603995,-0.002374,-0.999940,-0.002436,-0.009042,0.005688,-2.195909,-0.910581,1.884958,-2.564998,-1.578747,-0.630060,-0.134183,0.073421,6.882358,0.348423,0.188322,0.004283
0.224928,0.603991,-0.002375,-0.999940,-0.002434,-0.009034,0.005682,-2.196965,-0.910231,1.884098,-2.564479,-1.578728,-0.631118,-0.136340,0.071713,6.880102,0.347722,0.189143,0.004257
0.225728,0.603984,-0.002376,-0.999940,-0.002431,-0.009032,0.005672,-2.198018,-0.909879,1.883235,-2.563957,-1.578717,-0.632161,-0.134115,0.073132,6.876987,0.347521,0.189130,0.004233
0.226526,0.603979,-0.002378,-0.999940,-0.002427,-0.009026,0.005665,-2.199072,-0.909526,1.882369,-2.563434,-1.578688,-0.633204,-0.136240,0.071255,6.875592,0.346883,0.189966,0.004218
0.227323,0.603974,-0.002379,-0.999940,-0.002424,-0.009019,0.005658,-2.200124,-0.909172,1.881500,-2.562908,-1.578666,-0.634254,-0.137312,0.070393,6.872522,0.346261,0.190569,0.004183
0.228120,0.603969,-0.002380,-0.999941,-0.002421,-0.009013,0.005651,-2.201174,-0.908817,1.880628,-2.562381,-1.578652,-0.635299,-0.129886,0.075817,6.866683,0.346570,0.189479,0.004150
0.228920,0.603963,-0.002381,-0.999941,-0.002417,-0.009011,0.005641,-2.202223,-0.908460,1.879753,-2.561852,-1.578639,-0.636336,-0.128131,0.076828,6.864118,0.346415,0.189473,0.004156
0.229718,0.603957,-0.002382,-0.999941,-0.002412,-0.009006,0.005632,-2.203271,-0.908102,1.878875,-2.561321,-1.578614,-0.637374,-0.130576,0.074628,6.863384,0.345828,0.190322,0.004147
0.230517,0.603951,-0.002383,-0.999941,-0.002411,-0.009002,0.005623,-2.204317,-0.907742,1.877994,-2.560788,-1.578595,-0.638416,-0.132651,0.072765,6.862081,0.345198,0.191159,0.004125
0.231316,0.603945,-0.002384,-0.999941,-0.002411,-0.008999,0.005613,-2.205362,-0.907381,1.877110,-2.560253,-1.578586,-0.639463,-0.137841,0.068680,6.861427,0.344180,0.192638,0.004104
0.232110,0.603942,-0.002385,-0.999941,-0.002410,-0.008985,0.005612,-2.206406,-0.907020,1.876223,-2.559717,-1.578556,-0.640511,-0.138647,0.067958,6.858499,0.343640,0.193141,0.004100
0.232906,0.603938,-0.002386,-0.999941,-0.002398,-0.008976,0.005606,-2.207450,-0.906657,1.875333,-2.559178,-1.578518,-0.641527,-0.137377,0.068835,6.854548,0.343404,0.193084,0.004113
0.233707,0.603930,-0.002388,-0.999941,-0.002391,-0.008977,0.005593,-2.208491,-0.906293,1.874440,-2.558637,-1.578505,-0.642549,-0.139516,0.067102,6.852038,0.342771,0.193780,0.004106
0.234508,0.603922,-0.002389,-0.999941,-0.002396,-0.008978,0.005580,-2.209530,-0.905927,1.873544,-2.558096,-1.578511,-0.643600,-0.140400,0.066192,6.849751,0.342208,0.194395,0.004077
0.235300,0.603921,-0.002390,-0.999941,-0.002392,-0.008960,0.005581,-2.210570,-0.905560,1.872645,-2.557551,-1.578470,-0.644637,-0.138857,0.067132,6.846793,0.341958,0.194474,0.004055
0.236098,0.603915,-0.002391,-0.999942,-0.002380,-0.008955,0.005573,-2.211608,-0.905192,1.871743,-2.557005,-1.578439,-0.645646,-0.134041,0.070581,6.842330,0.342106,0.193797,0.004047
0.236899,0.603908,-0.002392,-0.999942,-0.002378,-0.008956,0.005559,-2.212643,-0.904822,1.870837,-2.556457,-1.578434,-0.646674,-0.128481,0.074459,6.838119,0.342339,0.193026,0.004033
0.237697,0.603902,-0.002393,-0.999942,-0.002379,-0.008950,0.005551,-2.213678,-0.904451,1.869929,-2.555908,-1.578420,-0.647713,-0.126613,0.075478,6.835806,0.342208,0.193015,0.004032
0.238495,0.603896,-0.002395,-0.999942,-0.002376,-0.008946,0.005541,-2.214711,-0.904079,1.869018,-2.555356,-1.578404,-0.648740,-0.124800,0.076484,6.833183,0.342060,0.192991,0.004026
0.239294,0.603889,-0.002396,-0.999942,-0.002377,-0.008944,0.005530,-2.215743,-0.903705,1.868103,-2.554803,-1.578397,-0.649774,-0.126840,0.074621,6.832072,0.341445,0.193830,0.004002
0.240086,0.603888,-0.002397,-0.999942,-0.002371,-0.008925,0.005532,-2.216775,-0.903331,1.867186,-2.554247,-1.578348,-0.650799,-0.129319,0.072533,6.830992,0.340754,0.194783,0.003984
0.240890,0.603878,-0.002398,-0.999942,-0.002362,-0.008932,0.005514,-2.217804,-0.902955,1.866266,-2.553691,-1.578346,-0.651801,-0.131808,0.070498,6.829262,0.340026,0.195710,0.003961
0.241673,0.603883,-0.002399,-0.999942,-0.002358,-0.008895,0.005528,-2.218836,-0.902580,1.865343,-2.553130,-1.578257,-0.652830,-0.136007,0.067120,6.828600,0.339096,0.197058,0.003935
0.242469,0.603880,-0.002400,-0.999942,-0.002355,-0.008884,0.005524,-2.219863,-0.902202,1.864417,-2.552569,-1.578229,-0.653849,-0.138606,0.064963,6.827567,0.338361,0.198077,0.003917
0.243271,0.603871,-0.002401,-0.999943,-0.002353,-0.008888,0.005508,-2.220888,-0.901822,1.863487,-2.552007,-1.578237,-0.654870,-0.141539,0.062554,6.826558,0.337634,0.199088,0.003898
0.244077,0.603859,-0.002402,-0.999943,-0.002351,-0.008900,0.005487,-2.221910,-0.901440,1.862554,-2.551444,-1.578263,-0.655889,-0.140557,0.063077,6.823900,0.337364,0.199236,0.003881
0.244872,0.603855,-0.002403,-0.999943,-0.002342,-0.008888,0.005483,-2.222934,-0.901058,1.861619,-2.550877,-1.578219,-0.656893,-0.139858,0.063371,6.821265,0.337103,0.199377,0.003884
0.245666,0.603852,-0.002404,-0.999943,-0.002340,-0.008876,0.005479,-2.223957,-0.900674,1.860681,-2.550308,-1.578191,-0.657913,-0.143306,0.060521,6.820504,0.336406,0.200384,0.003898
0.246470,0.603841,-0.002406,-0.999943,-0.002340,-0.008884,0.005460,-2.224975,-0.900289,1.859739,-2.549739,-1.578211,-0.658930,-0.142466,0.060951,6.817619,0.336125,0.200522,0.003884
0.247264,0.603838,-0.002407,-0.999943,-0.002331,-0.008870,0.005457,-2.225996,-0.899903,1.858795,-2.549167,-1.578164,-0.659932,-0.137424,0.064593,6.812602,0.336261,0.199792,0.003859
0.248061,0.603833,-0.002408,-0.999943,-0.002330,-0.008863,0.005448,-2.227013,-0.899515,1.857848,-2.548593,-1.578150,-0.660949,-0.132355,0.068210,6.808116,0.336427,0.199085,0.003852
0.248864,0.603823,-0.002409,-0.999943,-0.002325,-0.008868,0.005431,-2.228029,-0.899126,1.856897,-2.548018,-1.578151,-0.661952,-0.133246,0.067248,6.806314,0.336000,0.199571,0.003850
0.249660,0.603818,-0.002411,-0.999943,-0.002326,-0.008858,0.005425,-2.229044,-0.898736,1.855944,-2.547441,-1.578132,-0.662972,-0.134006,0.066419,6.804208,0.335551,0.200051,0.003833
0.250456,0.603813,-0.002412,-0.999943,-0.002319,-0.008850,0.005418,-2.230059,-0.898345,1.854988,-2.546861,-1.578103,-0.663971,-0.128984,0.070001,6.799816,0.335720,0.199353,0.003820
0.251257,0.603805,-0.002413,-0.999944,-0.002317,-0.008850,0.005404,-2.231070,-0.897952,1.854028,-2.546281,-1.578101,-0.664978,-0.130008,0.068919,6.798141,0.335304,0.199842,0.003830
0.252053,0.603800,-0.002415,-0.999944,-0.002315,-0.008842,0.005397,-2.232082,-0.897558,1.853066,-2.545698,-1.578078,-0.665985,-0.135016,0.064810,6.798210,0.334441,0.201191,0.003826
0.252851,0.603794,-0.002416,-0.999944,-0.002312,-0.008837,0.005387,-2.233092,-0.897163,1.852101,-2.545113,-1.578063,-0.666989,-0.135502,0.064224,6.795847,0.333968,0.201671,0.003796
0.253648,0.603789,-0.002417,-0.999944,-0.002309,-0.008829,0.005379,-2.234101,-0.896766,1.851132,-2.544527,-1.578045,-0.667994,-0.131917,0.066763,6.791581,0.333925,0.201290,0.003779
0.254444,0.603784,-0.002418,-0.999944,-0.002303,-0.008820,0.005372,-2.235108,-0.896369,1.850161,-2.543938,-1.578017,-0.668989,-0.127231,0.070114,6.787219,0.334095,0.200595,0.003780
0.255244,0.603777,-0.002420,-0.999944,-0.002299,-0.008817,0.005360,-2.236114,-0.895969,1.849187,-2.543348,-1.578005,-0.669984,-0.122683,0.073374,6.782676,0.334258,0.199891,0.003776
0.256042,0.603770,-0.002421,-0.999944,-0.002297,-0.008812,0.005350,-2.237119,-0.895569,1.848210,-2.542756,-1.577991,-0.670984,-0.122831,0.073012,6.780288,0.333852,0.200276,0.003753
0.256839,0.603764,-0.002422,-0.999944,-0.002296,-0.008806,0.005340,-2.238122,-0.895167,1.847229,-2.542163,-1.577977,-0.671987,-0.127709,0.068974,6.780380,0.332896,0.201757,0.003730
0.257628,0.603755,-0.002434,-0.999945,-0.002290,-0.008786,0.005328,-2.239125,-0.894753,1.846255,-2.541565,-1.577943,-0.672980,-0.127223,0.068286,6.786216,0.332980,0.202455,0.003730
0.258430,0.603747,-0.002434,-0.999945,-0.002286,-0.008789,0.005313,-2.240125,-0.894350,1.845267,-2.540968,-1.577940,-0.673966,-0.123632,0.069954,6.789673,0.333426,0.202360,0.003735
