zhengzhouyi2020/ur16e/ur16e_controller/data/20220415_163046.csv
# px py pz qx qy qz qw joint1 joint2 joint3 joint4 joint5 joint6 fx fy fz tx ty tz
-0.180062,0.476385,0.009587,0.999999,0.000365,-0.000025,0.001491,-1.557454,-1.096628,2.262644,-2.733917,-1.570699,0.012529,0.081954,-19.885906,2.264632,0.526740,0.001234,-0.004958
-0.180041,0.483215,0.008786,0.999999,0.000644,-0.000096,0.000846,-1.557773,-1.086951,2.245059,-2.727405,-1.570566,0.011694,0.117587,-17.095000,1.921104,0.453147,0.002271,-0.004245
-0.179978,0.492529,0.007713,-1.000000,-0.000875,0.000214,0.000297,-1.558274,-1.074196,2.222055,-2.719532,-1.570351,0.010732,0.156642,-13.701564,1.534765,0.363551,0.003426,-0.003395
-0.179857,0.502985,0.006500,-0.999998,-0.001057,0.000361,0.001803,-1.558927,-1.060063,2.196745,-2.711422,-1.570084,0.009727,0.184704,-10.867774,1.241217,0.288590,0.004283,-0.002696
-0.179667,0.513686,0.005227,-0.999993,-0.001205,0.000519,0.003489,-1.559701,-1.045660,2.171094,-2.703565,-1.569798,0.008665,0.203139,-8.595322,1.014369,0.228378,0.004874,-0.002137
-0.179405,0.524067,0.003947,-0.999985,-0.001326,0.000673,0.005197,-1.560572,-1.031682,2.146290,-2.696145,-1.569516,0.007560,0.213295,-6.797350,0.832708,0.180672,0.005231,-0.001697
-0.179073,0.533799,0.002698,-0.999975,-0.001428,0.000814,0.006810,-1.561516,-1.018542,2.123011,-2.689203,-1.569253,0.006418,0.217124,-5.382465,0.683555,0.143088,0.005408,-0.001350
-0.178678,0.542710,0.001504,-0.999964,-0.001516,0.000935,0.008252,-1.562518,-1.006458,2.101602,-2.682724,-1.569017,0.005246,0.216372,-4.271055,0.559506,0.113538,0.005451,-0.001076
-0.178224,0.550735,0.000384,-0.999953,-0.001594,0.001037,0.009486,-1.563565,-0.995522,2.082194,-2.676673,-1.568813,0.004048,0.212499,-3.397805,0.455929,0.090305,0.005400,-0.000860
-0.177720,0.557872,-0.000654,-0.999943,-0.001665,0.001118,0.010495,-1.564647,-0.985745,2.064786,-2.671015,-1.568641,0.002828,0.206627,-2.710640,0.369551,0.072013,0.005287,-0.000690
-0.177172,0.564161,-0.001605,-0.999934,-0.001732,0.001181,0.011283,-1.565751,-0.977106,2.049281,-2.665742,-1.568621,0.001544,0.501657,-2.342214,2.110557,0.179594,-0.051130,-0.000628
-0.175680,0.570285,-0.001805,-0.999915,-0.002031,-0.000640,0.012890,-1.566725,-0.970280,2.035006,-2.661684,-1.572610,-0.000044,0.745038,-2.071679,3.875082,0.290656,-0.105687,-0.000273
-0.173992,0.575961,-0.001578,-0.999885,-0.002196,-0.002790,0.014725,-1.567736,-0.964727,2.022167,-2.658014,-1.576739,-0.001443,0.654284,-1.697843,4.145990,0.298878,-0.109882,0.000371
-0.172654,0.580893,-0.001330,-0.999858,-0.002294,-0.004153,0.016198,-1.568844,-0.959986,2.010877,-2.654337,-1.579287,-0.002792,0.547477,-1.362929,4.385142,0.302861,-0.110921,0.000920
-0.171613,0.585113,-0.001142,-0.999836,-0.002343,-0.004857,0.017289,-1.570026,-0.955890,2.001038,-2.650722,-1.580525,-0.004091,0.465764,-1.090165,4.593370,0.306549,-0.108464,0.001335
-0.170794,0.588716,-0.001009,-0.999821,-0.002379,-0.005064,0.018072,-1.571260,-0.952354,1.992498,-2.647243,-1.580828,-0.005411,0.405517,-0.871370,4.776929,0.310591,-0.103770,0.001639
-0.170075,0.591787,-0.000922,-0.999811,-0.002410,-0.005042,0.018610,-1.572518,-0.949307,1.985105,-2.643944,-1.580705,-0.006734,0.366045,-0.695039,4.936166,0.314540,-0.099238,0.001893
-0.169394,0.594403,-0.000869,-0.999805,-0.002439,-0.004923,0.018957,-1.573789,-0.946691,1.978717,-2.640843,-1.580405,-0.008060,0.337427,-0.552185,5.075684,0.318387,-0.095022,0.002106
-0.168722,0.596630,-0.000839,-0.999802,-0.002466,-0.004770,0.019151,-1.575066,-0.944456,1.973210,-2.637943,-1.580045,-0.009385,0.314670,-0.435699,5.199190,0.322104,-0.091166,0.002285
-0.168047,0.598522,-0.000827,-0.999802,-0.002491,-0.004611,0.019223,-1.576346,-0.942556,1.968473,-2.635237,-1.579676,-0.010710,0.295457,-0.340164,5.309605,0.325683,-0.087657,0.002435
-0.167364,0.600125,-0.000829,-0.999803,-0.002515,-0.004458,0.019195,-1.577630,-0.940948,1.964411,-2.632718,-1.579321,-0.012032,0.278646,-0.261432,5.409124,0.329126,-0.084464,0.002561
-0.166673,0.601472,-0.000851,-0.999806,-0.002533,-0.004311,0.019074,-1.578916,-0.939584,1.960944,-2.630366,-1.578990,-0.013355,0.272204,-0.197319,5.513572,0.333382,-0.083127,0.002673
-0.165896,0.602612,-0.000875,-0.999809,-0.002600,-0.004342,0.018899,-1.580186,-0.938443,1.957981,-2.628197,-1.579046,-0.014752,0.265056,-0.144509,5.610327,0.337563,-0.081952,0.002788
-0.165107,0.603574,-0.000899,-0.999812,-0.002621,-0.004388,0.018681,-1.581463,-0.937504,1.955462,-2.626185,-1.579070,-0.016067,0.248279,-0.099618,5.685973,0.340658,-0.079510,0.002890
-0.164354,0.604378,-0.000927,-0.999817,-0.002639,-0.004348,0.018421,-1.582752,-0.936734,1.953337,-2.624310,-1.578940,-0.017388,0.232992,-0.061712,5.754360,0.343500,-0.077259,0.002969
-0.163567,0.605045,-0.000963,-0.999823,-0.002691,-0.004376,0.018125,-1.584036,-0.936102,1.951553,-2.622573,-1.578986,-0.018777,0.219828,-0.030045,5.819605,0.346376,-0.075163,0.003051
-0.162770,0.605596,-0.001002,-0.999828,-0.002706,-0.004416,0.017806,-1.585326,-0.935596,1.950067,-2.620963,-1.579012,-0.020091,0.206808,-0.003480,5.880024,0.349141,-0.073254,0.003128
-0.162005,0.606049,-0.001042,-0.999834,-0.002720,-0.004385,0.017469,-1.586627,-0.935201,1.948841,-2.619465,-1.578906,-0.021415,0.194998,0.019014,5.934471,0.351671,-0.071470,0.003188
-0.161204,0.606407,-0.001098,-0.999840,-0.002765,-0.004426,0.017104,-1.587921,-0.934880,1.947850,-2.618076,-1.578985,-0.022801,0.184756,0.037595,5.991359,0.354541,-0.069809,0.003253
-0.160395,0.606706,-0.001138,-0.999846,-0.002777,-0.004476,0.016753,-1.589223,-0.934659,1.947043,-2.616800,-1.579037,-0.024120,0.174398,0.053275,6.044295,0.357274,-0.068288,0.003314
-0.159617,0.606945,-0.001178,-0.999852,-0.002787,-0.004458,0.016398,-1.590534,-0.934510,1.946409,-2.615615,-1.578963,-0.025448,0.166178,0.399549,6.152042,0.356695,-0.067981,0.003501
-0.158836,0.607131,-0.001220,-0.999858,-0.002811,-0.004442,0.016041,-1.591847,-0.934417,1.945926,-2.614521,-1.578926,-0.026811,0.158388,0.937248,6.342255,0.357181,-0.068870,0.003818
-0.158030,0.607272,-0.001263,-0.999863,-0.002818,-0.004474,0.015686,-1.593160,-0.934373,1.945573,-2.613515,-1.578952,-0.028129,0.147512,1.237524,6.559007,0.363967,-0.069853,0.004076
-0.157238,0.607376,-0.001306,-0.999868,-0.002836,-0.004474,0.015335,-1.594478,-0.934373,1.945334,-2.612586,-1.578941,-0.029487,0.135193,1.375886,6.790507,0.375052,-0.070882,0.004292
-0.156431,0.607450,-0.001348,-0.999873,-0.002843,-0.004503,0.014990,-1.595797,-0.934410,1.945193,-2.611734,-1.578964,-0.030810,0.122564,1.408666,7.031710,0.388974,-0.071925,0.004483
-0.155640,0.607493,-0.001394,-0.999879,-0.002851,-0.004495,0.014647,-1.597121,-0.934470,1.945146,-2.610947,-1.578941,-0.032158,0.116955,1.375243,7.293224,0.405583,-0.074137,0.004643
-0.154818,0.607514,-0.001441,-0.999883,-0.002865,-0.004552,0.014313,-1.598441,-0.934561,1.945170,-2.610233,-1.579029,-0.033492,0.112006,1.304033,7.558932,0.423192,-0.076334,0.004794
-0.154016,0.607525,-0.001476,-0.999887,-0.002872,-0.004563,0.014000,-1.599770,-0.934686,1.945253,-2.609581,-1.579025,-0.034836,0.101382,1.214864,7.813465,0.440296,-0.077329,0.004929
-0.153226,0.607522,-0.001510,-0.999892,-0.002877,-0.004546,0.013697,-1.601103,-0.934830,1.945395,-2.608984,-1.578971,-0.036174,0.092335,1.118870,8.071698,0.457644,-0.078282,0.005061
-0.152414,0.607505,-0.001545,-0.999896,-0.002895,-0.004576,0.013403,-1.602432,-0.934987,1.945587,-2.608446,-1.579028,-0.037539,0.084425,1.023090,8.332075,0.475051,-0.079207,0.005193
-0.151603,0.607479,-0.001579,-0.999899,-0.002900,-0.004602,0.013119,-1.603764,-0.935158,1.945823,-2.607959,-1.579056,-0.038878,-0.028779,0.992593,7.958699,0.449659,-0.060432,0.005353
-0.150804,0.607444,-0.001611,-0.999903,-0.002904,-0.004600,0.012846,-1.605101,-0.935341,1.946098,-2.607518,-1.579032,-0.040220,-0.141781,0.974697,7.459871,0.415761,-0.038606,0.005395
-0.150010,0.607404,-0.001643,-0.999906,-0.002907,-0.004587,0.012584,-1.606440,-0.935532,1.946409,-2.607120,-1.578988,-0.041556,-0.134468,0.903010,7.361168,0.409687,-0.033861,0.005268
-0.149182,0.607348,-0.001687,-0.999909,-0.002933,-0.004646,0.012319,-1.607771,-0.935719,1.946752,-2.606772,-1.579115,-0.042950,-0.113848,0.823171,7.257777,0.404995,-0.030255,0.005143
-0.148355,0.607302,-0.001713,-0.999912,-0.002937,-0.004702,0.012083,-1.609107,-0.935929,1.947109,-2.606466,-1.579203,-0.044287,-0.095722,0.743154,7.257978,0.407843,-0.028543,0.005072
-0.147544,0.607254,-0.001737,-0.999914,-0.002940,-0.004723,0.011858,-1.610447,-0.936146,1.947489,-2.606194,-1.579226,-0.045633,-0.083397,0.673075,7.258165,0.410284,-0.028159,0.005031
-0.146739,0.607203,-0.001762,-0.999917,-0.002942,-0.004729,0.011642,-1.611789,-0.936367,1.947889,-2.605955,-1.579224,-0.046978,-0.077897,0.611572,7.259779,0.412540,-0.027982,0.004996
-0.145936,0.607150,-0.001786,-0.999919,-0.002945,-0.004731,0.011435,-1.613133,-0.936590,1.948307,-2.605749,-1.579215,-0.048325,-0.075805,0.557617,7.262332,0.414616,-0.027914,0.004967
-0.145132,0.607096,-0.001810,-0.999921,-0.002947,-0.004734,0.011237,-1.614478,-0.936815,1.948739,-2.605574,-1.579208,-0.049673,-0.075288,0.510197,7.265495,0.416537,-0.027901,0.004946
-0.144327,0.607042,-0.001833,-0.999923,-0.002950,-0.004740,0.011049,-1.615823,-0.937043,1.949184,-2.605429,-1.579209,-0.051022,-0.075501,0.468452,7.268979,0.418318,-0.027919,0.004931
-0.143519,0.606989,-0.001855,-0.999925,-0.002953,-0.004750,0.010869,-1.617168,-0.937271,1.949640,-2.605312,-1.579217,-0.052371,-0.076056,0.431666,7.272599,0.419970,-0.027955,0.004923
-0.142710,0.606936,-0.001876,-0.999927,-0.002955,-0.004765,0.010699,-1.618514,-0.937500,1.950104,-2.605221,-1.579234,-0.053722,-0.082922,0.399969,7.266103,0.420827,-0.026873,0.004916
-0.141898,0.606884,-0.001895,-0.999929,-0.002959,-0.004783,0.010537,-1.619860,-0.937730,1.950577,-2.605156,-1.579260,-0.055073,-0.088835,0.372351,7.258464,0.421471,-0.025761,0.004900
-0.141088,0.606825,-0.001926,-0.999930,-0.002960,-0.004799,0.010371,-1.621206,-0.937947,1.951066,-2.605112,-1.579281,-0.056423,-0.086495,0.346783,7.267869,0.423208,-0.025736,0.004894
-0.140271,0.606777,-0.001942,-0.999932,-0.002965,-0.004829,0.010228,-1.622553,-0.938180,1.951548,-2.605092,-1.579329,-0.057777,-0.084279,0.323792,7.277849,0.424941,-0.025719,0.004899
-0.139452,0.606732,-0.001955,-0.999933,-0.002970,-0.004863,0.010094,-1.623899,-0.938413,1.952035,-2.605094,-1.579384,-0.059132,-0.083148,0.304048,7.279083,0.425952,-0.025708,0.004892
-0.138631,0.606688,-0.001969,-0.999934,-0.002974,-0.004900,0.009966,-1.625246,-0.938645,1.952526,-2.605115,-1.579444,-0.060487,-0.081295,0.286681,7.280662,0.426898,-0.025675,0.004884
-0.137809,0.606644,-0.001983,-0.999935,-0.002979,-0.004939,0.009843,-1.626593,-0.938874,1.953022,-2.605153,-1.579510,-0.061844,-0.079680,0.271173,7.283728,0.427889,-0.025657,0.004888
-0.136986,0.606602,-0.001997,-0.999936,-0.002984,-0.004982,0.009726,-1.627940,-0.939102,1.953520,-2.605209,-1.579584,-0.063201,-0.078777,0.257784,7.280839,0.428400,-0.025644,0.004885
-0.136160,0.606560,-0.002010,-0.999937,-0.002989,-0.005029,0.009615,-1.629288,-0.939329,1.954021,-2.605281,-1.579663,-0.064560,-0.077097,0.245928,7.278041,0.428863,-0.025607,0.004881
-0.135334,0.606521,-0.002023,-0.999937,-0.002995,-0.005078,0.009510,-1.630635,-0.939554,1.954524,-2.605368,-1.579750,-0.065919,-0.075521,0.234944,7.280781,0.429686,-0.025593,0.004889
-0.134505,0.606482,-0.002035,-0.999938,-0.003002,-0.005132,0.009410,-1.631982,-0.939777,1.955028,-2.605468,-1.579843,-0.067279,-0.074645,0.225246,7.281231,0.430308,-0.025598,0.004870
-0.133675,0.606445,-0.002047,-0.999939,-0.003009,-0.005188,0.009315,-1.633330,-0.940000,1.955533,-2.605582,-1.579942,-0.068641,-0.073374,0.216644,7.281612,0.430875,-0.025591,0.004852
-0.132848,0.606402,-0.002070,-0.999939,-0.003014,-0.005239,0.009213,-1.634677,-0.940207,1.956049,-2.605707,-1.580032,-0.070000,-0.071723,0.208445,7.289108,0.431926,-0.025599,0.004846
-0.132014,0.606369,-0.002078,-0.999940,-0.003023,-0.005304,0.009129,-1.636025,-0.940429,1.956552,-2.605845,-1.580149,-0.071364,-0.070232,0.201031,7.296110,0.432912,-0.025613,0.004842
-0.131178,0.606339,-0.002085,-0.999940,-0.003030,-0.005372,0.009052,-1.637373,-0.940651,1.957055,-2.605994,-1.580270,-0.072728,-0.075834,0.195834,7.282717,0.432420,-0.024445,0.004848
-0.130342,0.606310,-0.002092,-0.999940,-0.003039,-0.005442,0.008978,-1.638721,-0.940871,1.957558,-2.606153,-1.580394,-0.074093,-0.081472,0.191584,7.270601,0.431936,-0.023278,0.004855
-0.129506,0.606281,-0.002100,-0.999941,-0.003047,-0.005512,0.008906,-1.640069,-0.941087,1.958061,-2.606322,-1.580519,-0.075458,-0.080571,0.186775,7.273332,0.432465,-0.023290,0.004876
-0.128669,0.606252,-0.002108,-0.999941,-0.003055,-0.005584,0.008838,-1.641417,-0.941301,1.958565,-2.606499,-1.580647,-0.076824,-0.080350,0.182113,7.274796,0.432935,-0.023317,0.004900
-0.127831,0.606225,-0.002116,-0.999941,-0.003064,-0.005655,0.008773,-1.642765,-0.941513,1.959067,-2.606684,-1.580775,-0.078191,-0.080464,0.177891,7.275593,0.433337,-0.023335,0.004926
-0.126994,0.606199,-0.002123,-0.999941,-0.003073,-0.005727,0.008711,-1.644114,-0.941724,1.959569,-2.606876,-1.580902,-0.079558,-0.080303,0.174087,7.276322,0.433707,-0.023323,0.004953
-0.126160,0.606174,-0.002131,-0.999941,-0.003080,-0.005793,0.008652,-1.645464,-0.941933,1.960069,-2.607075,-1.581012,-0.080921,-0.081524,0.170461,7.278084,0.434113,-0.023043,0.004981
-0.125350,0.606153,-0.002137,-0.999941,-0.003080,-0.005806,0.008602,-1.646821,-0.942144,1.960570,-2.607280,-1.581009,-0.082277,-0.080918,0.159438,7.384756,0.442149,-0.022754,0.005031
-0.124561,0.606135,-0.002142,-0.999942,-0.003078,-0.005775,0.008557,-1.648181,-0.942356,1.961070,-2.607490,-1.580925,-0.083632,-0.079397,0.149259,7.492014,0.450135,-0.022436,0.005076
-0.123769,0.606108,-0.002158,-0.999943,-0.003082,-0.005752,0.008503,-1.649540,-0.942550,1.961578,-2.607705,-1.580877,-0.085001,-0.078364,0.146801,7.498770,0.450774,-0.022079,0.005102
-0.122950,0.606092,-0.002161,-0.999943,-0.003086,-0.005784,0.008462,-1.650894,-0.942759,1.962070,-2.607928,-1.580922,-0.086360,-0.077543,0.144034,7.504375,0.451394,-0.021726,0.005129
-0.122146,0.606078,-0.002162,-0.999943,-0.003085,-0.005785,0.008428,-1.652253,-0.942969,1.962561,-2.608156,-1.580899,-0.087716,-0.078986,0.141668,7.505672,0.451666,-0.021144,0.005149
-0.121353,0.606065,-0.002164,-0.999943,-0.003082,-0.005761,0.008397,-1.653614,-0.943176,1.963051,-2.608387,-1.580832,-0.089072,-0.078942,0.139761,7.506375,0.451882,-0.020798,0.005168
-0.120547,0.606051,-0.002167,-0.999944,-0.003085,-0.005768,0.008364,-1.654971,-0.943379,1.963540,-2.608623,-1.580834,-0.090435,-0.078794,0.138021,7.507281,0.452101,-0.020448,0.005188
-0.119742,0.606038,-0.002170,-0.999944,-0.003084,-0.005770,0.008334,-1.656330,-0.943581,1.964027,-2.608862,-1.580813,-0.091790,-0.080116,0.136247,7.508745,0.452336,-0.019860,0.005208
-0.118948,0.606023,-0.002178,-0.999944,-0.003077,-0.005751,0.008301,-1.657691,-0.943772,1.964520,-2.609104,-1.580757,-0.093137,-0.079017,0.133404,7.528246,0.453908,-0.019536,0.005223
-0.118137,0.606006,-0.002187,-0.999944,-0.003085,-0.005769,0.008267,-1.659047,-0.943964,1.965005,-2.609350,-1.580783,-0.094508,-0.077748,0.130461,7.546823,0.455443,-0.019206,0.005239
-0.117326,0.605997,-0.002186,-0.999945,-0.003085,-0.005785,0.008245,-1.660406,-0.944165,1.965482,-2.609600,-1.580790,-0.095866,-0.078965,0.128867,7.546925,0.455587,-0.018612,0.005258
-0.116523,0.605989,-0.002186,-0.999945,-0.003083,-0.005783,0.008226,-1.661766,-0.944364,1.965958,-2.609852,-1.580766,-0.097223,-0.080358,0.128185,7.540978,0.455229,-0.018000,0.005270
-0.115723,0.605981,-0.002186,-0.999945,-0.003082,-0.005777,0.008207,-1.663126,-0.944560,1.966433,-2.610106,-1.580733,-0.098581,-0.081382,0.127660,7.535461,0.454885,-0.017377,0.005282
-0.114922,0.605973,-0.002188,-0.999945,-0.003081,-0.005771,0.008189,-1.664487,-0.944753,1.966906,-2.610363,-1.580701,-0.099939,-0.081933,0.126644,7.536776,0.455046,-0.016760,0.005298
-0.114120,0.605965,-0.002189,-0.999945,-0.003080,-0.005768,0.008171,-1.665847,-0.944944,1.967376,-2.610620,-1.580676,-0.101297,-0.082377,0.125627,7.537625,0.455181,-0.016137,0.005313
-0.113316,0.605957,-0.002191,-0.999945,-0.003080,-0.005770,0.008155,-1.667208,-0.945133,1.967845,-2.610880,-1.580659,-0.102656,-0.082790,0.124698,7.538410,0.455303,-0.015511,0.005326
-0.112510,0.605949,-0.002193,-0.999945,-0.003080,-0.005776,0.008139,-1.668567,-0.945321,1.968310,-2.611141,-1.580652,-0.104016,-0.083182,0.123856,7.539183,0.455413,-0.014882,0.005339
-0.111702,0.605942,-0.002195,-0.999946,-0.003080,-0.005787,0.008123,-1.669927,-0.945506,1.968773,-2.611404,-1.580655,-0.105376,-0.083555,0.123086,7.539942,0.455515,-0.014251,0.005351
-0.110891,0.605935,-0.002196,-0.999946,-0.003081,-0.005803,0.008109,-1.671286,-0.945690,1.969234,-2.611668,-1.580666,-0.106737,-0.083910,0.122380,7.540683,0.455609,-0.013617,0.005362
-0.110082,0.605921,-0.002207,-0.999946,-0.003077,-0.005816,0.008086,-1.672645,-0.945861,1.969700,-2.611932,-1.580673,-0.108090,-0.083659,0.120761,7.554369,0.456650,-0.012968,0.005379
-0.109264,0.605913,-0.002210,-0.999946,-0.003084,-0.005848,0.008070,-1.674002,-0.946041,1.970155,-2.612199,-1.580726,-0.109461,-0.083531,0.119018,7.567797,0.457690,-0.012298,0.005399
-0.108438,0.605908,-0.002208,-0.999945,-0.003087,-0.005896,0.008059,-1.675359,-0.946224,1.970603,-2.612467,-1.580796,-0.110823,-0.084585,0.118812,7.561286,0.457249,-0.011613,0.005404
-0.107618,0.605904,-0.002206,-0.999945,-0.003089,-0.005932,0.008050,-1.676717,-0.946405,1.971049,-2.612735,-1.580844,-0.112187,-0.085633,0.118876,7.555418,0.456814,-0.010929,0.005405
-0.106799,0.605899,-0.002206,-0.999945,-0.003092,-0.005965,0.008040,-1.678076,-0.946583,1.971494,-2.613004,-1.580891,-0.113552,-0.085578,0.118511,7.556147,0.456875,-0.010356,0.005412
-0.105971,0.605892,-0.002207,-0.999945,-0.003098,-0.006019,0.008027,-1.679431,-0.946757,1.971937,-2.613273,-1.580984,-0.114922,-0.084983,0.118154,7.556212,0.456910,-0.009892,0.005420
-0.105144,0.605886,-0.002208,-0.999945,-0.003098,-0.006070,0.008016,-1.680789,-0.946930,1.972377,-2.613543,-1.581046,-0.116276,-0.087073,0.117437,7.557068,0.456943,-0.008920,0.005422
-0.104356,0.605885,-0.002208,-0.999945,-0.003096,-0.006037,0.008016,-1.682155,-0.947106,1.972817,-2.613814,-1.580958,-0.117640,-0.088434,0.116868,7.557892,0.456963,-0.007929,0.005421
-0.103545,0.605881,-0.002209,-0.999945,-0.003101,-0.006054,0.008010,-1.683515,-0.947277,1.973253,-2.614084,-1.580978,-0.119008,-0.089265,0.116371,7.559282,0.457014,-0.006935,0.005427
-0.102747,0.605879,-0.002209,-0.999945,-0.003095,-0.006044,0.008008,-1.684879,-0.947448,1.973686,-2.614355,-1.580924,-0.120362,-0.090389,0.115865,7.560679,0.457059,-0.005918,0.005429
-0.101938,0.605876,-0.002209,-0.999945,-0.003100,-0.006056,0.008004,-1.686240,-0.947617,1.974116,-2.614625,-1.580936,-0.121731,-0.090060,0.115559,7.561416,0.457067,-0.005168,0.005432
-0.101142,0.605876,-0.002209,-0.999945,-0.003093,-0.006043,0.008004,-1.687605,-0.947786,1.974544,-2.614894,-1.580874,-0.123083,-0.088736,0.115386,7.561788,0.457063,-0.004686,0.005437
-0.100334,0.605873,-0.002210,-0.999945,-0.003099,-0.006053,0.008001,-1.688966,-0.947952,1.974968,-2.615164,-1.580885,-0.124454,-0.088215,0.115128,7.562544,0.457089,-0.004230,0.005444
-0.099537,0.605868,-0.002215,-0.999945,-0.003086,-0.006040,0.007996,-1.690330,-0.948109,1.975397,-2.615431,-1.580823,-0.125794,-0.088590,0.113678,7.578157,0.458195,-0.003519,0.005438
-0.098727,0.605862,-0.002221,-0.999945,-0.003097,-0.006056,0.007988,-1.691690,-0.948268,1.975818,-2.615699,-1.580848,-0.127176,-0.088445,0.112080,7.592854,0.459269,-0.002793,0.005432
-0.097923,0.605864,-0.002217,-0.999945,-0.003090,-0.006057,0.007993,-1.693055,-0.948436,1.976230,-2.615967,-1.580806,-0.128523,-0.090077,0.111333,7.593101,0.459241,-0.001866,0.005435
-0.097124,0.605866,-0.002213,-0.999945,-0.003095,-0.006049,0.007998,-1.694418,-0.948601,1.976640,-2.616234,-1.580784,-0.129900,-0.090855,0.111087,7.593458,0.459214,-0.001168,0.005435
-0.096321,0.605867,-0.002211,-0.999945,-0.003087,-0.006049,0.008001,-1.695782,-0.948763,1.977048,-2.616499,-1.580746,-0.131247,-0.089359,0.111257,7.592928,0.459168,-0.000935,0.005435
-0.095512,0.605866,-0.002210,-0.999945,-0.003091,-0.006062,0.008002,-1.697144,-0.948922,1.977453,-2.616764,-1.580756,-0.132616,-0.088905,0.111205,7.592857,0.459117,-0.000479,0.005432
-0.094716,0.605867,-0.002209,-0.999945,-0.003085,-0.006046,0.008007,-1.698510,-0.949081,1.977857,-2.617027,-1.580691,-0.133969,-0.090630,0.112399,7.574673,0.457711,0.000251,0.005434
-0.093907,0.605866,-0.002209,-0.999945,-0.003090,-0.006061,0.008007,-1.699871,-0.949237,1.978256,-2.617290,-1.580708,-0.135340,-0.092443,0.113818,7.557525,0.456340,0.000978,0.005437
-0.093105,0.605866,-0.002208,-0.999945,-0.003083,-0.006059,0.008010,-1.701236,-0.949392,1.978654,-2.617550,-1.580664,-0.136690,-0.094168,0.113629,7.559561,0.456351,0.001902,0.005435
-0.092309,0.605858,-0.002219,-0.999945,-0.003087,-0.006045,0.008002,-1.702599,-0.949532,1.979058,-2.617808,-1.580636,-0.138066,-0.093111,0.113187,7.564927,0.456705,0.002374,0.005441
-0.091490,0.605858,-0.002217,-0.999945,-0.003084,-0.006080,0.008003,-1.703960,-0.949686,1.979446,-2.618067,-1.580666,-0.139415,-0.092568,0.112678,7.569903,0.457037,0.002829,0.005449
-0.090700,0.605863,-0.002212,-0.999945,-0.003078,-0.006051,0.008015,-1.705327,-0.949843,1.979831,-2.618324,-1.580579,-0.140775,-0.092331,0.112693,7.569119,0.456931,0.003280,0.005444
-0.089889,0.605864,-0.002210,-0.999945,-0.003083,-0.006068,0.008018,-1.706688,-0.949994,1.980214,-2.618581,-1.580605,-0.142146,-0.089885,0.113139,7.568318,0.456849,0.003388,0.005443
-0.089054,0.605860,-0.002209,-0.999944,-0.003090,-0.006136,0.008013,-1.708045,-0.950140,1.980593,-2.618836,-1.580722,-0.143517,-0.088715,0.113372,7.567910,0.456795,0.003574,0.005448
-0.088222,0.605856,-0.002208,-0.999944,-0.003090,-0.006199,0.008009,-1.709403,-0.950286,1.980969,-2.619089,-1.580810,-0.144873,-0.090275,0.113148,7.567999,0.456735,0.004160,0.005451
-0.087429,0.605858,-0.002207,-0.999944,-0.003083,-0.006178,0.008016,-1.710770,-0.950434,1.981345,-2.619338,-1.580729,-0.146227,-0.093241,0.112689,7.568631,0.456659,0.005190,0.005447
-0.086640,0.605861,-0.002206,-0.999944,-0.003085,-0.006147,0.008024,-1.712137,-0.950579,1.981718,-2.619586,-1.580656,-0.147599,-0.093051,0.112761,7.568503,0.456569,0.005833,0.005447
-0.085822,0.605859,-0.002206,-0.999944,-0.003087,-0.006180,0.008023,-1.713497,-0.950721,1.982086,-2.619833,-1.580697,-0.148960,-0.093604,0.113753,7.555673,0.455544,0.006459,0.005439
-0.085026,0.605860,-0.002205,-0.999944,-0.003081,-0.006166,0.008029,-1.714863,-0.950860,1.982455,-2.620077,-1.580628,-0.150306,-0.100144,0.122456,7.437784,0.446765,0.006845,0.005400
-0.084224,0.605852,-0.002216,-0.999944,-0.003095,-0.006166,0.008019,-1.716225,-0.950990,1.982825,-2.620320,-1.580629,-0.151711,-0.104030,0.130078,7.331202,0.438917,0.007015,0.005373
-0.083411,0.605853,-0.002212,-0.999944,-0.003089,-0.006187,0.008025,-1.717588,-0.951133,1.983181,-2.620564,-1.580632,-0.153053,-0.104312,0.129569,7.330057,0.438809,0.007817,0.005372
-0.082621,0.605859,-0.002208,-0.999944,-0.003084,-0.006160,0.008037,-1.718956,-0.951276,1.983535,-2.620804,-1.580553,-0.154416,-0.104410,0.129615,7.329838,0.438707,0.008538,0.005365
-0.081807,0.605859,-0.002205,-0.999944,-0.003085,-0.006182,0.008040,-1.720317,-0.951414,1.983887,-2.621044,-1.580575,-0.155777,-0.104613,0.129682,7.330376,0.438639,0.009383,0.005356
-0.081007,0.605861,-0.002203,-0.999944,-0.003080,-0.006176,0.008047,-1.721683,-0.951551,1.984236,-2.621280,-1.580528,-0.157131,-0.104309,0.129752,7.330927,0.438578,0.010132,0.005348
-0.080206,0.605862,-0.002202,-0.999944,-0.003082,-0.006173,0.008052,-1.723047,-0.951686,1.984583,-2.621516,-1.580508,-0.158502,-0.104504,0.129713,7.331893,0.438552,0.010868,0.005346
-0.079399,0.605862,-0.002202,-0.999944,-0.003077,-0.006182,0.008056,-1.724410,-0.951819,1.984927,-2.621749,-1.580491,-0.159853,-0.105178,0.129638,7.332222,0.438486,0.011585,0.005335
-0.078608,0.605858,-0.002209,-0.999944,-0.003071,-0.006159,0.008054,-1.725776,-0.951939,1.985276,-2.621978,-1.580429,-0.161211,-0.102447,0.129148,7.343800,0.439302,0.011879,0.005330
-0.077788,0.605854,-0.002211,-0.999944,-0.003075,-0.006196,0.008051,-1.727136,-0.952067,1.985613,-2.622209,-1.580479,-0.162573,-0.099786,0.128517,7.354807,0.440101,0.012169,0.005326
-0.076981,0.605857,-0.002206,-0.999944,-0.003071,-0.006203,0.008059,-1.728500,-0.952201,1.985944,-2.622438,-1.580459,-0.163933,-0.100293,0.128418,7.353839,0.439964,0.012832,0.005312
-0.076187,0.605862,-0.002202,-0.999944,-0.003067,-0.006184,0.008070,-1.729866,-0.952334,1.986273,-2.622664,-1.580391,-0.165289,-0.100525,0.128560,7.353406,0.439833,0.013505,0.005297
-0.075388,0.605864,-0.002200,-0.999944,-0.003069,-0.006175,0.008078,-1.731231,-0.952462,1.986601,-2.622888,-1.580358,-0.166659,-0.101607,0.130041,7.334752,0.438360,0.014170,0.005296
-0.074578,0.605864,-0.002199,-0.999943,-0.003066,-0.006192,0.008081,-1.732593,-0.952587,1.986924,-2.623111,-1.580360,-0.168013,-0.103092,0.131661,7.316967,0.436917,0.014824,0.005294
-0.073778,0.605866,-0.002197,-0.999943,-0.003063,-0.006186,0.008088,-1.733958,-0.952712,1.987246,-2.623331,-1.580319,-0.169372,-0.101032,0.132278,7.316921,0.436840,0.015030,0.005282
-0.072983,0.605865,-0.002200,-0.999944,-0.003055,-0.006170,0.008092,-1.735323,-0.952829,1.987569,-2.623548,-1.580260,-0.170721,-0.097488,0.131108,7.338692,0.438412,0.015355,0.005247
-0.072166,0.605857,-0.002208,-0.999943,-0.003066,-0.006202,0.008082,-1.736682,-0.952941,1.987888,-2.623766,-1.580315,-0.172104,-0.096402,0.129243,7.360036,0.439957,0.016136,0.005212
-0.071347,0.605858,-0.002203,-0.999943,-0.003065,-0.006235,0.008086,-1.738043,-0.953064,1.988196,-2.623983,-1.580349,-0.173463,-0.096956,0.128889,7.358758,0.439837,0.016792,0.005209
-0.070539,0.605860,-0.002199,-0.999943,-0.003064,-0.006248,0.008093,-1.739405,-0.953186,1.988502,-2.624197,-1.580343,-0.174823,-0.097838,0.128873,7.358552,0.439735,0.017437,0.005206
-0.069734,0.605862,-0.002197,-0.999943,-0.003062,-0.006252,0.008099,-1.740769,-0.953306,1.988806,-2.624408,-1.580325,-0.176183,-0.098416,0.128944,7.358311,0.439624,0.018091,0.005200
-0.068929,0.605863,-0.002195,-0.999943,-0.003061,-0.006255,0.008105,-1.742132,-0.953423,1.989108,-2.624617,-1.580305,-0.177543,-0.096392,0.129404,7.357256,0.439507,0.018290,0.005195
-0.068124,0.605864,-0.002194,-0.999943,-0.003060,-0.006261,0.008109,-1.743495,-0.953538,1.989406,-2.624824,-1.580291,-0.178904,-0.097119,0.129834,7.351895,0.439026,0.018943,0.005183
-0.067316,0.605864,-0.002193,-0.999943,-0.003059,-0.006271,0.008112,-1.744857,-0.953651,1.989702,-2.625029,-1.580285,-0.180265,-0.097637,0.130303,7.346751,0.438556,0.019603,0.005170
-0.066507,0.605863,-0.002193,-0.999943,-0.003059,-0.006285,0.008114,-1.746219,-0.953763,1.989994,-2.625232,-1.580288,-0.181627,-0.098012,0.130265,7.347348,0.438519,0.020261,0.005169
-0.065696,0.605862,-0.002192,-0.999943,-0.003059,-0.006303,0.008116,-1.747580,-0.953873,1.990284,-2.625433,-1.580300,-0.182989,-0.100677,0.129816,7.347950,0.438455,0.021258,0.005166
-0.064883,0.605860,-0.002192,-0.999942,-0.003060,-0.006326,0.008116,-1.748940,-0.953982,1.990569,-2.625633,-1.580321,-0.184351,-0.102109,0.129592,7.348138,0.438358,0.022175,0.005158
-0.064070,0.605854,-0.002197,-0.999942,-0.003056,-0.006348,0.008110,-1.750300,-0.954080,1.990859,-2.625829,-1.580339,-0.185703,-0.099797,0.128478,7.366894,0.439657,0.022814,0.005148
-0.063255,0.605848,-0.002202,-0.999942,-0.003062,-0.006375,0.008104,-1.751659,-0.954181,1.991141,-2.626024,-1.580375,-0.187076,-0.095978,0.127398,7.384018,0.440933,0.023011,0.005144
-0.062434,0.605848,-0.002198,-0.999942,-0.003065,-0.006414,0.008106,-1.753018,-0.954290,1.991413,-2.626220,-1.580426,-0.188440,-0.096405,0.127177,7.382702,0.440817,0.023465,0.005143
-0.061612,0.605847,-0.002195,-0.999942,-0.003068,-0.006456,0.008106,-1.754376,-0.954396,1.991684,-2.626413,-1.580483,-0.189805,-0.096835,0.127259,7.382190,0.440710,0.023918,0.005142
-0.060789,0.605845,-0.002193,-0.999941,-0.003071,-0.006499,0.008105,-1.755734,-0.954499,1.991952,-2.626604,-1.580545,-0.191170,-0.091124,0.119806,7.487054,0.448357,0.024594,0.005170
-0.059965,0.605841,-0.002192,-0.999941,-0.003074,-0.006545,0.008102,-1.757092,-0.954600,1.992217,-2.626793,-1.580610,-0.192534,-0.087325,0.112402,7.593616,0.456035,0.025526,0.005192
-0.059143,0.605838,-0.002191,-0.999941,-0.003077,-0.006585,0.008099,-1.758450,-0.954699,1.992480,-2.626980,-1.580664,-0.193898,-0.087220,0.112890,7.594435,0.455976,0.025869,0.005192
-0.058323,0.605835,-0.002191,-0.999941,-0.003080,-0.006622,0.008096,-1.759808,-0.954797,1.992740,-2.627165,-1.580713,-0.195263,-0.087927,0.112746,7.594569,0.455922,0.026396,0.005197
-0.057502,0.605832,-0.002191,-0.999940,-0.003083,-0.006661,0.008093,-1.761165,-0.954893,1.992997,-2.627347,-1.580765,-0.196627,-0.088923,0.112562,7.594145,0.455835,0.026910,0.005203
-0.056681,0.605828,-0.002191,-0.999940,-0.003086,-0.006701,0.008090,-1.762523,-0.954988,1.993250,-2.627528,-1.580821,-0.197993,-0.087691,0.112803,7.592849,0.455729,0.027010,0.005213
-0.055861,0.605824,-0.002191,-0.999940,-0.003088,-0.006739,0.008086,-1.763881,-0.955082,1.993501,-2.627707,-1.580865,-0.199352,-0.087756,0.112809,7.591650,0.455587,0.027338,0.005216
-0.055062,0.605826,-0.002190,-0.999940,-0.003084,-0.006730,0.008093,-1.765244,-0.955177,1.993749,-2.627882,-1.580810,-0.200707,-0.088512,0.112677,7.590764,0.455419,0.027914,0.005216
-0.054270,0.605819,-0.002200,-0.999940,-0.003085,-0.006709,0.008088,-1.766605,-0.955257,1.994004,-2.628053,-1.580757,-0.202074,-0.090281,0.113107,7.582494,0.454689,0.028689,0.005217
-0.053455,0.605819,-0.002197,-0.999940,-0.003087,-0.006736,0.008090,-1.767964,-0.955351,1.994242,-2.628227,-1.580784,-0.203433,-0.092220,0.113628,7.574785,0.453979,0.029461,0.005219
-0.052652,0.605822,-0.002193,-0.999940,-0.003083,-0.006734,0.008099,-1.769326,-0.955446,1.994478,-2.628398,-1.580743,-0.204787,-0.092674,0.113670,7.574980,0.453861,0.030050,0.005224
-0.051853,0.605825,-0.002190,-0.999940,-0.003084,-0.006726,0.008108,-1.770687,-0.955538,1.994712,-2.628567,-1.580708,-0.206152,-0.092001,0.113859,7.574212,0.453739,0.030404,0.005232
-0.051045,0.605824,-0.002188,-0.999940,-0.003081,-0.006738,0.008111,-1.772047,-0.955627,1.994943,-2.628733,-1.580697,-0.207504,-0.091564,0.114047,7.572701,0.453567,0.030746,0.005232
-0.050246,0.605826,-0.002187,-0.999940,-0.003080,-0.006730,0.008118,-1.773408,-0.955714,1.995171,-2.628897,-1.580659,-0.208865,-0.090856,0.114299,7.571105,0.453385,0.031098,0.005231
-0.049441,0.605826,-0.002186,-0.999940,-0.003077,-0.006736,0.008121,-1.774768,-0.955800,1.995396,-2.629059,-1.580640,-0.210216,-0.090091,0.114517,7.570177,0.453251,0.031454,0.005239
-0.048643,0.605818,-0.002196,-0.999940,-0.003075,-0.006728,0.008114,-1.776127,-0.955870,1.995628,-2.629216,-1.580609,-0.211576,-0.092905,0.115182,7.556409,0.452122,0.032210,0.005283
-0.047829,0.605817,-0.002195,-0.999940,-0.003075,-0.006752,0.008115,-1.777484,-0.955954,1.995845,-2.629376,-1.580626,-0.212929,-0.095822,0.116089,7.543222,0.450995,0.032963,0.005327
-0.047026,0.605820,-0.002190,-0.999940,-0.003073,-0.006753,0.008124,-1.778844,-0.956040,1.996057,-2.629533,-1.580596,-0.214285,-0.096241,0.116313,7.543434,0.450858,0.033551,0.005330
-0.046228,0.605823,-0.002187,-0.999940,-0.003070,-0.006743,0.008133,-1.780205,-0.956124,1.996268,-2.629687,-1.580546,-0.215639,-0.096220,0.116365,7.543051,0.450715,0.034154,0.005333
-0.045427,0.605825,-0.002185,-0.999939,-0.003069,-0.006738,0.008140,-1.781564,-0.956205,1.996476,-2.629839,-1.580513,-0.216998,-0.096397,0.116341,7.542787,0.450588,0.034753,0.005339
-0.044622,0.605825,-0.002184,-0.999939,-0.003067,-0.006745,0.008143,-1.782922,-0.956283,1.996681,-2.629989,-1.580497,-0.218350,-0.096831,0.116269,7.542498,0.450460,0.035345,0.005345
-0.043819,0.605825,-0.002183,-0.999939,-0.003065,-0.006745,0.008148,-1.784281,-0.956359,1.996884,-2.630136,-1.580470,-0.219705,-0.097306,0.116218,7.541948,0.450314,0.035933,0.005348
-0.043016,0.605825,-0.002182,-0.999939,-0.003063,-0.006746,0.008152,-1.785639,-0.956435,1.997083,-2.630282,-1.580444,-0.221059,-0.097650,0.116206,7.541406,0.450165,0.036525,0.005351
-0.042212,0.605825,-0.002181,-0.999939,-0.003061,-0.006749,0.008155,-1.786996,-0.956508,1.997279,-2.630425,-1.580424,-0.222414,-0.097925,0.116211,7.540859,0.450016,0.037120,0.005353
-0.041407,0.605824,-0.002181,-0.999939,-0.003060,-0.006756,0.008158,-1.788353,-0.956580,1.997472,-2.630567,-1.580412,-0.223768,-0.098166,0.116225,7.540308,0.449865,0.037717,0.005355
-0.040599,0.605823,-0.002180,-0.999939,-0.003059,-0.006767,0.008159,-1.789709,-0.956651,1.997661,-2.630706,-1.580408,-0.225123,-0.098388,0.116242,7.539751,0.449715,0.038314,0.005357
-0.039789,0.605821,-0.002180,-0.999939,-0.003059,-0.006783,0.008159,-1.791065,-0.956716,1.997850,-2.630843,-1.580410,-0.226469,-0.105212,0.125028,7.414770,0.440540,0.037800,0.005344
-0.038983,0.605811,-0.002191,-0.999939,-0.003067,-0.006793,0.008147,-1.792419,-0.956774,1.998040,-2.630977,-1.580415,-0.227852,-0.111928,0.133671,7.289285,0.431355,0.037287,0.005331
-0.038167,0.605811,-0.002188,-0.999939,-0.003067,-0.006821,0.008149,-1.793773,-0.956844,1.998216,-2.631112,-1.580444,-0.229201,-0.112000,0.133545,7.288136,0.431190,0.037887,0.005332
-0.037350,0.605810,-0.002184,-0.999939,-0.003067,-0.006852,0.008150,-1.795126,-0.956912,1.998389,-2.631245,-1.580480,-0.230556,-0.112172,0.133563,7.287476,0.431034,0.038486,0.005332
-0.036531,0.605807,-0.002182,-0.999938,-0.003067,-0.006886,0.008148,-1.796479,-0.956978,1.998561,-2.631376,-1.580522,-0.231910,-0.112363,0.133588,7.286894,0.430880,0.039087,0.005332
-0.035711,0.605804,-0.002181,-0.999938,-0.003069,-0.006924,0.008144,-1.797831,-0.957041,1.998729,-2.631504,-1.580571,-0.233265,-0.112362,0.133655,7.286238,0.430729,0.039648,0.005332
-0.034890,0.605799,-0.002180,-0.999938,-0.003071,-0.006964,0.008139,-1.799182,-0.957101,1.998895,-2.631630,-1.580627,-0.234621,-0.112241,0.133745,7.285509,0.430580,0.040167,0.005332
-0.034067,0.605794,-0.002180,-0.999938,-0.003073,-0.007008,0.008132,-1.800532,-0.957160,1.999058,-2.631754,-1.580691,-0.235977,-0.112250,0.133802,7.284777,0.430434,0.040682,0.005333
-0.033245,0.605788,-0.002180,-0.999937,-0.003074,-0.007050,0.008125,-1.801883,-0.957214,1.999220,-2.631875,-1.580743,-0.237321,-0.118320,0.141106,7.178920,0.422675,0.040202,0.005313
-0.032438,0.605778,-0.002191,-0.999937,-0.003082,-0.007062,0.008112,-1.803235,-0.957262,1.999384,-2.631993,-1.580747,-0.238701,-0.124508,0.147963,7.071652,0.414852,0.039834,0.005292
-0.031629,0.605779,-0.002187,-0.999937,-0.003080,-0.007076,0.008117,-1.804588,-0.957322,1.999535,-2.632114,-1.580746,-0.240046,-0.123782,0.147788,7.068987,0.414615,0.040337,0.005291
-0.030821,0.605780,-0.002184,-0.999937,-0.003079,-0.007087,0.008123,-1.805941,-0.957381,1.999683,-2.632232,-1.580738,-0.241398,-0.122346,0.148230,7.067605,0.414440,0.040600,0.005293
-0.030013,0.605780,-0.002181,-0.999937,-0.003077,-0.007097,0.008127,-1.807294,-0.957438,1.999830,-2.632348,-1.580731,-0.242747,-0.122810,0.148620,7.062492,0.413954,0.041052,0.005289
-0.029205,0.605780,-0.002180,-0.999937,-0.003076,-0.007110,0.008129,-1.808646,-0.957491,1.999973,-2.632461,-1.580729,-0.244097,-0.123104,0.149035,7.057319,0.413466,0.041511,0.005284
-0.028395,0.605778,-0.002179,-0.999937,-0.003075,-0.007126,0.008129,-1.809997,-0.957543,2.000114,-2.632572,-1.580734,-0.245447,-0.121827,0.149357,7.056171,0.413321,0.041773,0.005287
-0.027584,0.605775,-0.002178,-0.999937,-0.003075,-0.007145,0.008128,-1.811348,-0.957593,2.000251,-2.632680,-1.580746,-0.246798,-0.122089,0.149268,7.055323,0.413169,0.042257,0.005289
-0.026770,0.605772,-0.002178,-0.999937,-0.003075,-0.007168,0.008126,-1.812698,-0.957641,2.000386,-2.632787,-1.580767,-0.248149,-0.122402,0.149195,7.054426,0.413010,0.042739,0.005291
-0.025956,0.605769,-0.002178,-0.999936,-0.003076,-0.007195,0.008123,-1.814047,-0.957688,2.000517,-2.632891,-1.580796,-0.249500,-0.122743,0.149130,7.053627,0.412855,0.043220,0.005295
-0.025152,0.605768,-0.002177,-0.999936,-0.003071,-0.007198,0.008126,-1.815399,-0.957734,2.000645,-2.632994,-1.580766,-0.250840,-0.123081,0.149081,7.052826,0.412699,0.043702,0.005298
-0.024348,0.605767,-0.002177,-0.999936,-0.003071,-0.007201,0.008129,-1.816749,-0.957779,2.000771,-2.633094,-1.580751,-0.252192,-0.123622,0.149735,7.043413,0.411910,0.044132,0.005293
-0.023546,0.605767,-0.002176,-0.999936,-0.003067,-0.007200,0.008133,-1.818100,-0.957824,2.000893,-2.633193,-1.580715,-0.253534,-0.123976,0.150504,7.034412,0.411137,0.044572,0.005287
-0.022740,0.605766,-0.002176,-0.999936,-0.003067,-0.007208,0.008134,-1.819450,-0.957866,2.001011,-2.633289,-1.580703,-0.254882,-0.125227,0.150155,7.034337,0.410937,0.045346,0.005291
-0.021938,0.605765,-0.002176,-0.999936,-0.003066,-0.007207,0.008138,-1.820800,-0.957908,2.001127,-2.633383,-1.580674,-0.256231,-0.126613,0.149698,7.033681,0.410714,0.046113,0.005290
-0.021135,0.605765,-0.002175,-0.999936,-0.003064,-0.007209,0.008141,-1.822150,-0.957948,2.001239,-2.633476,-1.580650,-0.257576,-0.128112,0.149254,7.032810,0.410472,0.046876,0.005292
-0.020333,0.605764,-0.002175,-0.999936,-0.003062,-0.007208,0.008145,-1.823499,-0.957983,2.001351,-2.633565,-1.580618,-0.258914,-0.135790,0.155971,6.927259,0.402679,0.046517,0.005279
-0.019533,0.605755,-0.002186,-0.999936,-0.003068,-0.007207,0.008134,-1.824847,-0.958010,2.001463,-2.633651,-1.580596,-0.260284,-0.141390,0.162889,6.819813,0.394894,0.045827,0.005257
-0.018730,0.605758,-0.002182,-0.999936,-0.003065,-0.007208,0.008142,-1.826196,-0.958051,2.001562,-2.633739,-1.580570,-0.261624,-0.140734,0.162743,6.816923,0.394642,0.046261,0.005251
-0.017926,0.605760,-0.002178,-0.999936,-0.003062,-0.007210,0.008150,-1.827544,-0.958090,2.001659,-2.633824,-1.580547,-0.262966,-0.139588,0.163217,6.815294,0.394448,0.046529,0.005253
-0.017123,0.605761,-0.002176,-0.999936,-0.003057,-0.007212,0.008155,-1.828892,-0.958126,2.001753,-2.633907,-1.580518,-0.264302,-0.141118,0.162903,6.814784,0.394210,0.047294,0.005257
-0.016321,0.605761,-0.002174,-0.999936,-0.003054,-0.007211,0.008160,-1.830239,-0.958160,2.001845,-2.633987,-1.580490,-0.265647,-0.142432,0.162626,6.814168,0.393966,0.048066,0.005258
-0.015517,0.605761,-0.002173,-0.999936,-0.003051,-0.007214,0.008163,-1.831586,-0.958192,2.001934,-2.634064,-1.580465,-0.266983,-0.137973,0.154975,6.918844,0.401350,0.049832,0.005275
-0.014715,0.605761,-0.002172,-0.999936,-0.003048,-0.007213,0.008167,-1.832933,-0.958222,2.002020,-2.634139,-1.580434,-0.268326,-0.133540,0.147727,7.024995,0.408775,0.051605,0.005284
-0.013911,0.605760,-0.002172,-0.999936,-0.003046,-0.007218,0.008169,-1.834278,-0.958251,2.002102,-2.634213,-1.580417,-0.269666,-0.134443,0.147921,7.025967,0.408580,0.052399,0.005270
-0.013108,0.605759,-0.002171,-0.999936,-0.003046,-0.007219,0.008172,-1.835623,-0.958278,2.002182,-2.634284,-1.580393,-0.271013,-0.137639,0.146925,7.026515,0.408305,0.053696,0.005264
-0.012306,0.605758,-0.002171,-0.999936,-0.003044,-0.007219,0.008175,-1.836969,-0.958304,2.002258,-2.634352,-1.580366,-0.272354,-0.140913,0.145868,7.027115,0.408038,0.054995,0.005265
-0.011511,0.605751,-0.002181,-0.999936,-0.003038,-0.007206,0.008168,-1.838313,-0.958316,2.002340,-2.634415,-1.580323,-0.273690,-0.141198,0.145018,7.035154,0.408425,0.055890,0.005276
-0.010704,0.605750,-0.002180,-0.999936,-0.003032,-0.007215,0.008170,-1.839657,-0.958342,2.002409,-2.634480,-1.580302,-0.275016,-0.138803,0.144987,7.041410,0.408811,0.056291,0.005271
-0.009897,0.605751,-0.002176,-0.999936,-0.003034,-0.007224,0.008175,-1.841000,-0.958368,2.002472,-2.634544,-1.580297,-0.276364,-0.139163,0.144907,7.040289,0.408530,0.057105,0.005252
-0.009102,0.605754,-0.002173,-0.999936,-0.003028,-0.007210,0.008185,-1.842346,-0.958393,2.002533,-2.634604,-1.580237,-0.277700,-0.133497,0.137665,7.144940,0.415890,0.058918,0.005263
-0.008290,0.605752,-0.002171,-0.999936,-0.003027,-0.007231,0.008183,-1.843686,-0.958414,2.002591,-2.634663,-1.580251,-0.279035,-0.127756,0.130844,7.250910,0.423310,0.060618,0.005274
-0.007496,0.605754,-0.002170,-0.999936,-0.003022,-0.007213,0.008192,-1.845031,-0.958434,2.002648,-2.634718,-1.580187,-0.280374,-0.127694,0.131326,7.251731,0.423150,0.061216,0.005264
-0.006685,0.605751,-0.002169,-0.999936,-0.003020,-0.007230,0.008190,-1.846371,-0.958451,2.002701,-2.634772,-1.580191,-0.281705,-0.127492,0.131370,7.250864,0.422946,0.061809,0.005255
-0.005887,0.605752,-0.002169,-0.999936,-0.003019,-0.007222,0.008195,-1.847713,-0.958467,2.002751,-2.634823,-1.580155,-0.283051,-0.127348,0.131386,7.249764,0.422730,0.062400,0.005246
-0.005088,0.605749,-0.002171,-0.999936,-0.003006,-0.007215,0.008195,-1.849055,-0.958476,2.002802,-2.634870,-1.580104,-0.284361,-0.123107,0.130780,7.270054,0.424171,0.062754,0.005211
-0.004279,0.605739,-0.002179,-0.999936,-0.003016,-0.007232,0.008183,-1.850392,-0.958482,2.002849,-2.634915,-1.580126,-0.285721,-0.121058,0.129172,7.290347,0.425538,0.063598,0.005170
-0.003480,0.605743,-0.002175,-0.999936,-0.003008,-0.007225,0.008192,-1.851734,-0.958499,2.002887,-2.634961,-1.580068,-0.287043,-0.123017,0.128292,7.288991,0.425221,0.064677,0.005154
-0.002675,0.605743,-0.002172,-0.999936,-0.003012,-0.007230,0.008196,-1.853073,-0.958513,2.002921,-2.635005,-1.580063,-0.288392,-0.124893,0.127805,7.289075,0.424944,0.065767,0.005138
-0.001875,0.605745,-0.002169,-0.999936,-0.003003,-0.007224,0.008203,-1.854413,-0.958526,2.002953,-2.635046,-1.580011,-0.289714,-0.125038,0.127861,7.288719,0.424712,0.066542,0.005119
-0.001068,0.605743,-0.002168,-0.999936,-0.003006,-0.007235,0.008202,-1.855750,-0.958535,2.002982,-2.635084,-1.580015,-0.291056,-0.125286,0.127875,7.288193,0.424474,0.067311,0.005098
-0.000270,0.605744,-0.002167,-0.999936,-0.002998,-0.007226,0.008208,-1.857090,-0.958543,2.003009,-2.635119,-1.579957,-0.292379,-0.127359,0.127298,7.288278,0.424206,0.068393,0.005080
0.000536,0.605741,-0.002167,-0.999936,-0.003002,-0.007235,0.008207,-1.858425,-0.958549,2.003032,-2.635153,-1.579960,-0.293723,-0.129436,0.126698,7.288442,0.423946,0.069474,0.005062
0.001337,0.605741,-0.002166,-0.999936,-0.002994,-0.007232,0.008210,-1.859763,-0.958554,2.003053,-2.635184,-1.579917,-0.295045,-0.128986,0.126821,7.287782,0.423754,0.070050,0.005046
0.002137,0.605730,-0.002178,-0.999936,-0.002998,-0.007230,0.008197,-1.861098,-0.958543,2.003079,-2.635209,-1.579908,-0.296390,-0.128548,0.126417,7.293093,0.423989,0.070710,0.005045
0.002948,0.605728,-0.002175,-0.999936,-0.002992,-0.007250,0.008196,-1.862432,-0.958548,2.003090,-2.635238,-1.579909,-0.297710,-0.128306,0.125949,7.298032,0.424204,0.071359,0.005039
0.003741,0.605733,-0.002171,-0.999936,-0.002985,-0.007229,0.008209,-1.863771,-0.958555,2.003098,-2.635262,-1.579829,-0.299034,-0.121859,0.118945,7.401394,0.431514,0.073037,0.005036
0.004548,0.605732,-0.002168,-0.999936,-0.002989,-0.007239,0.008210,-1.865104,-0.958556,2.003104,-2.635285,-1.579832,-0.300375,-0.117048,0.111902,7.507588,0.438864,0.075071,0.005045
0.005351,0.605731,-0.002167,-0.999936,-0.002982,-0.007242,0.008211,-1.866439,-0.958556,2.003107,-2.635306,-1.579803,-0.301696,-0.118814,0.111808,7.509213,0.438688,0.075971,0.005039
0.006147,0.605732,-0.002166,-0.999936,-0.002980,-0.007228,0.008217,-1.867774,-0.958554,2.003107,-2.635322,-1.579755,-0.303030,-0.118783,0.111853,7.508043,0.438468,0.076549,0.005029
0.006954,0.605729,-0.002166,-0.999936,-0.002975,-0.007238,0.008215,-1.869106,-0.958550,2.003104,-2.635338,-1.579743,-0.304347,-0.116070,0.112670,7.505705,0.438291,0.076630,0.005017
0.007747,0.605726,-0.002171,-0.999936,-0.002966,-0.007221,0.008214,-1.870440,-0.958536,2.003105,-2.635347,-1.579686,-0.305667,-0.112003,0.112346,7.521920,0.439446,0.076922,0.004999
0.008565,0.605714,-0.002176,-0.999936,-0.002973,-0.007256,0.008197,-1.871767,-0.958523,2.003098,-2.635359,-1.579744,-0.307005,-0.107965,0.111780,7.537323,0.440581,0.077207,0.004984
0.009378,0.605713,-0.002172,-0.999936,-0.002970,-0.007278,0.008197,-1.873097,-0.958519,2.003081,-2.635371,-1.579753,-0.308330,-0.108197,0.111460,7.535436,0.440356,0.077741,0.004980
0.010180,0.605714,-0.002169,-0.999936,-0.002966,-0.007276,0.008202,-1.874429,-0.958514,2.003063,-2.635377,-1.579717,-0.309654,-0.108517,0.111432,7.534466,0.440148,0.078276,0.004980
0.010977,0.605715,-0.002167,-0.999936,-0.002962,-0.007266,0.008207,-1.875761,-0.958506,2.003043,-2.635381,-1.579666,-0.310978,-0.105841,0.112333,7.532439,0.439981,0.078328,0.004970
0.011774,0.605715,-0.002166,-0.999936,-0.002959,-0.007254,0.008212,-1.877092,-0.958496,2.003020,-2.635382,-1.579615,-0.312302,-0.102848,0.113326,7.530138,0.439795,0.078388,0.004951
0.012572,0.605715,-0.002165,-0.999936,-0.002956,-0.007245,0.008215,-1.878422,-0.958484,2.002994,-2.635380,-1.579570,-0.313625,-0.102744,0.114150,7.520391,0.438951,0.078855,0.004922
0.013371,0.605714,-0.002165,-0.999936,-0.002953,-0.007240,0.008217,-1.879751,-0.958470,2.002965,-2.635377,-1.579533,-0.314948,-0.105265,0.114183,7.512445,0.438108,0.079820,0.004907
0.014173,0.605712,-0.002165,-0.999936,-0.002950,-0.007239,0.008217,-1.881079,-0.958455,2.002933,-2.635371,-1.579505,-0.316271,-0.104993,0.114279,7.511893,0.437931,0.080376,0.004904
0.014977,0.605710,-0.002165,-0.999936,-0.002948,-0.007242,0.008216,-1.882406,-0.958438,2.002898,-2.635364,-1.579487,-0.317593,-0.104757,0.114275,7.510693,0.437726,0.080925,0.004891
0.015782,0.605706,-0.002165,-0.999936,-0.002946,-0.007251,0.008213,-1.883732,-0.958419,2.002859,-2.635355,-1.579479,-0.318916,-0.104504,0.114290,7.509581,0.437525,0.081475,0.004879
0.016590,0.605702,-0.002165,-0.999936,-0.002945,-0.007263,0.008209,-1.885057,-0.958399,2.002816,-2.635344,-1.579480,-0.320238,-0.104386,0.114289,7.508508,0.437324,0.082019,0.004868
0.017394,0.605690,-0.002176,-0.999936,-0.002941,-0.007270,0.008193,-1.886380,-0.958364,2.002780,-2.635326,-1.579477,-0.321556,-0.103897,0.113688,7.516008,0.437728,0.082697,0.004865
0.018207,0.605685,-0.002175,-0.999936,-0.002943,-0.007293,0.008186,-1.887703,-0.958343,2.002730,-2.635313,-1.579500,-0.322880,-0.103448,0.113021,7.523083,0.438114,0.083366,0.004861
0.019023,0.605682,-0.002171,-0.999935,-0.002943,-0.007322,0.008181,-1.889024,-0.958323,2.002674,-2.635298,-1.579532,-0.324203,-0.107733,0.113588,7.500277,0.436235,0.084128,0.004878
0.019840,0.605677,-0.002169,-0.999935,-0.002944,-0.007353,0.008174,-1.890345,-0.958300,2.002617,-2.635280,-1.579570,-0.325526,-0.109914,0.115251,7.477962,0.434445,0.084397,0.004900
0.020658,0.605670,-0.002168,-0.999935,-0.002945,-0.007387,0.008164,-1.891664,-0.958274,2.002556,-2.635260,-1.579614,-0.326848,-0.108078,0.116173,7.477318,0.434344,0.084431,0.004899
0.021477,0.605663,-0.002168,-0.999935,-0.002947,-0.007423,0.008152,-1.892983,-0.958246,2.002494,-2.635238,-1.579665,-0.328171,-0.106316,0.116681,7.475194,0.434204,0.084451,0.004898
0.022297,0.605654,-0.002168,-0.999935,-0.002949,-0.007463,0.008139,-1.894300,-0.958216,2.002428,-2.635213,-1.579723,-0.329493,-0.106283,0.116630,7.473472,0.434020,0.084784,0.004900
0.023119,0.605645,-0.002168,-0.999934,-0.002952,-0.007506,0.008124,-1.895617,-0.958184,2.002359,-2.635187,-1.579787,-0.330816,-0.106314,0.116566,7.471891,0.433844,0.085115,0.004906
0.023943,0.605635,-0.002169,-0.999934,-0.002955,-0.007552,0.008107,-1.896932,-0.958151,2.002286,-2.635158,-1.579859,-0.332138,-0.104877,0.116983,7.469669,0.433702,0.085117,0.004911
0.024768,0.605624,-0.002170,-0.999934,-0.002959,-0.007601,0.008089,-1.898246,-0.958116,2.002211,-2.635127,-1.579937,-0.333461,-0.103595,0.117367,7.467359,0.433556,0.085111,0.004917
0.025592,0.605611,-0.002174,-0.999934,-0.002958,-0.007649,0.008068,-1.899560,-0.958073,2.002136,-2.635092,-1.580013,-0.334771,-0.100771,0.116355,7.487586,0.435001,0.085470,0.004897
0.026413,0.605594,-0.002182,-0.999934,-0.002968,-0.007693,0.008041,-1.900873,-0.958029,2.002059,-2.635056,-1.580087,-0.336107,-0.098454,0.115351,7.500776,0.435965,0.085833,0.004868
0.027233,0.605589,-0.002179,-0.999933,-0.002968,-0.007729,0.008032,-1.902187,-0.957996,2.001971,-2.635021,-1.580133,-0.337422,-0.097965,0.115680,7.491693,0.435315,0.085933,0.004864
0.028046,0.605585,-0.002176,-0.999933,-0.002969,-0.007753,0.008027,-1.903502,-0.957961,2.001881,-2.634984,-1.580152,-0.338738,-0.097371,0.115835,7.490165,0.435148,0.086136,0.004873
0.028857,0.605581,-0.002175,-0.999933,-0.002969,-0.007772,0.008022,-1.904817,-0.957924,2.001789,-2.634944,-1.580164,-0.340054,-0.097022,0.115902,7.488098,0.434954,0.086324,0.004882
0.029667,0.605576,-0.002174,-0.999933,-0.002969,-0.007790,0.008016,-1.906131,-0.957884,2.001694,-2.634901,-1.580176,-0.341369,-0.096389,0.116066,7.485995,0.434754,0.086522,0.004891
0.030479,0.605570,-0.002174,-0.999933,-0.002969,-0.007810,0.008008,-1.907444,-0.957842,2.001596,-2.634856,-1.580192,-0.342683,-0.098064,0.115453,7.485374,0.434540,0.087206,0.004896
0.031291,0.605564,-0.002174,-0.999933,-0.002970,-0.007833,0.007999,-1.908756,-0.957799,2.001495,-2.634809,-1.580216,-0.343997,-0.099756,0.114843,7.484758,0.434325,0.087889,0.004902
0.032106,0.605556,-0.002174,-0.999933,-0.002971,-0.007859,0.007988,-1.910067,-0.957754,2.001391,-2.634760,-1.580246,-0.345311,-0.103029,0.115324,7.465656,0.432784,0.088353,0.004917
0.032921,0.605548,-0.002175,-0.999933,-0.002973,-0.007888,0.007976,-1.911377,-0.957707,2.001284,-2.634708,-1.580284,-0.346624,-0.106479,0.116005,7.447365,0.431263,0.088816,0.004932
0.033733,0.605542,-0.002175,-0.999933,-0.002970,-0.007910,0.007967,-1.912688,-0.957660,2.001173,-2.634655,-1.580293,-0.347926,-0.107287,0.115827,7.446886,0.431035,0.089342,0.004939
0.034520,0.605535,-0.002186,-0.999933,-0.002966,-0.007881,0.007962,-1.914002,-0.957600,2.001070,-2.634594,-1.580219,-0.349236,-0.107332,0.115031,7.452278,0.431262,0.089992,0.004953
0.035329,0.605531,-0.002185,-0.999933,-0.002968,-0.007895,0.007958,-1.915311,-0.957553,2.000951,-2.634538,-1.580229,-0.350548,-0.106052,0.114750,7.456712,0.431534,0.090314,0.004972
0.036133,0.605531,-0.002181,-0.999933,-0.002961,-0.007898,0.007960,-1.916622,-0.957507,2.000829,-2.634480,-1.580195,-0.351844,-0.105558,0.114890,7.454185,0.431311,0.090504,0.004981
0.036934,0.605530,-0.002179,-0.999933,-0.002962,-0.007897,0.007962,-1.917932,-0.957458,2.000704,-2.634419,-1.580173,-0.353157,-0.104963,0.115173,7.452058,0.431097,0.090701,0.004990
0.037738,0.605528,-0.002177,-0.999933,-0.002956,-0.007900,0.007961,-1.919241,-0.957407,2.000577,-2.634355,-1.580146,-0.354451,-0.104257,0.115493,7.449865,0.430880,0.090901,0.004995
0.038540,0.605526,-0.002177,-0.999933,-0.002958,-0.007901,0.007960,-1.920549,-0.957354,2.000447,-2.634289,-1.580130,-0.355765,-0.103495,0.115816,7.447636,0.430662,0.091103,0.005001
0.039340,0.605524,-0.002177,-0.999933,-0.002950,-0.007897,0.007960,-1.921857,-0.957299,2.000314,-2.634220,-1.580088,-0.357056,-0.102708,0.116126,7.445431,0.430447,0.091308,0.005011
0.040145,0.605520,-0.002177,-0.999933,-0.002952,-0.007903,0.007957,-1.923163,-0.957242,2.000178,-2.634150,-1.580081,-0.358365,-0.103412,0.115816,7.444049,0.430187,0.091833,0.005020
0.040939,0.605514,-0.002184,-0.999933,-0.002941,-0.007887,0.007951,-1.924470,-0.957175,2.000046,-2.634073,-1.580023,-0.359652,-0.102901,0.114601,7.458088,0.431008,0.092634,0.005033
0.041747,0.605506,-0.002188,-0.999933,-0.002947,-0.007902,0.007940,-1.925773,-0.957113,1.999904,-2.633999,-1.580040,-0.360964,-0.102778,0.113807,7.462844,0.431204,0.093293,0.005040
0.042550,0.605506,-0.002184,-0.999933,-0.002940,-0.007903,0.007943,-1.927078,-0.957057,1.999755,-2.633924,-1.580003,-0.362255,-0.105272,0.113452,7.453173,0.430267,0.093998,0.005038
0.043346,0.605508,-0.002181,-0.999933,-0.002940,-0.007890,0.007950,-1.928383,-0.956999,1.999604,-2.633846,-1.579956,-0.363562,-0.105513,0.113434,7.451920,0.429993,0.094539,0.005043
0.044155,0.605503,-0.002179,-0.999933,-0.002937,-0.007906,0.007944,-1.929685,-0.956938,1.999450,-2.633766,-1.579959,-0.364854,-0.105608,0.113346,7.450350,0.429714,0.095085,0.005048
0.044951,0.605503,-0.002178,-0.999933,-0.002933,-0.007893,0.007948,-1.930988,-0.956875,1.999294,-2.633683,-1.579908,-0.366153,-0.105722,0.113252,7.448635,0.429424,0.095631,0.005050
0.045758,0.605499,-0.002178,-0.999933,-0.002930,-0.007903,0.007943,-1.932289,-0.956810,1.999135,-2.633598,-1.579902,-0.367445,-0.105659,0.113233,7.446959,0.429133,0.096185,0.005052
0.046549,0.605492,-0.002187,-0.999933,-0.002923,-0.007884,0.007937,-1.933590,-0.956732,1.998981,-2.633506,-1.579846,-0.368736,-0.104613,0.112482,7.457893,0.429725,0.096965,0.005059
0.047362,0.605484,-0.002189,-0.999933,-0.002926,-0.007907,0.007924,-1.934887,-0.956662,1.998815,-2.633417,-1.579874,-0.370033,-0.103490,0.111621,7.468230,0.430296,0.097744,0.005065
0.048165,0.605484,-0.002185,-0.999933,-0.002921,-0.007909,0.007927,-1.936187,-0.956598,1.998643,-2.633327,-1.579841,-0.371324,-0.104784,0.110965,7.466580,0.429916,0.098610,0.005058
0.048958,0.605487,-0.002182,-0.999933,-0.002916,-0.007889,0.007936,-1.937488,-0.956532,1.998469,-2.633233,-1.579774,-0.372617,-0.104291,0.111237,7.464808,0.429593,0.099182,0.005052
0.049767,0.605482,-0.002181,-0.999933,-0.002916,-0.007905,0.007929,-1.938783,-0.956461,1.998292,-2.633139,-1.579785,-0.373911,-0.105241,0.112920,7.440689,0.427693,0.099396,0.005072
0.050569,0.605479,-0.002180,-0.999933,-0.002912,-0.007905,0.007928,-1.940080,-0.956389,1.998113,-2.633040,-1.579755,-0.375199,-0.107501,0.114347,7.418397,0.425809,0.099821,0.005089
0.051361,0.605477,-0.002183,-0.999933,-0.002903,-0.007886,0.007929,-1.941378,-0.956309,1.997936,-2.632937,-1.579689,-0.376477,-0.104276,0.113973,7.439834,0.427138,0.100609,0.005051
0.052170,0.605464,-0.002191,-0.999933,-0.002913,-0.007902,0.007910,-1.942669,-0.956226,1.997755,-2.632834,-1.579720,-0.377791,-0.100853,0.112939,7.459000,0.428418,0.101387,0.005014
0.052983,0.605460,-0.002188,-0.999933,-0.002909,-0.007926,0.007903,-1.943962,-0.956152,1.997563,-2.632732,-1.579737,-0.379075,-0.101282,0.112316,7.456546,0.428091,0.102054,0.005005
0.053786,0.605459,-0.002185,-0.999933,-0.002906,-0.007929,0.007904,-1.945255,-0.956078,1.997368,-2.632626,-1.579711,-0.380361,-0.101964,0.112028,7.455125,0.427776,0.102719,0.004995
0.054585,0.605458,-0.002183,-0.999933,-0.002902,-0.007922,0.007906,-1.946549,-0.956001,1.997172,-2.632517,-1.579672,-0.381647,-0.102311,0.111898,7.453889,0.427465,0.103396,0.004984
0.055384,0.605457,-0.002182,-0.999933,-0.002898,-0.007915,0.007907,-1.947842,-0.955922,1.996973,-2.632405,-1.579631,-0.382932,-0.102469,0.111821,7.452653,0.427154,0.104080,0.004971
0.056183,0.605455,-0.002182,-0.999933,-0.002895,-0.007910,0.007907,-1.949133,-0.955841,1.996772,-2.632291,-1.579595,-0.384216,-0.102526,0.111765,7.451403,0.426843,0.104768,0.004958
0.056984,0.605452,-0.002182,-0.999933,-0.002892,-0.007907,0.007905,-1.950424,-0.955758,1.996567,-2.632175,-1.579567,-0.385500,-0.102528,0.111719,7.450148,0.426532,0.105457,0.004944
0.057786,0.605448,-0.002182,-0.999933,-0.002889,-0.007909,0.007901,-1.951713,-0.955673,1.996359,-2.632057,-1.579548,-0.386784,-0.101064,0.112231,7.448420,0.426295,0.105829,0.004934
0.058591,0.605444,-0.002183,-0.999933,-0.002887,-0.007916,0.007895,-1.953000,-0.955587,1.996148,-2.631937,-1.579538,-0.388068,-0.100481,0.113010,7.439882,0.425587,0.106068,0.004918
0.059397,0.605438,-0.002183,-0.999933,-0.002885,-0.007926,0.007887,-1.954287,-0.955499,1.995933,-2.631815,-1.579537,-0.389351,-0.101660,0.113138,7.432162,0.424830,0.106619,0.004898
0.060206,0.605431,-0.002184,-0.999933,-0.002884,-0.007940,0.007878,-1.955572,-0.955410,1.995715,-2.631692,-1.579545,-0.390633,-0.102281,0.112802,7.431403,0.424567,0.107292,0.004888
0.061009,0.605417,-0.002195,-0.999933,-0.002882,-0.007946,0.007857,-1.956855,-0.955306,1.995503,-2.631561,-1.579548,-0.391914,-0.102778,0.111961,7.435687,0.424670,0.108066,0.004885
0.061823,0.605411,-0.002193,-0.999933,-0.002882,-0.007972,0.007847,-1.958138,-0.955217,1.995276,-2.631435,-1.579578,-0.393197,-0.103459,0.111055,7.439759,0.424760,0.108829,0.004886
0.062638,0.605404,-0.002191,-0.999933,-0.002883,-0.008002,0.007836,-1.959419,-0.955128,1.995045,-2.631308,-1.579614,-0.394480,-0.104622,0.110522,7.438435,0.424470,0.109471,0.004883
0.063455,0.605396,-0.002189,-0.999933,-0.002883,-0.008033,0.007823,-1.960699,-0.955035,1.994812,-2.631177,-1.579656,-0.395761,-0.105843,0.110037,7.437373,0.424189,0.110112,0.004876
0.064272,0.605387,-0.002188,-0.999933,-0.002884,-0.008066,0.007807,-1.961978,-0.954940,1.994577,-2.631044,-1.579703,-0.397043,-0.105553,0.110149,7.435461,0.423956,0.110431,0.004871
0.065090,0.605377,-0.002189,-0.999933,-0.002885,-0.008099,0.007790,-1.963256,-0.954843,1.994338,-2.630909,-1.579751,-0.398322,-0.106753,0.111012,7.418177,0.422626,0.110537,0.004861
0.065902,0.605368,-0.002189,-0.999933,-0.002884,-0.008123,0.007777,-1.964535,-0.954745,1.994097,-2.630771,-1.579776,-0.399599,-0.108244,0.111927,7.401732,0.421301,0.110713,0.004851
0.066712,0.605361,-0.002190,-0.999933,-0.002884,-0.008140,0.007766,-1.965813,-0.954646,1.993854,-2.630632,-1.579790,-0.400877,-0.106926,0.112536,7.400116,0.421125,0.110853,0.004848
0.067521,0.605354,-0.002190,-0.999933,-0.002883,-0.008155,0.007756,-1.967090,-0.954545,1.993607,-2.630490,-1.579797,-0.402151,-0.107770,0.111988,7.398760,0.420853,0.111431,0.004844
0.068319,0.605352,-0.002190,-0.999933,-0.002878,-0.008148,0.007755,-1.968369,-0.954444,1.993357,-2.630345,-1.579755,-0.403422,-0.108449,0.111536,7.397209,0.420565,0.112010,0.004839
0.069120,0.605348,-0.002191,-0.999933,-0.002877,-0.008147,0.007751,-1.969647,-0.954341,1.993104,-2.630199,-1.579734,-0.404698,-0.108235,0.111507,7.395556,0.420310,0.112469,0.004836
0.069924,0.605343,-0.002191,-0.999933,-0.002874,-0.008151,0.007746,-1.970923,-0.954238,1.992848,-2.630051,-1.579715,-0.405965,-0.108801,0.111162,7.394084,0.420018,0.113051,0.004831
0.070723,0.605340,-0.002192,-0.999933,-0.002873,-0.008147,0.007743,-1.972199,-0.954133,1.992588,-2.629900,-1.579687,-0.407240,-0.110271,0.111599,7.380020,0.418840,0.113410,0.004820
0.071524,0.605336,-0.002192,-0.999933,-0.002868,-0.008146,0.007740,-1.973474,-0.954026,1.992326,-2.629747,-1.579658,-0.408504,-0.111053,0.112497,7.366331,0.417714,0.113648,0.004806
0.072326,0.605332,-0.002193,-0.999933,-0.002866,-0.008147,0.007735,-1.974747,-0.953918,1.992060,-2.629593,-1.579640,-0.409775,-0.109940,0.112956,7.364860,0.417501,0.113933,0.004802
0.073126,0.605329,-0.002193,-0.999933,-0.002862,-0.008143,0.007733,-1.976021,-0.953806,1.991793,-2.629435,-1.579601,-0.411031,-0.117473,0.118632,7.261180,0.410182,0.112319,0.004784
0.073924,0.605316,-0.002205,-0.999933,-0.002871,-0.008139,0.007715,-1.977291,-0.953686,1.991527,-2.629273,-1.579592,-0.412331,-0.124856,0.123976,7.155877,0.402811,0.110693,0.004768
0.074742,0.605308,-0.002202,-0.999933,-0.002871,-0.008173,0.007702,-1.978558,-0.953577,1.991248,-2.629116,-1.579643,-0.413596,-0.123891,0.123846,7.152088,0.402527,0.110947,0.004772
0.075566,0.605297,-0.002200,-0.999933,-0.002873,-0.008220,0.007682,-1.979823,-0.953465,1.990965,-2.628957,-1.579721,-0.414866,-0.126472,0.124725,7.128316,0.400729,0.110973,0.004804
0.076392,0.605284,-0.002199,-0.999932,-0.002875,-0.008273,0.007657,-1.981087,-0.953351,1.990680,-2.628795,-1.579813,-0.416134,-0.129523,0.125773,7.105691,0.398962,0.110991,0.004837
0.077220,0.605269,-0.002199,-0.999932,-0.002878,-0.008329,0.007629,-1.982348,-0.953234,1.990393,-2.628630,-1.579914,-0.417403,-0.129040,0.126244,7.104488,0.398802,0.111106,0.004843
0.078044,0.605255,-0.002200,-0.999932,-0.002877,-0.008376,0.007605,-1.983611,-0.953116,1.990103,-2.628462,-1.579986,-0.418663,-0.129130,0.126014,7.102503,0.398589,0.111374,0.004849
0.078853,0.605248,-0.002200,-0.999932,-0.002875,-0.008392,0.007593,-1.984876,-0.952998,1.989810,-2.628291,-1.579992,-0.419924,-0.129982,0.125443,7.100587,0.398324,0.111791,0.004853
0.079655,0.605243,-0.002200,-0.999932,-0.002872,-0.008393,0.007588,-1.986142,-0.952879,1.989515,-2.628117,-1.579971,-0.421184,-0.130550,0.125049,7.098646,0.398048,0.112215,0.004858
0.080455,0.605239,-0.002200,-0.999932,-0.002869,-0.008389,0.007585,-1.987407,-0.952759,1.989217,-2.627941,-1.579941,-0.422444,-0.130928,0.124766,7.096716,0.397767,0.112643,0.004862
0.081255,0.605235,-0.002201,-0.999932,-0.002867,-0.008386,0.007581,-1.988671,-0.952638,1.988915,-2.627762,-1.579912,-0.423702,-0.131216,0.124534,7.094790,0.397484,0.113074,0.004866
0.082056,0.605231,-0.002201,-0.999932,-0.002864,-0.008385,0.007575,-1.989934,-0.952515,1.988610,-2.627582,-1.579890,-0.424960,-0.131460,0.124327,7.092861,0.397200,0.113507,0.004871
0.082859,0.605225,-0.002202,-0.999932,-0.002862,-0.008388,0.007569,-1.991195,-0.952391,1.988302,-2.627400,-1.579875,-0.426218,-0.131682,0.124132,7.090928,0.396915,0.113939,0.004875
0.083657,0.605214,-0.002213,-0.999932,-0.002857,-0.008383,0.007552,-1.992455,-0.952253,1.988000,-2.627211,-1.579855,-0.427468,-0.131201,0.123324,7.099235,0.397328,0.114609,0.004886
0.084464,0.605206,-0.002213,-0.999932,-0.002858,-0.008395,0.007541,-1.993714,-0.952127,1.987684,-2.627025,-1.579861,-0.428727,-0.130666,0.122446,7.106994,0.397718,0.115273,0.004897
0.085274,0.605201,-0.002210,-0.999932,-0.002857,-0.008413,0.007532,-1.994971,-0.952002,1.987363,-2.626839,-1.579877,-0.429984,-0.131212,0.122562,7.099053,0.397028,0.115585,0.004896
0.086086,0.605194,-0.002208,-0.999932,-0.002857,-0.008434,0.007521,-1.996227,-0.951875,1.987040,-2.626651,-1.579897,-0.431238,-0.131821,0.122796,7.091961,0.396371,0.115905,0.004895
0.086898,0.605186,-0.002208,-0.999932,-0.002857,-0.008456,0.007507,-1.997481,-0.951745,1.986714,-2.626459,-1.579924,-0.432493,-0.132003,0.122639,7.090314,0.396101,0.116343,0.004899
0.087703,0.605180,-0.002208,-0.999932,-0.002851,-0.008465,0.007499,-1.998737,-0.951614,1.986386,-2.626266,-1.579912,-0.433736,-0.132962,0.122017,7.088568,0.395748,0.116975,0.004898
0.088498,0.605179,-0.002208,-0.999932,-0.002849,-0.008450,0.007501,-1.999994,-0.951482,1.986056,-2.626071,-1.579863,-0.434990,-0.133537,0.121595,7.086793,0.395385,0.117620,0.004896
0.089303,0.605172,-0.002208,-0.999932,-0.002848,-0.008459,0.007492,-2.001247,-0.951347,1.985722,-2.625873,-1.579860,-0.436239,-0.133669,0.121390,7.085014,0.395041,0.118208,0.004896
0.090101,0.605170,-0.002209,-0.999932,-0.002843,-0.008450,0.007491,-2.002501,-0.951212,1.985385,-2.625674,-1.579817,-0.437485,-0.133636,0.121270,7.083151,0.394715,0.118730,0.004894
0.090905,0.605164,-0.002209,-0.999932,-0.002842,-0.008455,0.007483,-2.003752,-0.951074,1.985045,-2.625472,-1.579809,-0.438733,-0.133674,0.121128,7.081318,0.394391,0.119250,0.004893
0.091703,0.605161,-0.002210,-0.999932,-0.002837,-0.008448,0.007481,-2.005004,-0.950936,1.984702,-2.625269,-1.579769,-0.439976,-0.133162,0.121239,7.079263,0.394103,0.119638,0.004892
0.092506,0.605155,-0.002210,-0.999932,-0.002836,-0.008453,0.007473,-2.006254,-0.950797,1.984356,-2.625064,-1.579761,-0.441222,-0.132806,0.121288,7.077209,0.393818,0.120020,0.004891
0.093304,0.605153,-0.002211,-0.999932,-0.002830,-0.008445,0.007472,-2.007504,-0.950656,1.984006,-2.624856,-1.579719,-0.442461,-0.133219,0.121004,7.075330,0.393497,0.120525,0.004885
0.094107,0.605147,-0.002212,-0.999932,-0.002831,-0.008448,0.007465,-2.008751,-0.950514,1.983653,-2.624647,-1.579711,-0.443708,-0.132923,0.121035,7.073286,0.393213,0.120904,0.004880
0.094908,0.605143,-0.002212,-0.999933,-0.002825,-0.008448,0.007459,-2.009999,-0.950370,1.983298,-2.624436,-1.579684,-0.444945,-0.133638,0.120563,7.071574,0.392872,0.121471,0.004878
0.095706,0.605140,-0.002213,-0.999933,-0.002823,-0.008440,0.007458,-2.011246,-0.950226,1.982938,-2.624223,-1.579651,-0.446189,-0.134082,0.120268,7.069687,0.392552,0.121972,0.004879
0.096509,0.605134,-0.002213,-0.999933,-0.002819,-0.008444,0.007451,-2.012491,-0.950080,1.982576,-2.624008,-1.579633,-0.447422,-0.133927,0.120245,7.067571,0.392268,0.122343,0.004882
0.097307,0.605132,-0.002214,-0.999933,-0.002815,-0.008436,0.007449,-2.013736,-0.949933,1.982211,-2.623790,-1.579597,-0.448662,-0.126812,0.114126,7.167759,0.399029,0.124910,0.004896
0.098108,0.605127,-0.002214,-0.999933,-0.002811,-0.008435,0.007444,-2.014979,-0.949784,1.981842,-2.623571,-1.579572,-0.449894,-0.119840,0.108390,7.269354,0.405824,0.127484,0.004906
0.098909,0.605122,-0.002215,-0.999933,-0.002809,-0.008436,0.007438,-2.016221,-0.949634,1.981470,-2.623350,-1.579555,-0.451133,-0.120484,0.108378,7.269094,0.405520,0.128062,0.004898
0.099711,0.605118,-0.002216,-0.999933,-0.002805,-0.008436,0.007432,-2.017462,-0.949483,1.981094,-2.623126,-1.579533,-0.452366,-0.121035,0.107915,7.267619,0.405144,0.128777,0.004889
0.100505,0.605107,-0.002227,-0.999933,-0.002800,-0.008424,0.007418,-2.018702,-0.949318,1.980725,-2.622896,-1.579501,-0.453598,-0.120812,0.107042,7.274329,0.405318,0.129707,0.004890
0.101311,0.605101,-0.002226,-0.999933,-0.002799,-0.008434,0.007409,-2.019940,-0.949166,1.980342,-2.622670,-1.579502,-0.454831,-0.120492,0.106187,7.280640,0.405469,0.130633,0.004889
0.102118,0.605097,-0.002223,-0.999933,-0.002797,-0.008444,0.007404,-2.021177,-0.949015,1.979954,-2.622443,-1.579499,-0.456065,-0.120037,0.106238,7.278329,0.405089,0.131191,0.004879
0.102924,0.605092,-0.002221,-0.999933,-0.002795,-0.008454,0.007397,-2.022413,-0.948861,1.979563,-2.622213,-1.579496,-0.457297,-0.119175,0.106592,7.276254,0.404771,0.131591,0.004871
0.103730,0.605086,-0.002221,-0.999933,-0.002793,-0.008464,0.007388,-2.023648,-0.948705,1.979171,-2.621980,-1.579498,-0.458528,-0.118732,0.106730,7.274229,0.404467,0.131978,0.004863
0.104538,0.605079,-0.002221,-0.999933,-0.002792,-0.008477,0.007377,-2.024881,-0.948546,1.978775,-2.621745,-1.579507,-0.459759,-0.118540,0.106729,7.272171,0.404170,0.132357,0.004856
0.105342,0.605073,-0.002221,-0.999933,-0.002788,-0.008484,0.007368,-2.026115,-0.948387,1.978377,-2.621508,-1.579498,-0.460984,-0.118826,0.106477,7.270215,0.403845,0.132819,0.004848
0.106140,0.605070,-0.002221,-0.999933,-0.002784,-0.008476,0.007366,-2.027349,-0.948226,1.977976,-2.621267,-1.579458,-0.462209,-0.119340,0.106105,7.268370,0.403487,0.133372,0.004839
0.106940,0.605065,-0.002222,-0.999933,-0.002783,-0.008475,0.007361,-2.028580,-0.948063,1.977572,-2.621025,-1.579438,-0.463439,-0.119660,0.105823,7.266597,0.403132,0.133933,0.004830
0.107742,0.605060,-0.002223,-0.999933,-0.002779,-0.008476,0.007354,-2.029811,-0.947900,1.977165,-2.620781,-1.579418,-0.464662,-0.120682,0.106151,7.254571,0.402078,0.134256,0.004814
0.108541,0.605056,-0.002223,-0.999933,-0.002776,-0.008471,0.007350,-2.031041,-0.947735,1.976754,-2.620535,-1.579389,-0.465885,-0.121687,0.106589,7.243006,0.401040,0.134583,0.004796
0.109341,0.605052,-0.002224,-0.999933,-0.002772,-0.008467,0.007346,-2.032270,-0.947569,1.976341,-2.620286,-1.579359,-0.467107,-0.121793,0.106459,7.241696,0.400705,0.135156,0.004785
0.110136,0.605041,-0.002235,-0.999934,-0.002768,-0.008458,0.007329,-2.033497,-0.947388,1.975933,-2.620031,-1.579336,-0.468328,-0.120779,0.105992,7.247868,0.400931,0.135845,0.004781
0.110945,0.605033,-0.002235,-0.999933,-0.002768,-0.008473,0.007317,-2.034722,-0.947221,1.975511,-2.619781,-1.579350,-0.469549,-0.119872,0.105434,7.253571,0.401135,0.136523,0.004778
0.111753,0.605028,-0.002232,-0.999933,-0.002766,-0.008488,0.007308,-2.035946,-0.947054,1.975084,-2.619529,-1.579357,-0.470771,-0.119230,0.105574,7.250997,0.400821,0.136879,0.004769
0.112570,0.605017,-0.002231,-0.999933,-0.002771,-0.008520,0.007289,-2.037167,-0.946883,1.974655,-2.619275,-1.579418,-0.472003,-0.118352,0.105970,7.248721,0.400584,0.137072,0.004765
0.113389,0.605003,-0.002230,-0.999933,-0.002767,-0.008559,0.007265,-2.038386,-0.946711,1.974224,-2.619019,-1.579474,-0.473213,-0.118223,0.105962,7.246463,0.400329,0.137323,0.004760
0.114194,0.604997,-0.002230,-0.999933,-0.002764,-0.008565,0.007256,-2.039608,-0.946537,1.973790,-2.618758,-1.579464,-0.474430,-0.118940,0.105492,7.244498,0.399995,0.137803,0.004752
0.114992,0.604994,-0.002230,-0.999933,-0.002760,-0.008559,0.007252,-2.040830,-0.946363,1.973354,-2.618495,-1.579429,-0.475644,-0.119242,0.105234,7.242534,0.399654,0.138297,0.004743
0.115789,0.604991,-0.002231,-0.999933,-0.002757,-0.008548,0.007250,-2.042052,-0.946188,1.972914,-2.618229,-1.579387,-0.476858,-0.119355,0.105063,7.240572,0.399312,0.138797,0.004735
0.116585,0.604988,-0.002231,-0.999933,-0.002753,-0.008539,0.007248,-2.043272,-0.946010,1.972472,-2.617961,-1.579348,-0.478071,-0.119437,0.104902,7.238610,0.398969,0.139299,0.004727
0.117384,0.604984,-0.002232,-0.999934,-0.002750,-0.008532,0.007244,-2.044490,-0.945832,1.972026,-2.617691,-1.579316,-0.479283,-0.119582,0.104701,7.236682,0.398631,0.139800,0.004723
0.118183,0.604979,-0.002233,-0.999934,-0.002747,-0.008529,0.007238,-2.045708,-0.945652,1.971578,-2.617419,-1.579291,-0.480494,-0.119808,0.104462,7.234714,0.398291,0.140299,0.004718
0.118983,0.604972,-0.002237,-0.999934,-0.002741,-0.008526,0.007228,-2.046923,-0.945464,1.971130,-2.617143,-1.579267,-0.481693,-0.117453,0.103529,7.254343,0.399469,0.141201,0.004686
0.119781,0.604961,-0.002246,-0.999934,-0.002744,-0.008522,0.007211,-2.048137,-0.945274,1.970679,-2.616866,-1.579254,-0.482918,-0.115897,0.101858,7.273140,0.400558,0.142284,0.004653
0.120588,0.604955,-0.002243,-0.999934,-0.002742,-0.008534,0.007203,-2.049350,-0.945094,1.970217,-2.616591,-1.579260,-0.484125,-0.116060,0.101344,7.269892,0.400178,0.142767,0.004645
0.121397,0.604949,-0.002241,-0.999934,-0.002740,-0.008549,0.007192,-2.050561,-0.944911,1.969753,-2.616313,-1.579271,-0.485333,-0.116564,0.101037,7.267948,0.399836,0.143255,0.004639
0.122206,0.604941,-0.002240,-0.999934,-0.002739,-0.008565,0.007178,-2.051771,-0.944726,1.969286,-2.616033,-1.579289,-0.486540,-0.117205,0.100662,7.266137,0.399504,0.143740,0.004633
0.123016,0.604931,-0.002240,-0.999934,-0.002738,-0.008584,0.007162,-2.052979,-0.944538,1.968817,-2.615750,-1.579313,-0.487747,-0.116963,0.100700,7.263916,0.399232,0.144035,0.004630
0.123827,0.604921,-0.002240,-0.999934,-0.002738,-0.008606,0.007144,-2.054185,-0.944348,1.968345,-2.615466,-1.579344,-0.488953,-0.116796,0.100676,7.261650,0.398963,0.144327,0.004628
0.124640,0.604909,-0.002241,-0.999934,-0.002738,-0.008630,0.007123,-2.055391,-0.944157,1.967870,-2.615180,-1.579382,-0.490159,-0.117208,0.101127,7.250989,0.398131,0.144408,0.004616
0.125454,0.604896,-0.002242,-0.999934,-0.002738,-0.008657,0.007101,-2.056594,-0.943964,1.967392,-2.614891,-1.579427,-0.491364,-0.117652,0.101614,7.240736,0.397319,0.144493,0.004604
0.126265,0.604885,-0.002243,-0.999934,-0.002736,-0.008679,0.007082,-2.057798,-0.943770,1.966911,-2.614601,-1.579454,-0.492563,-0.117972,0.101295,7.238996,0.397037,0.144892,0.004602
0.127067,0.604879,-0.002244,-0.999934,-0.002733,-0.008682,0.007072,-2.059003,-0.943575,1.966427,-2.614308,-1.579440,-0.493761,-0.118555,0.100722,7.236917,0.396696,0.145393,0.004598
0.127866,0.604875,-0.002245,-0.999934,-0.002730,-0.008676,0.007067,-2.060207,-0.943376,1.965943,-2.614012,-1.579405,-0.494950,-0.125711,0.105954,7.134397,0.389709,0.143095,0.004584
0.128656,0.604865,-0.002257,-0.999934,-0.002734,-0.008657,0.007055,-2.061410,-0.943170,1.965460,-2.613712,-1.579363,-0.496173,-0.132436,0.111019,7.030419,0.382676,0.140792,0.004569
0.129457,0.604862,-0.002254,-0.999934,-0.002730,-0.008655,0.007052,-2.062612,-0.942976,1.964964,-2.613415,-1.579338,-0.497362,-0.131920,0.110712,7.026594,0.382293,0.141204,0.004565
0.130259,0.604859,-0.002252,-0.999934,-0.002726,-0.008656,0.007049,-2.063813,-0.942781,1.964465,-2.613116,-1.579319,-0.498557,-0.131517,0.110838,7.024182,0.381981,0.141530,0.004562
0.131062,0.604854,-0.002250,-0.999934,-0.002723,-0.008659,0.007042,-2.065012,-0.942582,1.963964,-2.612815,-1.579306,-0.499749,-0.131324,0.110876,7.021882,0.381676,0.141852,0.004559
0.131866,0.604848,-0.002250,-0.999934,-0.002720,-0.008664,0.007033,-2.066210,-0.942381,1.963461,-2.612511,-1.579300,-0.500940,-0.131093,0.110902,7.019564,0.381374,0.142176,0.004556
0.132672,0.604840,-0.002251,-0.999934,-0.002719,-0.008675,0.007019,-2.067405,-0.942178,1.962954,-2.612205,-1.579313,-0.502135,-0.130473,0.111125,7.017082,0.381114,0.142399,0.004556
0.133490,0.604825,-0.002252,-0.999934,-0.002721,-0.008710,0.006992,-2.068596,-0.941971,1.962444,-2.611897,-1.579381,-0.503331,-0.129728,0.111414,7.014387,0.380898,0.142511,0.004559
0.134315,0.604805,-0.002253,-0.999934,-0.002724,-0.008763,0.006955,-2.069785,-0.941762,1.961931,-2.611589,-1.579486,-0.504528,-0.130349,0.111738,7.003618,0.380110,0.142490,0.004556
0.135144,0.604784,-0.002255,-0.999933,-0.002728,-0.008822,0.006914,-2.070971,-0.941552,1.961414,-2.611278,-1.579604,-0.505722,-0.131246,0.111955,6.993305,0.379335,0.142494,0.004554
0.135967,0.604766,-0.002257,-0.999933,-0.002726,-0.008868,0.006881,-2.072159,-0.941342,1.960895,-2.610966,-1.579682,-0.506905,-0.132839,0.110870,6.991636,0.378996,0.142997,0.004556
0.136757,0.604766,-0.002257,-0.999933,-0.002717,-0.008846,0.006885,-2.073354,-0.941134,1.960374,-2.610650,-1.579603,-0.508081,-0.135197,0.109279,6.990020,0.378512,0.143840,0.004550
0.137540,0.604760,-0.002268,-0.999934,-0.002715,-0.008810,0.006882,-2.074546,-0.940911,1.959859,-2.610327,-1.579531,-0.509272,-0.134007,0.109120,6.994269,0.378600,0.144470,0.004553
0.138354,0.604749,-0.002268,-0.999934,-0.002718,-0.008837,0.006861,-2.075732,-0.940700,1.959329,-2.610009,-1.579577,-0.510462,-0.132096,0.109294,6.998149,0.378770,0.144866,0.004563
0.139158,0.604744,-0.002265,-0.999934,-0.002710,-0.008843,0.006854,-2.076920,-0.940491,1.958795,-2.609689,-1.579557,-0.511633,-0.132324,0.108953,6.995822,0.378456,0.145225,0.004560
0.139950,0.604746,-0.002263,-0.999934,-0.002707,-0.008821,0.006861,-2.078110,-0.940280,1.958260,-2.609365,-1.579493,-0.512818,-0.131621,0.109310,6.992962,0.378171,0.145410,0.004556
0.140755,0.604739,-0.002263,-0.999934,-0.002707,-0.008829,0.006850,-2.079294,-0.940065,1.957722,-2.609040,-1.579498,-0.514001,-0.130856,0.109680,6.990203,0.377894,0.145599,0.004557
0.141559,0.604732,-0.002263,-0.999934,-0.002703,-0.008835,0.006838,-2.080478,-0.939848,1.957180,-2.608712,-1.579489,-0.515176,-0.131881,0.108951,6.988214,0.377515,0.146108,0.004556
0.142355,0.604728,-0.002263,-0.999934,-0.002700,-0.008826,0.006835,-2.081662,-0.939630,1.956637,-2.608381,-1.579454,-0.516356,-0.132773,0.108293,6.986091,0.377126,0.146618,0.004555
0.143156,0.604723,-0.002264,-0.999934,-0.002698,-0.008824,0.006827,-2.082845,-0.939411,1.956090,-2.608048,-1.579435,-0.517532,-0.134401,0.109321,6.961830,0.375345,0.146387,0.004581
0.143956,0.604717,-0.002265,-0.999934,-0.002694,-0.008823,0.006819,-2.084026,-0.939190,1.955540,-2.607713,-1.579417,-0.518705,-0.136249,0.110563,6.938783,0.373600,0.146165,0.004605
0.144756,0.604711,-0.002266,-0.999934,-0.002691,-0.008820,0.006811,-2.085206,-0.938968,1.954987,-2.607377,-1.579395,-0.519879,-0.136313,0.110686,6.937745,0.373320,0.146544,0.004600
0.145555,0.604706,-0.002267,-0.999934,-0.002688,-0.008815,0.006804,-2.086385,-0.938744,1.954431,-2.607038,-1.579371,-0.521052,-0.136025,0.110609,6.935431,0.373004,0.146919,0.004597
0.146354,0.604701,-0.002268,-0.999934,-0.002684,-0.008812,0.006797,-2.087562,-0.938519,1.953872,-2.606698,-1.579347,-0.522221,-0.136489,0.110073,6.933247,0.372616,0.147448,0.004596
0.147154,0.604695,-0.002269,-0.999935,-0.002681,-0.008809,0.006790,-2.088739,-0.938293,1.953310,-2.606356,-1.579325,-0.523392,-0.137676,0.109134,6.931369,0.372160,0.148135,0.004597
0.147953,0.604690,-0.002269,-0.999935,-0.002678,-0.008805,0.006783,-2.089914,-0.938066,1.952744,-2.606012,-1.579300,-0.524560,-0.138779,0.108270,6.929510,0.371700,0.148826,0.004594
0.148752,0.604685,-0.002270,-0.999935,-0.002674,-0.008801,0.006776,-2.091089,-0.937837,1.952176,-2.605666,-1.579276,-0.525728,-0.138997,0.107961,6.927354,0.371297,0.149364,0.004586
0.149551,0.604680,-0.002271,-0.999935,-0.002671,-0.008797,0.006769,-2.092262,-0.937607,1.951604,-2.605318,-1.579252,-0.526892,-0.139119,0.107715,6.925212,0.370891,0.149907,0.004576
0.150350,0.604675,-0.002272,-0.999935,-0.002667,-0.008793,0.006762,-2.093434,-0.937375,1.951029,-2.604969,-1.579228,-0.528058,-0.139497,0.107296,6.923206,0.370458,0.150509,0.004567
0.151150,0.604669,-0.002273,-0.999935,-0.002664,-0.008790,0.006755,-2.094604,-0.937143,1.950451,-2.604617,-1.579205,-0.529222,-0.139540,0.107071,6.921060,0.370067,0.151008,0.004560
0.151949,0.604664,-0.002274,-0.999935,-0.002661,-0.008785,0.006748,-2.095774,-0.936909,1.949870,-2.604264,-1.579181,-0.530384,-0.132238,0.101549,7.019019,0.376378,0.154146,0.004562
0.152748,0.604659,-0.002275,-0.999935,-0.002657,-0.008781,0.006741,-2.096942,-0.936674,1.949286,-2.603909,-1.579158,-0.531545,-0.124596,0.096699,7.118160,0.382795,0.157132,0.004564
0.153547,0.604654,-0.002276,-0.999935,-0.002652,-0.008778,0.006734,-2.098109,-0.936437,1.948699,-2.603552,-1.579135,-0.532703,-0.123843,0.097416,7.117042,0.382591,0.157315,0.004558
0.154346,0.604649,-0.002277,-0.999935,-0.002648,-0.008774,0.006727,-2.099275,-0.936200,1.948109,-2.603193,-1.579112,-0.533860,-0.122761,0.097825,7.114378,0.382349,0.157491,0.004553
0.155145,0.604643,-0.002278,-0.999935,-0.002644,-0.008770,0.006720,-2.100440,-0.935961,1.947515,-2.602832,-1.579088,-0.535015,-0.121602,0.098276,7.111486,0.382092,0.157664,0.004545
0.155945,0.604638,-0.002279,-0.999936,-0.002640,-0.008768,0.006712,-2.101603,-0.935720,1.946919,-2.602469,-1.579068,-0.536171,-0.121264,0.098258,7.108956,0.381758,0.158022,0.004535
0.156745,0.604632,-0.002280,-0.999936,-0.002638,-0.008765,0.006704,-2.102765,-0.935479,1.946319,-2.602104,-1.579049,-0.537330,-0.122200,0.097494,7.107069,0.381317,0.158666,0.004526
0.157543,0.604627,-0.002281,-0.999936,-0.002633,-0.008759,0.006698,-2.103927,-0.935236,1.945716,-2.601738,-1.579020,-0.538481,-0.123261,0.096678,7.105341,0.380842,0.159397,0.004513
0.158340,0.604613,-0.002293,-0.999936,-0.002634,-0.008755,0.006676,-2.105085,-0.934979,1.945119,-2.601365,-1.579018,-0.539642,-0.123683,0.095837,7.107860,0.380630,0.160272,0.004503
0.159148,0.604605,-0.002291,-0.999936,-0.002631,-0.008770,0.006662,-2.106242,-0.934736,1.944507,-2.600997,-1.579030,-0.540791,-0.123970,0.095079,7.110189,0.380404,0.161144,0.004492
0.159951,0.604601,-0.002289,-0.999936,-0.002627,-0.008771,0.006657,-2.107400,-0.934494,1.943892,-2.600626,-1.579012,-0.541941,-0.122739,0.095665,7.107673,0.380046,0.161508,0.004480
0.160750,0.604598,-0.002287,-0.999936,-0.002623,-0.008767,0.006653,-2.108556,-0.934248,1.943275,-2.600252,-1.578985,-0.543089,-0.121137,0.096503,7.105071,0.379768,0.161694,0.004473
0.161548,0.604594,-0.002287,-0.999936,-0.002619,-0.008761,0.006648,-2.109712,-0.934000,1.942655,-2.599876,-1.578959,-0.544238,-0.121948,0.096554,7.096308,0.378964,0.161952,0.004454
0.162356,0.604584,-0.002288,-0.999936,-0.002622,-0.008776,0.006630,-2.110863,-0.933749,1.942033,-2.599499,-1.578989,-0.545396,-0.121827,0.097212,7.087233,0.378230,0.162029,0.004436
0.163182,0.604562,-0.002290,-0.999936,-0.002627,-0.008830,0.006588,-2.112008,-0.933494,1.941407,-2.599122,-1.579107,-0.546552,-0.120238,0.098010,7.084289,0.378037,0.162039,0.004438
0.164016,0.604535,-0.002292,-0.999936,-0.002632,-0.008901,0.006536,-2.113151,-0.933237,1.940777,-2.598743,-1.579261,-0.547707,-0.120515,0.097550,7.081921,0.377824,0.162221,0.004443
0.164846,0.604511,-0.002293,-0.999935,-0.002633,-0.008963,0.006490,-2.114294,-0.932980,1.940144,-2.598362,-1.579383,-0.548851,-0.121974,0.096392,7.079723,0.377533,0.162567,0.004442
0.165659,0.604497,-0.002294,-0.999935,-0.002632,-0.008989,0.006464,-2.115439,-0.932723,1.939509,-2.597977,-1.579425,-0.549996,-0.122185,0.096009,7.077073,0.377265,0.162780,0.004441
0.166464,0.604488,-0.002295,-0.999935,-0.002630,-0.008997,0.006449,-2.116586,-0.932466,1.938872,-2.597589,-1.579428,-0.551139,-0.122026,0.095883,7.074510,0.376991,0.163004,0.004441
0.167265,0.604481,-0.002296,-0.999935,-0.002629,-0.008999,0.006438,-2.117732,-0.932208,1.938231,-2.597198,-1.579419,-0.552282,-0.122453,0.095428,7.072137,0.376645,0.163383,0.004438
0.168066,0.604474,-0.002297,-0.999935,-0.002627,-0.008999,0.006427,-2.118877,-0.931949,1.937588,-2.596806,-1.579408,-0.553423,-0.122731,0.095067,7.069769,0.376296,0.163767,0.004438
0.168868,0.604466,-0.002298,-0.999935,-0.002625,-0.009001,0.006415,-2.120021,-0.931688,1.936941,-2.596411,-1.579401,-0.554563,-0.123058,0.094679,7.067420,0.375949,0.164149,0.004441
0.169663,0.604453,-0.002310,-0.999936,-0.002622,-0.008992,0.006394,-2.121163,-0.931413,1.936301,-2.596011,-1.579386,-0.555700,-0.122973,0.093919,7.071557,0.376021,0.164733,0.004448
0.170469,0.604444,-0.002310,-0.999936,-0.002622,-0.009002,0.006380,-2.122303,-0.931152,1.935646,-2.595614,-1.579396,-0.556839,-0.122121,0.093590,7.075079,0.376141,0.165153,0.004451
0.171277,0.604436,-0.002307,-0.999936,-0.002621,-0.009016,0.006365,-2.123442,-0.930891,1.934987,-2.595216,-1.579413,-0.557977,-0.121088,0.094049,7.071834,0.375904,0.165207,0.004448
0.172085,0.604427,-0.002306,-0.999936,-0.002621,-0.009031,0.006348,-2.124580,-0.930627,1.934326,-2.594815,-1.579433,-0.559113,-0.120185,0.094503,7.068965,0.375683,0.165261,0.004448
0.172894,0.604416,-0.002306,-0.999936,-0.002620,-0.009048,0.006329,-2.125716,-0.930360,1.933662,-2.594412,-1.579460,-0.560248,-0.120134,0.094403,7.066415,0.375408,0.165471,0.004454
0.173704,0.604404,-0.002307,-0.999936,-0.002620,-0.009066,0.006307,-2.126850,-0.930092,1.932996,-2.594007,-1.579492,-0.561382,-0.120154,0.094230,7.063827,0.375137,0.165677,0.004460
0.174515,0.604390,-0.002308,-0.999936,-0.002620,-0.009087,0.006283,-2.127982,-0.929821,1.932327,-2.593601,-1.579530,-0.562516,-0.119482,0.094460,7.060924,0.374933,0.165721,0.004467
0.175326,0.604376,-0.002309,-0.999936,-0.002621,-0.009111,0.006257,-2.129114,-0.929549,1.931655,-2.593192,-1.579574,-0.563649,-0.118924,0.094610,7.057989,0.374733,0.165760,0.004476
0.176139,0.604361,-0.002311,-0.999935,-0.002622,-0.009136,0.006230,-2.130243,-0.929275,1.930980,-2.592782,-1.579625,-0.564781,-0.119222,0.094229,7.055340,0.374472,0.165952,0.004486
0.176953,0.604346,-0.002312,-0.999935,-0.002623,-0.009164,0.006201,-2.131371,-0.929000,1.930302,-2.592370,-1.579681,-0.565912,-0.120342,0.093341,7.052971,0.374149,0.166299,0.004498
0.177760,0.604325,-0.002325,-0.999935,-0.002622,-0.009182,0.006164,-2.132498,-0.928711,1.929630,-2.591952,-1.579727,-0.567039,-0.120995,0.092118,7.057044,0.374242,0.166847,0.004514
0.178578,0.604308,-0.002324,-0.999935,-0.002626,-0.009217,0.006133,-2.133623,-0.928436,1.928944,-2.591538,-1.579799,-0.568169,-0.121705,0.090823,7.060778,0.374322,0.167384,0.004532
0.179397,0.604292,-0.002323,-0.999935,-0.002628,-0.009256,0.006102,-2.134746,-0.928161,1.928253,-2.591121,-1.579875,-0.569299,-0.123066,0.089796,7.058074,0.373987,0.167709,0.004547
0.180216,0.604275,-0.002322,-0.999935,-0.002630,-0.009295,0.006069,-2.135869,-0.927882,1.927561,-2.590703,-1.579953,-0.570426,-0.123697,0.089292,7.055369,0.373739,0.167852,0.004565
0.181008,0.604275,-0.002322,-0.999935,-0.002618,-0.009274,0.006074,-2.136998,-0.927605,1.926869,-2.590287,-1.579873,-0.571529,-0.123212,0.089439,7.052450,0.373573,0.167824,0.004581
0.181805,0.604272,-0.002322,-0.999935,-0.002620,-0.009265,0.006071,-2.138123,-0.927324,1.926174,-2.589867,-1.579850,-0.572658,-0.122307,0.089866,7.049522,0.373386,0.167833,0.004596
0.182616,0.604259,-0.002323,-0.999935,-0.002622,-0.009287,0.006047,-2.139243,-0.927041,1.925474,-2.589444,-1.579889,-0.573779,-0.126091,0.087513,7.042696,0.372387,0.168537,0.004616
0.183405,0.604260,-0.002324,-0.999935,-0.002615,-0.009262,0.006054,-2.140368,-0.926758,1.924774,-2.589022,-1.579811,-0.574894,-0.129692,0.085227,7.036136,0.371416,0.169233,0.004635
0.184207,0.604253,-0.002324,-0.999935,-0.002616,-0.009266,0.006042,-2.141487,-0.926472,1.924069,-2.588596,-1.579818,-0.576015,-0.128391,0.085837,7.033215,0.371243,0.169235,0.004650
0.185005,0.604248,-0.002325,-0.999936,-0.002605,-0.009260,0.006036,-2.142608,-0.926186,1.923362,-2.588169,-1.579779,-0.577113,-0.127283,0.086277,7.030330,0.371081,0.169234,0.004663
0.185804,0.604243,-0.002326,-0.999936,-0.002608,-0.009255,0.006030,-2.143726,-0.925898,1.922651,-2.587741,-1.579765,-0.578236,-0.126555,0.086521,7.027619,0.370884,0.169315,0.004676
0.186605,0.604236,-0.002327,-0.999936,-0.002598,-0.009255,0.006020,-2.144843,-0.925609,1.921938,-2.587310,-1.579743,-0.579332,-0.126514,0.086368,7.025336,0.370611,0.169585,0.004683
0.187404,0.604231,-0.002328,-0.999936,-0.002601,-0.009252,0.006013,-2.145958,-0.925319,1.921221,-2.586878,-1.579735,-0.580456,-0.126299,0.086352,7.023089,0.370288,0.169942,0.004684
0.188202,0.604226,-0.002329,-0.999936,-0.002593,-0.009247,0.006006,-2.147073,-0.925027,1.920502,-2.586444,-1.579705,-0.581553,-0.125496,0.086746,7.020466,0.369940,0.170281,0.004687
0.189003,0.604220,-0.002330,-0.999936,-0.002589,-0.009247,0.005997,-2.148186,-0.924734,1.919779,-2.586008,-1.579689,-0.582656,-0.123544,0.087850,7.017845,0.369678,0.170459,0.004679
0.189802,0.604214,-0.002331,-0.999936,-0.002588,-0.009244,0.005989,-2.149298,-0.924440,1.919053,-2.585570,-1.579671,-0.583765,-0.120680,0.089546,7.015022,0.369494,0.170464,0.004653
0.190600,0.604210,-0.002332,-0.999936,-0.002586,-0.009239,0.005983,-2.150409,-0.924144,1.918325,-2.585131,-1.579650,-0.584873,-0.118295,0.090960,7.011963,0.369305,0.170450,0.004632
0.191399,0.604205,-0.002333,-0.999936,-0.002583,-0.009235,0.005977,-2.151518,-0.923847,1.917593,-2.584690,-1.579631,-0.585978,-0.116395,0.092085,7.008693,0.369113,0.170415,0.004630
0.192199,0.604199,-0.002334,-0.999936,-0.002580,-0.009233,0.005969,-2.152626,-0.923550,1.916858,-2.584247,-1.579609,-0.587075,-0.119161,0.089965,7.006041,0.368407,0.171200,0.004642
0.192996,0.604195,-0.002335,-0.999936,-0.002577,-0.009225,0.005964,-2.153733,-0.923250,1.916120,-2.583803,-1.579580,-0.588181,-0.121835,0.087919,7.003355,0.367697,0.171988,0.004649
0.193796,0.604189,-0.002336,-0.999936,-0.002574,-0.009224,0.005956,-2.154839,-0.922950,1.915378,-2.583356,-1.579567,-0.589278,-0.121504,0.088610,6.994118,0.366987,0.171957,0.004643
0.194594,0.604185,-0.002337,-0.999937,-0.002570,-0.009218,0.005950,-2.155943,-0.922648,1.914634,-2.582908,-1.579539,-0.590374,-0.122201,0.088579,6.985835,0.366197,0.172146,0.004629
0.195393,0.604180,-0.002338,-0.999937,-0.002569,-0.009214,0.005943,-2.157046,-0.922345,1.913887,-2.582458,-1.579522,-0.591476,-0.122297,0.088228,6.984159,0.365837,0.172550,0.004624
0.196191,0.604175,-0.002338,-0.999937,-0.002563,-0.009209,0.005937,-2.158149,-0.922040,1.913137,-2.582006,-1.579493,-0.592563,-0.122303,0.087866,6.982045,0.365457,0.172948,0.004617
0.196989,0.604170,-0.002339,-0.999937,-0.002561,-0.009205,0.005931,-2.159249,-0.921735,1.912384,-2.581552,-1.579475,-0.593663,-0.121211,0.088385,6.979098,0.365150,0.173129,0.004602
0.197788,0.604165,-0.002340,-0.999937,-0.002556,-0.009200,0.005924,-2.160348,-0.921428,1.911627,-2.581096,-1.579452,-0.594751,-0.119108,0.089687,6.975650,0.364939,0.173100,0.004594
0.198586,0.604160,-0.002341,-0.999937,-0.002550,-0.009195,0.005918,-2.161447,-0.921119,1.910868,-2.580638,-1.579427,-0.595837,-0.117001,0.090999,6.972341,0.364734,0.173076,0.004581
0.199385,0.604155,-0.002342,-0.999937,-0.002548,-0.009192,0.005910,-2.162543,-0.920810,1.910106,-2.580178,-1.579411,-0.596929,-0.115783,0.091667,6.969472,0.364420,0.173263,0.004569
0.200183,0.604150,-0.002343,-0.999937,-0.002543,-0.009186,0.005904,-2.163639,-0.920499,1.909340,-2.579717,-1.579386,-0.598016,-0.114534,0.092375,6.966561,0.364099,0.173451,0.004559
0.200982,0.604145,-0.002344,-0.999937,-0.002539,-0.009183,0.005897,-2.164733,-0.920187,1.908572,-2.579254,-1.579364,-0.599100,-0.113193,0.093141,6.963797,0.363785,0.173648,0.004539
0.201781,0.604140,-0.002345,-0.999937,-0.002538,-0.009179,0.005890,-2.165826,-0.919874,1.907800,-2.578789,-1.579343,-0.600190,-0.116538,0.091189,6.955796,0.362571,0.174494,0.004526
0.202579,0.604135,-0.002346,-0.999937,-0.002536,-0.009174,0.005883,-2.166918,-0.919559,1.907025,-2.578322,-1.579324,-0.601280,-0.119843,0.089290,6.948168,0.361374,0.175351,0.004525
0.203378,0.604129,-0.002347,-0.999937,-0.002533,-0.009171,0.005875,-2.168008,-0.919243,1.906248,-2.577853,-1.579307,-0.602361,-0.122667,0.086974,6.947305,0.360617,0.176426,0.004530
0.204177,0.604124,-0.002348,-0.999938,-0.002531,-0.009166,0.005868,-2.169097,-0.918925,1.905467,-2.577382,-1.579283,-0.603447,-0.128764,0.082230,6.946720,0.359462,0.178134,0.004539
0.204973,0.604121,-0.002349,-0.999938,-0.002525,-0.009157,0.005864,-2.170186,-0.918607,1.904683,-2.576909,-1.579249,-0.604525,-0.130613,0.080656,6.944570,0.358762,0.178980,0.004529
0.205773,0.604115,-0.002350,-0.999938,-0.002523,-0.009156,0.005855,-2.171272,-0.918287,1.903896,-2.576435,-1.579236,-0.605603,-0.132846,0.078834,6.942555,0.358077,0.179816,0.004521
0.206570,0.604110,-0.002351,-0.999938,-0.002518,-0.009149,0.005850,-2.172357,-0.917966,1.903107,-2.575958,-1.579209,-0.606682,-0.130607,0.080092,6.940063,0.357919,0.179824,0.004502
0.207369,0.604105,-0.002352,-0.999938,-0.002515,-0.009145,0.005842,-2.173441,-0.917644,1.902313,-2.575480,-1.579195,-0.607760,-0.125000,0.083811,6.936797,0.358132,0.179192,0.004475
0.208167,0.604100,-0.002353,-0.999938,-0.002508,-0.009140,0.005835,-2.174524,-0.917321,1.901518,-2.575000,-1.579165,-0.608825,-0.125030,0.083561,6.934875,0.357744,0.179603,0.004452
0.208964,0.604096,-0.002354,-0.999938,-0.002505,-0.009133,0.005830,-2.175606,-0.916996,1.900719,-2.574517,-1.579142,-0.609905,-0.123933,0.084197,6.932004,0.357423,0.179797,0.004426
0.209763,0.604090,-0.002355,-0.999938,-0.002500,-0.009128,0.005823,-2.176686,-0.916669,1.899916,-2.574033,-1.579124,-0.610975,-0.122053,0.085453,6.928432,0.357195,0.179769,0.004416
0.210562,0.604085,-0.002356,-0.999938,-0.002496,-0.009125,0.005815,-2.177765,-0.916342,1.899111,-2.573547,-1.579108,-0.612045,-0.120525,0.086468,6.924674,0.356964,0.179726,0.004415
0.211361,0.604079,-0.002357,-0.999938,-0.002489,-0.009122,0.005807,-2.178842,-0.916014,1.898303,-2.573059,-1.579086,-0.613107,-0.120033,0.086700,6.921475,0.356637,0.179891,0.004410
0.212159,0.604075,-0.002358,-0.999939,-0.002484,-0.009115,0.005801,-2.179919,-0.915684,1.897492,-2.572570,-1.579057,-0.614173,-0.119133,0.087214,6.918531,0.356316,0.180076,0.004378
0.212956,0.604070,-0.002359,-0.999939,-0.002481,-0.009109,0.005795,-2.180994,-0.915353,1.896677,-2.572078,-1.579037,-0.615245,-0.117101,0.088626,6.914667,0.356064,0.180044,0.004358
0.213756,0.604064,-0.002360,-0.999939,-0.002479,-0.009107,0.005786,-2.182067,-0.915020,1.895860,-2.571585,-1.579027,-0.616313,-0.116569,0.088883,6.911611,0.355745,0.180215,0.004380
0.214555,0.604058,-0.002362,-0.999939,-0.002476,-0.009104,0.005777,-2.183140,-0.914686,1.895040,-2.571089,-1.579007,-0.617376,-0.120533,0.085753,6.910581,0.355006,0.181249,0.004410
0.215352,0.604053,-0.002363,-0.999939,-0.002473,-0.009098,0.005770,-2.184212,-0.914351,1.894216,-2.570592,-1.578975,-0.618439,-0.127401,0.080500,6.910271,0.353883,0.182928,0.004409
0.216150,0.604048,-0.002364,-0.999939,-0.002471,-0.009092,0.005763,-2.185281,-0.914015,1.893390,-2.570093,-1.578954,-0.619507,-0.125967,0.081209,6.908295,0.353619,0.183149,0.004366
0.216948,0.604043,-0.002365,-0.999939,-0.002469,-0.009086,0.005757,-2.186350,-0.913677,1.892560,-2.569592,-1.578939,-0.620575,-0.120337,0.085051,6.904861,0.353815,0.182518,0.004331
0.217746,0.604038,-0.002366,-0.999939,-0.002463,-0.009081,0.005750,-2.187417,-0.913338,1.891728,-2.569090,-1.578916,-0.621628,-0.117553,0.087036,6.900489,0.353671,0.182270,0.004315
0.218545,0.604033,-0.002366,-0.999939,-0.002459,-0.009077,0.005742,-2.188483,-0.912998,1.890892,-2.568585,-1.578895,-0.622684,-0.114785,0.088975,6.896114,0.353530,0.182018,0.004299
0.219344,0.604027,-0.002367,-0.999939,-0.002457,-0.009074,0.005733,-2.189547,-0.912657,1.890053,-2.568078,-1.578879,-0.623744,-0.116153,0.087802,6.893533,0.352947,0.182628,0.004293
0.220142,0.604022,-0.002369,-0.999939,-0.002455,-0.009069,0.005726,-2.190611,-0.912314,1.889211,-2.567570,-1.578859,-0.624804,-0.120745,0.084191,6.892349,0.352029,0.183896,0.004306
0.220939,0.604017,-0.002370,-0.999940,-0.002451,-0.009061,0.005720,-2.191673,-0.911970,1.888367,-2.567059,-1.578836,-0.625862,-0.122271,0.082879,6.890164,0.351473,0.184519,0.004319
0.221737,0.604012,-0.002371,-0.999940,-0.002445,-0.009056,0.005712,-2.192734,-0.911625,1.887519,-2.566547,-1.578814,-0.626908,-0.120686,0.083956,6.886448,0.351244,0.184480,0.004311
0.222536,0.604005,-0.002372,-0.999940,-0.002443,-0.009054,0.005702,-2.193793,-0.911278,1.886668,-2.566033,-1.578802,-0.627961,-0.123283,0.081832,6.884849,0.350595,0.185313,0.004318
0.223335,0.604000,-0.002373,-0.999940,-0.002441,-0.009050,0.005694,-2.194851,-0.910930,1.885815,-2.565517,-1.578780,-0.629013,-0.129046,0.077270,6.884809,0.349623,0.186805,0.004327
0.224133,0.603994,-0.002374,-0.999940,-0.002439,-0.009045,0.005686,-2.195908,-0.910581,1.884958,-2.564999,-1.578760,-0.630067,-0.134577,0.072907,6.884460,0.348629,0.188291,0.004316
0.224928,0.603991,-0.002375,-0.999940,-0.002435,-0.009034,0.005682,-2.196965,-0.910231,1.884098,-2.564479,-1.578729,-0.631120,-0.135823,0.071835,6.881986,0.348050,0.188910,0.004308
0.225727,0.603985,-0.002376,-0.999940,-0.002430,-0.009030,0.005673,-2.198019,-0.909879,1.883235,-2.563957,-1.578711,-0.632160,-0.129674,0.076217,6.877069,0.348296,0.188028,0.004282
0.226526,0.603979,-0.002377,-0.999940,-0.002429,-0.009027,0.005664,-2.199071,-0.909526,1.882369,-2.563434,-1.578700,-0.633211,-0.127774,0.077304,6.874636,0.348148,0.188027,0.004262
0.227324,0.603974,-0.002379,-0.999940,-0.002424,-0.009021,0.005657,-2.200124,-0.909172,1.881500,-2.562908,-1.578670,-0.634249,-0.128938,0.076096,6.873093,0.347634,0.188666,0.004245
0.228122,0.603968,-0.002380,-0.999940,-0.002423,-0.009016,0.005649,-2.201174,-0.908817,1.880628,-2.562381,-1.578655,-0.635302,-0.126553,0.077468,6.870583,0.347479,0.188662,0.004217
0.228920,0.603963,-0.002381,-0.999941,-0.002420,-0.009010,0.005641,-2.202223,-0.908460,1.879753,-2.561852,-1.578634,-0.636342,-0.128645,0.075570,6.869553,0.346863,0.189511,0.004219
0.229717,0.603958,-0.002382,-0.999941,-0.002416,-0.009003,0.005635,-2.203271,-0.908102,1.878875,-2.561321,-1.578614,-0.637385,-0.127811,0.075923,6.867143,0.346588,0.189696,0.004214
0.230515,0.603953,-0.002383,-0.999941,-0.002408,-0.008997,0.005627,-2.204318,-0.907743,1.877994,-2.560788,-1.578588,-0.638414,-0.122910,0.079418,6.862611,0.346732,0.189012,0.004190
0.231313,0.603947,-0.002384,-0.999941,-0.002405,-0.008993,0.005618,-2.205363,-0.907382,1.877110,-2.560253,-1.578570,-0.639451,-0.124351,0.078242,6.859713,0.346133,0.189610,0.004169
0.232111,0.603942,-0.002385,-0.999941,-0.002403,-0.008987,0.005610,-2.206407,-0.907020,1.876223,-2.559716,-1.578554,-0.640495,-0.125135,0.077543,6.856597,0.345582,0.190108,0.004163
0.232908,0.603936,-0.002386,-0.999941,-0.002397,-0.008980,0.005603,-2.207450,-0.906657,1.875333,-2.559178,-1.578532,-0.641523,-0.123566,0.078660,6.852539,0.345331,0.190057,0.004160
0.233707,0.603930,-0.002388,-0.999941,-0.002393,-0.008976,0.005594,-2.208491,-0.906293,1.874440,-2.558637,-1.578515,-0.642557,-0.126654,0.076137,6.851280,0.344641,0.190991,0.004156
0.234504,0.603925,-0.002389,-0.999941,-0.002387,-0.008969,0.005586,-2.209531,-0.905927,1.873544,-2.558095,-1.578487,-0.643585,-0.129305,0.073934,6.850118,0.343947,0.191941,0.004135
0.235301,0.603920,-0.002390,-0.999941,-0.002383,-0.008962,0.005580,-2.210570,-0.905560,1.872645,-2.557550,-1.578466,-0.644617,-0.127091,0.075521,6.846288,0.343694,0.191917,0.004101
0.236100,0.603913,-0.002391,-0.999942,-0.002381,-0.008960,0.005569,-2.211607,-0.905192,1.871742,-2.557005,-1.578457,-0.645647,-0.128809,0.074011,6.844670,0.343105,0.192657,0.004112
0.236898,0.603908,-0.002392,-0.999942,-0.002378,-0.008954,0.005560,-2.212643,-0.904822,1.870837,-2.556457,-1.578434,-0.646676,-0.135467,0.068667,6.845551,0.342069,0.194359,0.004131
0.237694,0.603903,-0.002393,-0.999942,-0.002374,-0.008945,0.005554,-2.213678,-0.904452,1.869929,-2.555907,-1.578411,-0.647708,-0.137337,0.067117,6.843303,0.341445,0.195073,0.004113
0.238493,0.603897,-0.002395,-0.999942,-0.002369,-0.008941,0.005545,-2.214712,-0.904079,1.869018,-2.555356,-1.578391,-0.648727,-0.131083,0.071782,6.837309,0.341615,0.194168,0.004068
0.239292,0.603891,-0.002396,-0.999942,-0.002368,-0.008938,0.005534,-2.215744,-0.903706,1.868104,-2.554802,-1.578384,-0.649758,-0.125336,0.075817,6.833117,0.341841,0.193406,0.004049
0.240090,0.603885,-0.002397,-0.999942,-0.002367,-0.008933,0.005525,-2.216774,-0.903331,1.867186,-2.554247,-1.578369,-0.650786,-0.127062,0.074082,6.832552,0.341405,0.194060,0.004085
0.240883,0.603882,-0.002398,-0.999942,-0.002359,-0.008918,0.005524,-2.217805,-0.902956,1.866266,-2.553689,-1.578325,-0.651803,-0.129684,0.071852,6.831193,0.340857,0.194782,0.004110
0.241683,0.603875,-0.002399,-0.999942,-0.002353,-0.008917,0.005512,-2.218833,-0.902579,1.865343,-2.553131,-1.578312,-0.652814,-0.131115,0.070568,6.829402,0.340361,0.195372,0.004105
0.242479,0.603871,-0.002400,-0.999942,-0.002352,-0.008907,0.005507,-2.219861,-0.902201,1.864416,-2.552570,-1.578286,-0.653841,-0.133156,0.068793,6.828067,0.339752,0.196177,0.004102
0.243280,0.603863,-0.002401,-0.999942,-0.002348,-0.008908,0.005493,-2.220886,-0.901821,1.863487,-2.552007,-1.578281,-0.654858,-0.131083,0.070146,6.824807,0.339575,0.196116,0.004082
0.244078,0.603858,-0.002402,-0.999943,-0.002346,-0.008902,0.005485,-2.221910,-0.901440,1.862554,-2.551443,-1.578261,-0.655877,-0.125770,0.073950,6.820197,0.339734,0.195401,0.004037
0.244876,0.603852,-0.002403,-0.999943,-0.002345,-0.008897,0.005476,-2.222933,-0.901057,1.861619,-2.550877,-1.578247,-0.656897,-0.126190,0.073385,6.818065,0.339276,0.195885,0.004011
0.245673,0.603846,-0.002404,-0.999943,-0.002341,-0.008890,0.005467,-2.223955,-0.900674,1.860680,-2.550309,-1.578226,-0.657913,-0.130766,0.069652,6.817996,0.338393,0.197242,0.004000
0.246471,0.603840,-0.002406,-0.999943,-0.002339,-0.008885,0.005458,-2.224975,-0.900289,1.859739,-2.549739,-1.578209,-0.658927,-0.131135,0.069148,6.815693,0.337922,0.197723,0.003978
0.247268,0.603835,-0.002407,-0.999943,-0.002336,-0.008879,0.005450,-2.225994,-0.899902,1.858795,-2.549167,-1.578190,-0.659942,-0.129007,0.070519,6.812067,0.337707,0.197669,0.003960
0.248066,0.603829,-0.002408,-0.999943,-0.002333,-0.008873,0.005441,-2.227012,-0.899515,1.857847,-2.548593,-1.578170,-0.660952,-0.127049,0.071727,6.808759,0.337515,0.197624,0.003955
0.248863,0.603824,-0.002409,-0.999943,-0.002330,-0.008866,0.005433,-2.228029,-0.899126,1.856897,-2.548018,-1.578150,-0.661964,-0.127744,0.070931,6.806799,0.337073,0.198111,0.003949
0.249661,0.603818,-0.002411,-0.999943,-0.002326,-0.008860,0.005424,-2.229044,-0.898736,1.855944,-2.547441,-1.578134,-0.662972,-0.130014,0.068976,6.805500,0.336464,0.198922,0.003947
0.250459,0.603812,-0.002412,-0.999943,-0.002323,-0.008855,0.005414,-2.230058,-0.898345,1.854988,-2.546862,-1.578118,-0.663977,-0.129690,0.069030,6.802358,0.336078,0.199180,0.003934
0.251255,0.603807,-0.002413,-0.999944,-0.002319,-0.008846,0.005407,-2.231071,-0.897952,1.854028,-2.546280,-1.578094,-0.664985,-0.126196,0.071485,6.798032,0.336037,0.198792,0.003916
0.252052,0.603801,-0.002415,-0.999944,-0.002313,-0.008838,0.005399,-2.232082,-0.897558,1.853066,-2.545697,-1.578070,-0.665983,-0.121287,0.075029,6.793373,0.336188,0.198085,0.003899
0.252852,0.603794,-0.002416,-0.999944,-0.002311,-0.008837,0.005386,-2.233092,-0.897163,1.852101,-2.545113,-1.578061,-0.666985,-0.117857,0.077434,6.789156,0.336155,0.197700,0.003866
0.253649,0.603788,-0.002417,-0.999944,-0.002308,-0.008830,0.005378,-2.234101,-0.896766,1.851132,-2.544526,-1.578042,-0.667990,-0.118898,0.076406,6.786801,0.335600,0.198300,0.003835
0.254447,0.603782,-0.002418,-0.999944,-0.002307,-0.008826,0.005367,-2.235108,-0.896368,1.850161,-2.543938,-1.578030,-0.668995,-0.123999,0.072220,6.786763,0.334638,0.199774,0.003827
0.255243,0.603777,-0.002420,-0.999944,-0.002305,-0.008816,0.005360,-2.236114,-0.895969,1.849187,-2.543348,-1.578009,-0.669998,-0.124627,0.071446,6.785193,0.334215,0.200281,0.003828
0.256040,0.603771,-0.002421,-0.999944,-0.002299,-0.008809,0.005352,-2.237119,-0.895569,1.848209,-2.542756,-1.577987,-0.670990,-0.123534,0.072044,6.782459,0.334001,0.200345,0.003822
0.256839,0.603764,-0.002422,-0.999944,-0.002296,-0.008805,0.005341,-2.238122,-0.895167,1.847229,-2.542163,-1.577975,-0.671985,-0.127484,0.068724,6.782063,0.333239,0.201492,0.003822
0.257635,0.603759,-0.002424,-0.999944,-0.002292,-0.008797,0.005333,-2.239124,-0.894764,1.846246,-2.541567,-1.577955,-0.672983,-0.127644,0.068373,6.779600,0.332825,0.201874,0.003808
0.258433,0.603753,-0.002425,-0.999945,-0.002287,-0.008791,0.005323,-2.240125,-0.894360,1.845260,-2.540969,-1.577938,-0.673973,-0.126464,0.069088,6.776427,0.332579,0.201928,0.003801
