zhengzhouyi2020/ur16e/ur16e_controller/data/20220427_152752.csv
# px py pz qx qy qz qw joint1 joint2 joint3 joint4 joint5 joint6 fx fy fz tx ty tz
-0.113843,0.557133,-0.001892,-0.999920,-0.003245,-0.006065,0.010590,-1.674934,-1.002419,2.115847,-2.706586,-1.580593,-0.110739,0.089575,-0.159283,-8.053907,-0.482871,0.013982,-0.005835
-0.113022,0.557136,-0.001890,-0.999920,-0.003248,-0.006102,0.010601,-1.676420,-1.002602,2.116352,-2.706952,-1.580632,-0.112230,0.090272,-0.159510,-8.054185,-0.482807,0.013281,-0.005851
-0.112201,0.557138,-0.001889,-0.999920,-0.003251,-0.006140,0.010611,-1.677906,-1.002784,2.116854,-2.707315,-1.580672,-0.113723,0.091502,-0.160860,-8.040586,-0.481724,0.012548,-0.005859
-0.111379,0.557140,-0.001888,-0.999919,-0.003254,-0.006181,0.010620,-1.679392,-1.002960,2.117355,-2.707673,-1.580714,-0.115207,0.097940,-0.171188,-7.914648,-0.472422,0.011945,-0.005841
-0.110560,0.557132,-0.001898,-0.999919,-0.003267,-0.006216,0.010613,-1.680878,-1.003128,2.117856,-2.708026,-1.580757,-0.116732,0.103471,-0.179921,-7.800944,-0.464096,0.011359,-0.005829
-0.109727,0.557135,-0.001894,-0.999918,-0.003273,-0.006281,0.010624,-1.682361,-1.003308,2.118345,-2.708386,-1.580854,-0.118225,0.103715,-0.179638,-7.799612,-0.463999,0.010644,-0.005843
-0.108891,0.557138,-0.001889,-0.999918,-0.003277,-0.006350,0.010634,-1.683846,-1.003488,2.118830,-2.708743,-1.580954,-0.119719,0.104541,-0.179797,-7.799974,-0.463941,0.009908,-0.005856
-0.108075,0.557143,-0.001886,-0.999918,-0.003271,-0.006377,0.010648,-1.685336,-1.003666,2.119315,-2.709096,-1.580952,-0.121194,0.106633,-0.179812,-7.800492,-0.463845,0.008873,-0.005860
-0.107284,0.557150,-0.001883,-0.999918,-0.003269,-0.006349,0.010666,-1.686831,-1.003845,2.119798,-2.709446,-1.580863,-0.122689,0.107449,-0.179977,-7.800872,-0.463738,0.007892,-0.005862
-0.106477,0.557154,-0.001881,-0.999917,-0.003271,-0.006357,0.010679,-1.688322,-1.004020,2.120277,-2.709793,-1.580849,-0.124182,0.106281,-0.180418,-7.800950,-0.463650,0.007261,-0.005869
-0.105663,0.557156,-0.001879,-0.999917,-0.003269,-0.006380,0.010690,-1.689812,-1.004192,2.120753,-2.710138,-1.580851,-0.125667,0.106884,-0.180581,-7.801264,-0.463550,0.006418,-0.005872
-0.104867,0.557161,-0.001877,-0.999917,-0.003267,-0.006366,0.010705,-1.691307,-1.004365,2.121227,-2.710480,-1.580788,-0.127160,0.107262,-0.180760,-7.801462,-0.463450,0.005657,-0.005875
-0.104057,0.557164,-0.001875,-0.999917,-0.003267,-0.006380,0.010717,-1.692798,-1.004535,2.121696,-2.710821,-1.580777,-0.128647,0.107763,-0.180930,-7.801716,-0.463354,0.004899,-0.005878
-0.103257,0.557169,-0.001874,-0.999917,-0.003265,-0.006373,0.010730,-1.694292,-1.004705,2.122163,-2.711158,-1.580729,-0.130141,0.109174,-0.182434,-7.785063,-0.462022,0.004142,-0.005877
-0.102453,0.557173,-0.001872,-0.999917,-0.003260,-0.006376,0.010743,-1.695785,-1.004873,2.122626,-2.711494,-1.580693,-0.131622,0.108927,-0.184394,-7.768831,-0.460728,0.003712,-0.005876
-0.101645,0.557176,-0.001871,-0.999916,-0.003261,-0.006385,0.010755,-1.697277,-1.005039,2.123085,-2.711827,-1.580676,-0.133115,0.109487,-0.184713,-7.770039,-0.460676,0.002956,-0.005874
-0.100844,0.557180,-0.001869,-0.999916,-0.003259,-0.006381,0.010768,-1.698771,-1.005205,2.123542,-2.712158,-1.580632,-0.134607,0.109890,-0.184803,-7.770266,-0.460593,0.002192,-0.005876
-0.100041,0.557183,-0.001867,-0.999916,-0.003254,-0.006381,0.010781,-1.700264,-1.005369,2.123995,-2.712487,-1.580591,-0.136088,0.108574,-0.185185,-7.769841,-0.460500,0.001749,-0.005877
-0.099232,0.557186,-0.001866,-0.999916,-0.003254,-0.006392,0.010792,-1.701757,-1.005531,2.124444,-2.712813,-1.580578,-0.137581,0.108648,-0.185372,-7.769937,-0.460401,0.001004,-0.005873
-0.098433,0.557191,-0.001864,-0.999916,-0.003251,-0.006384,0.010806,-1.703252,-1.005693,2.124891,-2.713137,-1.580523,-0.139071,0.108534,-0.185603,-7.770015,-0.460300,0.000283,-0.005871
-0.097628,0.557194,-0.001863,-0.999916,-0.003247,-0.006389,0.010817,-1.704745,-1.005853,2.125334,-2.713459,-1.580492,-0.140554,0.107896,-0.185915,-7.769876,-0.460189,-0.000329,-0.005870
-0.096822,0.557197,-0.001861,-0.999916,-0.003248,-0.006395,0.010829,-1.706239,-1.006012,2.125773,-2.713779,-1.580468,-0.142050,0.108472,-0.186019,-7.770151,-0.460077,-0.001153,-0.005865
-0.096020,0.557201,-0.001860,-0.999916,-0.003246,-0.006393,0.010841,-1.707733,-1.006170,2.126210,-2.714096,-1.580428,-0.143542,0.109403,-0.186062,-7.770647,-0.459984,-0.001966,-0.005869
-0.095218,0.557205,-0.001858,-0.999915,-0.003241,-0.006392,0.010854,-1.709228,-1.006327,2.126643,-2.714411,-1.580384,-0.145025,0.109716,-0.186911,-7.763173,-0.459340,-0.002561,-0.005862
-0.094410,0.557207,-0.001857,-0.999915,-0.003241,-0.006400,0.010865,-1.710721,-1.006481,2.127072,-2.714724,-1.580366,-0.146517,0.109700,-0.187856,-7.755893,-0.458701,-0.003166,-0.005846
-0.093610,0.557211,-0.001855,-0.999915,-0.003236,-0.006395,0.010878,-1.712216,-1.006636,2.127498,-2.715034,-1.580316,-0.148005,0.108576,-0.188251,-7.755817,-0.458603,-0.003671,-0.005839
-0.092804,0.557214,-0.001854,-0.999915,-0.003235,-0.006402,0.010888,-1.713710,-1.006788,2.127921,-2.715342,-1.580292,-0.149495,0.107502,-0.188567,-7.755308,-0.458487,-0.004176,-0.005831
-0.092002,0.557218,-0.001853,-0.999915,-0.003232,-0.006399,0.010901,-1.715205,-1.006940,2.128340,-2.715647,-1.580245,-0.150983,0.108134,-0.188619,-7.755457,-0.458377,-0.004999,-0.005826
-0.091196,0.557221,-0.001851,-0.999915,-0.003232,-0.006405,0.010912,-1.716699,-1.007090,2.128756,-2.715951,-1.580223,-0.152477,0.108705,-0.188711,-7.755638,-0.458265,-0.005824,-0.005820
-0.090392,0.557224,-0.001850,-0.999915,-0.003229,-0.006409,0.010923,-1.718193,-1.007239,2.129169,-2.716251,-1.580189,-0.153965,0.109402,-0.188806,-7.755902,-0.458152,-0.006691,-0.005812
-0.089591,0.557224,-0.001852,-0.999915,-0.003222,-0.006405,0.010930,-1.719688,-1.007379,2.129582,-2.716545,-1.580143,-0.155443,0.108658,-0.187047,-7.780745,-0.459816,-0.007689,-0.005779
-0.088787,0.557220,-0.001859,-0.999915,-0.003228,-0.006409,0.010929,-1.721181,-1.007517,2.129992,-2.716837,-1.580121,-0.156952,0.107380,-0.185012,-7.804197,-0.461436,-0.008660,-0.005745
-0.087976,0.557225,-0.001854,-0.999914,-0.003227,-0.006425,0.010944,-1.722675,-1.007667,2.130391,-2.717136,-1.580112,-0.158442,0.107438,-0.184893,-7.802940,-0.461264,-0.009505,-0.005735
-0.087166,0.557230,-0.001849,-0.999914,-0.003225,-0.006440,0.010958,-1.724169,-1.007814,2.130788,-2.717430,-1.580103,-0.159933,0.102461,-0.176315,-7.916154,-0.469379,-0.010477,-0.005750
-0.086354,0.557234,-0.001846,-0.999914,-0.003224,-0.006458,0.010969,-1.725662,-1.007959,2.131182,-2.717721,-1.580100,-0.161425,0.097614,-0.168177,-8.031186,-0.477553,-0.011445,-0.005763
-0.085540,0.557235,-0.001843,-0.999914,-0.003226,-0.006482,0.010977,-1.727154,-1.008100,2.131572,-2.718008,-1.580117,-0.162923,0.096350,-0.169148,-8.032100,-0.477448,-0.011972,-0.005752
-0.084701,0.557232,-0.001843,-0.999913,-0.003233,-0.006559,0.010976,-1.728640,-1.008236,2.131959,-2.718295,-1.580235,-0.164421,0.095438,-0.169466,-8.031780,-0.477326,-0.012592,-0.005741
-0.083880,0.557232,-0.001841,-0.999913,-0.003230,-0.006598,0.010981,-1.730132,-1.008374,2.132344,-2.718578,-1.580265,-0.165909,0.095268,-0.169527,-8.032218,-0.477258,-0.013272,-0.005732
-0.083076,0.557235,-0.001840,-0.999913,-0.003227,-0.006598,0.010992,-1.731628,-1.008512,2.132726,-2.718857,-1.580222,-0.167397,0.095491,-0.169614,-8.032296,-0.477162,-0.013935,-0.005723
-0.082280,0.557239,-0.001838,-0.999913,-0.003223,-0.006585,0.011004,-1.733125,-1.008650,2.133105,-2.719132,-1.580154,-0.168886,0.097131,-0.169534,-8.032725,-0.477048,-0.014935,-0.005708
-0.081485,0.557243,-0.001837,-0.999913,-0.003220,-0.006568,0.011016,-1.734622,-1.008786,2.133480,-2.719405,-1.580081,-0.170376,0.096479,-0.169807,-8.032754,-0.476938,-0.015626,-0.005697
-0.080689,0.557246,-0.001835,-0.999913,-0.003216,-0.006553,0.011028,-1.736119,-1.008920,2.133853,-2.719675,-1.580014,-0.171865,0.095856,-0.170091,-8.032787,-0.476828,-0.016316,-0.005686
-0.079890,0.557249,-0.001834,-0.999913,-0.003213,-0.006544,0.011040,-1.737615,-1.009053,2.134222,-2.719943,-1.579956,-0.173355,0.095395,-0.170355,-8.032779,-0.476716,-0.017002,-0.005673
-0.079092,0.557247,-0.001839,-0.999913,-0.003205,-0.006534,0.011042,-1.739111,-1.009175,2.134593,-2.720202,-1.579900,-0.174834,0.093907,-0.169039,-8.053229,-0.478082,-0.017817,-0.005656
-0.078290,0.557244,-0.001843,-0.999913,-0.003208,-0.006534,0.011044,-1.740605,-1.009300,2.134957,-2.720464,-1.579868,-0.176335,0.094125,-0.167188,-8.073060,-0.479409,-0.018953,-0.005638
-0.077480,0.557249,-0.001838,-0.999912,-0.003207,-0.006548,0.011057,-1.742099,-1.009434,2.135312,-2.720731,-1.579856,-0.177826,0.093906,-0.167185,-8.071842,-0.479251,-0.019627,-0.005630
-0.076669,0.557253,-0.001834,-0.999912,-0.003206,-0.006565,0.011068,-1.743593,-1.009565,2.135665,-2.720993,-1.579849,-0.179318,0.093919,-0.167471,-8.071776,-0.479127,-0.020294,-0.005618
-0.075857,0.557255,-0.001831,-0.999912,-0.003205,-0.006585,0.011077,-1.745086,-1.009692,2.136014,-2.721252,-1.579851,-0.180810,0.095640,-0.167469,-8.072376,-0.479013,-0.021283,-0.005606
-0.075042,0.557255,-0.001829,-0.999912,-0.003206,-0.006610,0.011083,-1.746578,-1.009817,2.136361,-2.721509,-1.579863,-0.182303,0.095837,-0.167673,-8.072397,-0.478904,-0.021942,-0.005600
-0.074225,0.557255,-0.001828,-0.999911,-0.003207,-0.006639,0.011087,-1.748070,-1.009940,2.136705,-2.721762,-1.579885,-0.183797,0.096156,-0.167833,-8.072374,-0.478796,-0.022594,-0.005592
-0.073406,0.557254,-0.001827,-0.999911,-0.003208,-0.006674,0.011090,-1.749561,-1.010061,2.137045,-2.722014,-1.579917,-0.185292,0.096592,-0.167955,-8.072368,-0.478693,-0.023242,-0.005586
-0.072585,0.557253,-0.001826,-0.999911,-0.003210,-0.006714,0.011092,-1.751051,-1.010180,2.137382,-2.722263,-1.579959,-0.186787,0.095573,-0.168306,-8.071767,-0.478590,-0.023558,-0.005586
-0.071761,0.557251,-0.001825,-0.999910,-0.003213,-0.006758,0.011093,-1.752540,-1.010297,2.137716,-2.722510,-1.580011,-0.188284,0.094615,-0.168663,-8.070930,-0.478471,-0.023869,-0.005579
-0.070936,0.557248,-0.001825,-0.999910,-0.003217,-0.006807,0.011092,-1.754029,-1.010413,2.138046,-2.722755,-1.580072,-0.189781,0.095378,-0.168714,-8.070749,-0.478363,-0.024496,-0.005576
-0.070114,0.557234,-0.001836,-0.999910,-0.003220,-0.006850,0.011075,-1.755517,-1.010513,2.138381,-2.722987,-1.580127,-0.191277,0.096142,-0.168336,-8.075439,-0.478610,-0.025143,-0.005588
-0.069282,0.557233,-0.001833,-0.999910,-0.003226,-0.006911,0.011076,-1.757005,-1.010630,2.138702,-2.723232,-1.580212,-0.192776,0.097123,-0.167922,-8.079910,-0.478844,-0.025779,-0.005602
-0.068448,0.557232,-0.001829,-0.999909,-0.003231,-0.006977,0.011077,-1.758492,-1.010746,2.139019,-2.723473,-1.580304,-0.194276,0.098532,-0.167900,-8.079641,-0.478732,-0.026376,-0.005613
-0.067614,0.557229,-0.001826,-0.999909,-0.003237,-0.007044,0.011076,-1.759979,-1.010859,2.139334,-2.723711,-1.580400,-0.195775,0.098608,-0.168129,-8.079015,-0.478621,-0.026686,-0.005624
-0.066787,0.557226,-0.001825,-0.999908,-0.003237,-0.007095,0.011075,-1.761468,-1.010970,2.139646,-2.723945,-1.580455,-0.197265,0.099751,-0.168087,-8.078665,-0.478498,-0.027210,-0.005632
-0.065983,0.557228,-0.001823,-0.999908,-0.003233,-0.007097,0.011083,-1.762963,-1.011082,2.139957,-2.724175,-1.580411,-0.198750,0.101613,-0.167860,-8.078541,-0.478345,-0.028003,-0.005634
-0.065196,0.557233,-0.001821,-0.999908,-0.003227,-0.007063,0.011098,-1.764461,-1.011194,2.140266,-2.724403,-1.580300,-0.200237,0.102796,-0.169935,-8.053451,-0.476419,-0.028482,-0.005661
-0.064391,0.557234,-0.001820,-0.999908,-0.003232,-0.007067,0.011105,-1.765954,-1.011302,2.140570,-2.724629,-1.580282,-0.201740,0.102494,-0.172707,-8.029253,-0.474553,-0.028671,-0.005693
-0.063580,0.557233,-0.001820,-0.999908,-0.003227,-0.007084,0.011110,-1.767446,-1.011408,2.140871,-2.724852,-1.580268,-0.203220,0.102787,-0.173133,-8.030180,-0.474462,-0.029266,-0.005698
-0.062785,0.557236,-0.001818,-0.999908,-0.003224,-0.007069,0.011121,-1.768942,-1.011515,2.141169,-2.725073,-1.580198,-0.204710,0.102747,-0.173203,-8.029658,-0.474329,-0.029870,-0.005699
-0.061976,0.557236,-0.001818,-0.999908,-0.003225,-0.007081,0.011126,-1.770434,-1.011618,2.141463,-2.725292,-1.580185,-0.206202,0.102269,-0.173372,-8.029001,-0.474191,-0.030447,-0.005700
-0.061172,0.557237,-0.001817,-0.999908,-0.003221,-0.007084,0.011133,-1.771927,-1.011722,2.141753,-2.725509,-1.580148,-0.207689,0.104732,-0.172951,-8.029759,-0.474067,-0.031596,-0.005695
-0.060373,0.557239,-0.001816,-0.999908,-0.003218,-0.007076,0.011142,-1.773421,-1.011824,2.142041,-2.725723,-1.580091,-0.209175,0.106025,-0.172801,-8.029929,-0.473908,-0.032631,-0.005689
-0.059566,0.557240,-0.001815,-0.999908,-0.003218,-0.007084,0.011148,-1.774913,-1.011924,2.142325,-2.725935,-1.580073,-0.210668,0.104721,-0.173165,-8.029053,-0.473722,-0.033234,-0.005687
-0.058760,0.557240,-0.001814,-0.999907,-0.003215,-0.007091,0.011154,-1.776405,-1.012023,2.142605,-2.726145,-1.580044,-0.212153,0.104216,-0.173346,-8.028612,-0.473566,-0.033854,-0.005686
-0.057959,0.557242,-0.001813,-0.999907,-0.003212,-0.007089,0.011162,-1.777898,-1.012122,2.142882,-2.726352,-1.580000,-0.213640,0.104469,-0.173393,-8.028155,-0.473407,-0.034490,-0.005685
-0.057162,0.557233,-0.001824,-0.999908,-0.003209,-0.007078,0.011155,-1.779389,-1.012203,2.143164,-2.726546,-1.579948,-0.215126,0.104330,-0.172884,-8.035139,-0.473789,-0.035153,-0.005695
-0.056353,0.557235,-0.001821,-0.999907,-0.003208,-0.007092,0.011162,-1.780880,-1.012302,2.143433,-2.726753,-1.579934,-0.216613,0.104179,-0.172357,-8.041676,-0.474152,-0.035776,-0.005705
-0.055544,0.557238,-0.001816,-0.999907,-0.003206,-0.007103,0.011173,-1.782371,-1.012400,2.143696,-2.726957,-1.579915,-0.218100,0.104659,-0.172416,-8.040761,-0.473968,-0.036361,-0.005706
-0.054738,0.557241,-0.001813,-0.999907,-0.003203,-0.007112,0.011183,-1.783862,-1.012496,2.143958,-2.727157,-1.579890,-0.219586,0.106260,-0.174109,-8.019859,-0.472321,-0.036851,-0.005711
-0.053930,0.557242,-0.001810,-0.999907,-0.003202,-0.007121,0.011190,-1.785353,-1.012589,2.144216,-2.727354,-1.579869,-0.221073,0.107837,-0.176050,-8.000049,-0.470714,-0.037345,-0.005717
-0.053121,0.557242,-0.001809,-0.999907,-0.003200,-0.007134,0.011195,-1.786843,-1.012680,2.144472,-2.727548,-1.579856,-0.222560,0.108248,-0.176363,-8.000719,-0.470594,-0.037973,-0.005719
-0.052310,0.557242,-0.001808,-0.999907,-0.003200,-0.007152,0.011198,-1.788331,-1.012769,2.144724,-2.727739,-1.579853,-0.224048,0.108474,-0.176362,-8.000204,-0.470443,-0.038604,-0.005720
-0.051493,0.557228,-0.001819,-0.999907,-0.003204,-0.007186,0.011180,-1.789815,-1.012839,2.144981,-2.727918,-1.579902,-0.225546,0.107235,-0.175903,-8.008242,-0.470948,-0.039078,-0.005735
-0.050643,0.557219,-0.001818,-0.999906,-0.003216,-0.007287,0.011166,-1.791293,-1.012922,2.145224,-2.728112,-1.580076,-0.227047,0.106653,-0.175183,-8.016565,-0.471490,-0.039532,-0.005759
-0.049795,0.557213,-0.001814,-0.999905,-0.003220,-0.007383,0.011158,-1.792773,-1.013008,2.145461,-2.728304,-1.580220,-0.228537,0.108331,-0.174804,-8.016157,-0.471363,-0.040113,-0.005773
-0.048962,0.557209,-0.001811,-0.999905,-0.003223,-0.007447,0.011154,-1.794256,-1.013093,2.145697,-2.728489,-1.580306,-0.230028,0.109780,-0.174677,-8.015494,-0.471195,-0.040695,-0.005781
-0.048136,0.557205,-0.001809,-0.999905,-0.003227,-0.007498,0.011151,-1.795741,-1.013175,2.145931,-2.728671,-1.580368,-0.231520,0.110690,-0.174659,-8.014870,-0.471027,-0.041293,-0.005790
-0.047311,0.557201,-0.001808,-0.999904,-0.003231,-0.007545,0.011146,-1.797224,-1.013255,2.146162,-2.728848,-1.580425,-0.233012,0.111335,-0.174669,-8.014198,-0.470857,-0.041898,-0.005798
-0.046486,0.557196,-0.001808,-0.999904,-0.003235,-0.007593,0.011141,-1.798708,-1.013333,2.146389,-2.729023,-1.580484,-0.234505,0.111854,-0.174684,-8.013484,-0.470688,-0.042507,-0.005807
-0.045659,0.557190,-0.001807,-0.999904,-0.003239,-0.007644,0.011134,-1.800191,-1.013410,2.146613,-2.729196,-1.580549,-0.235997,0.112552,-0.175069,-8.007988,-0.470175,-0.043087,-0.005810
-0.044831,0.557183,-0.001807,-0.999903,-0.003244,-0.007699,0.011126,-1.801673,-1.013485,2.146834,-2.729366,-1.580622,-0.237491,0.113192,-0.175445,-8.002687,-0.469677,-0.043669,-0.005814
-0.044001,0.557176,-0.001808,-0.999903,-0.003250,-0.007757,0.011117,-1.803154,-1.013558,2.147052,-2.729534,-1.580702,-0.238984,0.113533,-0.175398,-8.002081,-0.469526,-0.044284,-0.005822
-0.043180,0.557160,-0.001819,-0.999903,-0.003250,-0.007798,0.011094,-1.804636,-1.013616,2.147275,-2.729688,-1.580753,-0.240468,0.113731,-0.174670,-8.008698,-0.469877,-0.045042,-0.005835
-0.042360,0.557158,-0.001817,-0.999902,-0.003253,-0.007835,0.011094,-1.806120,-1.013691,2.147484,-2.729855,-1.580784,-0.241956,0.113258,-0.174077,-8.014774,-0.470202,-0.045690,-0.005850
-0.041544,0.557158,-0.001813,-0.999902,-0.003255,-0.007864,0.011098,-1.807605,-1.013767,2.147690,-2.730021,-1.580797,-0.243443,0.114235,-0.173803,-8.013663,-0.469957,-0.046380,-0.005866
-0.040746,0.557162,-0.001809,-0.999902,-0.003249,-0.007853,0.011110,-1.809094,-1.013842,2.147895,-2.730184,-1.580728,-0.244923,0.116844,-0.173277,-8.013331,-0.469717,-0.047272,-0.005882
-0.039943,0.557163,-0.001807,-0.999902,-0.003250,-0.007854,0.011118,-1.810580,-1.013914,2.148096,-2.730343,-1.580693,-0.246409,0.118790,-0.173007,-8.012922,-0.469516,-0.048082,-0.005890
-0.039133,0.557162,-0.001806,-0.999902,-0.003248,-0.007869,0.011120,-1.812065,-1.013983,2.148294,-2.730498,-1.580679,-0.247889,0.120738,-0.172609,-8.012482,-0.469268,-0.048994,-0.005894
-0.038333,0.557163,-0.001805,-0.999902,-0.003248,-0.007862,0.011128,-1.813552,-1.014051,2.148489,-2.730652,-1.580629,-0.249377,0.122740,-0.172182,-8.012056,-0.469025,-0.049906,-0.005901
-0.037528,0.557162,-0.001804,-0.999902,-0.003243,-0.007869,0.011132,-1.815037,-1.014117,2.148681,-2.730803,-1.580597,-0.250850,0.123066,-0.172244,-8.011146,-0.468836,-0.050472,-0.005903
-0.036724,0.557162,-0.001803,-0.999902,-0.003244,-0.007871,0.011137,-1.816522,-1.014182,2.148869,-2.730952,-1.580566,-0.252338,0.123888,-0.172076,-8.010374,-0.468609,-0.051165,-0.005909
-0.035921,0.557162,-0.001803,-0.999902,-0.003241,-0.007874,0.011142,-1.818006,-1.014245,2.149054,-2.731099,-1.580527,-0.253815,0.126851,-0.171301,-8.010127,-0.468328,-0.052229,-0.005923
-0.035118,0.557162,-0.001802,-0.999902,-0.003241,-0.007875,0.011147,-1.819491,-1.014308,2.149235,-2.731243,-1.580492,-0.255300,0.129942,-0.170495,-8.009845,-0.468047,-0.053287,-0.005938
-0.034316,0.557163,-0.001801,-0.999902,-0.003237,-0.007873,0.011153,-1.820975,-1.014369,2.149413,-2.731386,-1.580449,-0.256776,0.130796,-0.170313,-8.008973,-0.467822,-0.053940,-0.005955
-0.033511,0.557162,-0.001801,-0.999901,-0.003233,-0.007878,0.011158,-1.822458,-1.014428,2.149588,-2.731525,-1.580416,-0.258250,0.131557,-0.170151,-8.008056,-0.467601,-0.054556,-0.005973
-0.032708,0.557162,-0.001800,-0.999901,-0.003229,-0.007879,0.011163,-1.823941,-1.014487,2.149759,-2.731663,-1.580375,-0.259725,0.134784,-0.169984,-8.000217,-0.466785,-0.055514,-0.005975
-0.031906,0.557162,-0.001800,-0.999901,-0.003226,-0.007877,0.011168,-1.825424,-1.014544,2.149927,-2.731798,-1.580333,-0.261203,0.135924,-0.170473,-7.992122,-0.466026,-0.056142,-0.005970
-0.031103,0.557162,-0.001799,-0.999901,-0.003222,-0.007879,0.011173,-1.826906,-1.014599,2.150091,-2.731931,-1.580297,-0.262676,0.134445,-0.170966,-7.990863,-0.465862,-0.056436,-0.005977
-0.030300,0.557162,-0.001798,-0.999901,-0.003217,-0.007880,0.011178,-1.828388,-1.014654,2.150252,-2.732061,-1.580258,-0.264148,0.132920,-0.171391,-7.989107,-0.465683,-0.056693,-0.005986
-0.029497,0.557161,-0.001798,-0.999901,-0.003214,-0.007883,0.011183,-1.829869,-1.014707,2.150409,-2.732189,-1.580226,-0.265623,0.131497,-0.171830,-7.987308,-0.465497,-0.056949,-0.005997
-0.028694,0.557161,-0.001797,-0.999901,-0.003209,-0.007883,0.011188,-1.831350,-1.014759,2.150563,-2.732314,-1.580184,-0.267094,0.130145,-0.172285,-7.985507,-0.465307,-0.057203,-0.006009
-0.027892,0.557161,-0.001796,-0.999901,-0.003202,-0.007883,0.011193,-1.832831,-1.014810,2.150713,-2.732438,-1.580140,-0.268560,0.128703,-0.172788,-7.983689,-0.465112,-0.057463,-0.006016
-0.027085,0.557160,-0.001796,-0.999901,-0.003201,-0.007891,0.011195,-1.834310,-1.014859,2.150860,-2.732558,-1.580118,-0.270034,0.130375,-0.173270,-7.973807,-0.464200,-0.058258,-0.006002
-0.026284,0.557160,-0.001795,-0.999901,-0.003199,-0.007889,0.011201,-1.835790,-1.014908,2.151004,-2.732677,-1.580074,-0.271512,0.133152,-0.173514,-7.964370,-0.463205,-0.059449,-0.005979
-0.025482,0.557160,-0.001795,-0.999901,-0.003196,-0.007888,0.011206,-1.837269,-1.014955,2.151144,-2.732793,-1.580033,-0.272985,0.131726,-0.174030,-7.962957,-0.462916,-0.060147,-0.005967
-0.024679,0.557160,-0.001794,-0.999901,-0.003190,-0.007889,0.011211,-1.838748,-1.015000,2.151280,-2.732907,-1.579993,-0.274452,0.128563,-0.174912,-7.960994,-0.462699,-0.060478,-0.005959
-0.023876,0.557159,-0.001794,-0.999901,-0.003187,-0.007892,0.011215,-1.840226,-1.015045,2.151413,-2.733018,-1.579958,-0.275922,0.127732,-0.175123,-7.959825,-0.462450,-0.061169,-0.005954
-0.023072,0.557159,-0.001793,-0.999901,-0.003184,-0.007894,0.011219,-1.841703,-1.015088,2.151543,-2.733127,-1.579921,-0.277393,0.128896,-0.174770,-7.959451,-0.462161,-0.062227,-0.005944
-0.022268,0.557158,-0.001793,-0.999901,-0.003183,-0.007900,0.011222,-1.843180,-1.015129,2.151669,-2.733233,-1.579893,-0.278867,0.129997,-0.174473,-7.959050,-0.461866,-0.063288,-0.005928
-0.021468,0.557158,-0.001792,-0.999901,-0.003177,-0.007894,0.011228,-1.844658,-1.015171,2.151791,-2.733337,-1.579837,-0.280333,0.129115,-0.174818,-7.957825,-0.461598,-0.063989,-0.005906
-0.020660,0.557156,-0.001792,-0.999901,-0.003177,-0.007906,0.011229,-1.846132,-1.015209,2.151910,-2.733439,-1.579826,-0.281805,0.128112,-0.175208,-7.956605,-0.461327,-0.064696,-0.005882
-0.019858,0.557156,-0.001791,-0.999901,-0.003171,-0.007906,0.011233,-1.847608,-1.015248,2.152026,-2.733537,-1.579781,-0.283271,0.128894,-0.175035,-7.956218,-0.461023,-0.065774,-0.005859
-0.019059,0.557156,-0.001790,-0.999901,-0.003170,-0.007900,0.011239,-1.849084,-1.015285,2.152138,-2.733634,-1.579733,-0.284744,0.129506,-0.175566,-7.948469,-0.460220,-0.066678,-0.005837
-0.018252,0.557154,-0.001790,-0.999901,-0.003165,-0.007909,0.011240,-1.850558,-1.015320,2.152246,-2.733728,-1.579708,-0.286206,0.129817,-0.176216,-7.940938,-0.459452,-0.067473,-0.005817
-0.017451,0.557154,-0.001790,-0.999901,-0.003161,-0.007906,0.011245,-1.852032,-1.015355,2.152352,-2.733819,-1.579661,-0.287673,0.127883,-0.176785,-7.940054,-0.459263,-0.067956,-0.005792
-0.016651,0.557154,-0.001789,-0.999901,-0.003157,-0.007901,0.011250,-1.853506,-1.015388,2.152454,-2.733907,-1.579611,-0.289138,0.126063,-0.177256,-7.938741,-0.459058,-0.068433,-0.005767
-0.015846,0.557141,-0.001801,-0.999901,-0.003159,-0.007911,0.011232,-1.854976,-1.015403,2.152560,-2.733982,-1.579609,-0.290614,0.126337,-0.176630,-7.944007,-0.459223,-0.069359,-0.005753
-0.015029,0.557138,-0.001798,-0.999900,-0.003158,-0.007942,0.011232,-1.856445,-1.015437,2.152652,-2.734072,-1.579629,-0.292079,0.124979,-0.176464,-7.948597,-0.459438,-0.069893,-0.005744
-0.014216,0.557138,-0.001794,-0.999900,-0.003155,-0.007963,0.011235,-1.857915,-1.015470,2.152740,-2.734158,-1.579628,-0.293546,0.124100,-0.176792,-7.947143,-0.459220,-0.070332,-0.005730
-0.013405,0.557137,-0.001791,-0.999900,-0.003154,-0.007981,0.011237,-1.859385,-1.015500,2.152826,-2.734240,-1.579623,-0.295012,0.125204,-0.176632,-7.946444,-0.458953,-0.071149,-0.005721
-0.012604,0.557138,-0.001789,-0.999900,-0.003146,-0.007979,0.011243,-1.860857,-1.015529,2.152909,-2.734316,-1.579570,-0.296468,0.124190,-0.177057,-7.945049,-0.458732,-0.071590,-0.005708
-0.011798,0.557136,-0.001788,-0.999900,-0.003150,-0.007988,0.011243,-1.862326,-1.015555,2.152989,-2.734390,-1.579561,-0.297946,0.121881,-0.177722,-7.944246,-0.458607,-0.071840,-0.005699
-0.010986,0.557132,-0.001788,-0.999900,-0.003143,-0.008008,0.011240,-1.863794,-1.015579,2.153066,-2.734462,-1.579552,-0.299396,0.120589,-0.178049,-7.943645,-0.458460,-0.072250,-0.005687
-0.010192,0.557133,-0.001787,-0.999900,-0.003136,-0.007989,0.011249,-1.865266,-1.015603,2.153140,-2.734529,-1.579468,-0.300854,0.120977,-0.177977,-7.942656,-0.458192,-0.073031,-0.005658
-0.009387,0.557119,-0.001799,-0.999900,-0.003144,-0.007999,0.011229,-1.866730,-1.015608,2.153219,-2.734584,-1.579475,-0.302336,0.120732,-0.177631,-7.946991,-0.458290,-0.073906,-0.005636
-0.008572,0.557118,-0.001796,-0.999900,-0.003139,-0.008026,0.011229,-1.868196,-1.015633,2.153282,-2.734654,-1.579481,-0.303789,0.119104,-0.177682,-7.950542,-0.458434,-0.074385,-0.005621
-0.007771,0.557121,-0.001791,-0.999900,-0.003132,-0.008021,0.011239,-1.869665,-1.015658,2.153343,-2.734718,-1.579422,-0.305246,0.119899,-0.177549,-7.949528,-0.458163,-0.075148,-0.005606
-0.006977,0.557124,-0.001789,-0.999900,-0.003126,-0.008003,0.011250,-1.871134,-1.015680,2.153402,-2.734777,-1.579341,-0.306701,0.122165,-0.177028,-7.949376,-0.457850,-0.076301,-0.005588
-0.006181,0.557125,-0.001787,-0.999900,-0.003125,-0.007991,0.011257,-1.872602,-1.015699,2.153458,-2.734832,-1.579286,-0.308168,0.124271,-0.176444,-7.949896,-0.457588,-0.077467,-0.005579
-0.005371,0.557122,-0.001786,-0.999900,-0.003120,-0.008006,0.011255,-1.874066,-1.015714,2.153510,-2.734886,-1.579273,-0.309619,0.126633,-0.175738,-7.950375,-0.457333,-0.078624,-0.005570
-0.004569,0.557121,-0.001786,-0.999900,-0.003116,-0.008006,0.011257,-1.875531,-1.015729,2.153559,-2.734936,-1.579232,-0.311076,0.128942,-0.175092,-7.950176,-0.457032,-0.079772,-0.005546
-0.003768,0.557119,-0.001785,-0.999900,-0.003111,-0.008003,0.011260,-1.876995,-1.015743,2.153605,-2.734984,-1.579186,-0.312532,0.131057,-0.174504,-7.950020,-0.456732,-0.080924,-0.005525
-0.002967,0.557118,-0.001785,-0.999900,-0.003108,-0.008001,0.011262,-1.878459,-1.015755,2.153647,-2.735029,-1.579143,-0.313988,0.131404,-0.174438,-7.949223,-0.456482,-0.081701,-0.005512
-0.002164,0.557116,-0.001785,-0.999900,-0.003104,-0.008003,0.011263,-1.879922,-1.015766,2.153686,-2.735072,-1.579108,-0.315444,0.129945,-0.174916,-7.947691,-0.456272,-0.082104,-0.005499
-0.001359,0.557113,-0.001785,-0.999900,-0.003101,-0.008009,0.011262,-1.881383,-1.015775,2.153721,-2.735112,-1.579084,-0.316899,0.130400,-0.174808,-7.946868,-0.456023,-0.082874,-0.005484
-0.000551,0.557110,-0.001785,-0.999900,-0.003099,-0.008021,0.011260,-1.882843,-1.015782,2.153753,-2.735151,-1.579070,-0.318355,0.132802,-0.174094,-7.946845,-0.455742,-0.084011,-0.005469
0.000252,0.557096,-0.001796,-0.999900,-0.003095,-0.008026,0.011241,-1.884302,-1.015774,2.153789,-2.735175,-1.579054,-0.319807,0.132848,-0.173291,-7.955081,-0.456128,-0.084920,-0.005458
0.001065,0.557092,-0.001795,-0.999900,-0.003096,-0.008050,0.011237,-1.885759,-1.015780,2.153813,-2.735213,-1.579066,-0.321264,0.131130,-0.172966,-7.962092,-0.456532,-0.085452,-0.005450
0.001882,0.557089,-0.001791,-0.999899,-0.003096,-0.008081,0.011234,-1.887216,-1.015788,2.153831,-2.735249,-1.579089,-0.322722,0.130185,-0.173278,-7.960058,-0.456301,-0.085829,-0.005441
0.002701,0.557084,-0.001788,-0.999899,-0.003096,-0.008115,0.011228,-1.888671,-1.015793,2.153846,-2.735282,-1.579119,-0.324178,0.131322,-0.173043,-7.959370,-0.456060,-0.086569,-0.005437
0.003520,0.557078,-0.001787,-0.999899,-0.003097,-0.008152,0.011219,-1.890125,-1.015794,2.153859,-2.735310,-1.579157,-0.325634,0.132563,-0.172736,-7.958702,-0.455828,-0.087305,-0.005435
0.004341,0.557070,-0.001787,-0.999899,-0.003099,-0.008192,0.011207,-1.891578,-1.015794,2.153868,-2.735336,-1.579204,-0.327091,0.131995,-0.172965,-7.957170,-0.455630,-0.087671,-0.005431
0.005165,0.557061,-0.001787,-0.999899,-0.003101,-0.008237,0.011193,-1.893029,-1.015791,2.153875,-2.735360,-1.579260,-0.328548,0.131529,-0.173165,-7.955370,-0.455418,-0.088029,-0.005420
0.005989,0.557050,-0.001787,-0.999898,-0.003104,-0.008286,0.011177,-1.894479,-1.015786,2.153878,-2.735381,-1.579325,-0.330005,0.131115,-0.173336,-7.953530,-0.455207,-0.088382,-0.005410
0.006816,0.557040,-0.001788,-0.999898,-0.003108,-0.008339,0.011160,-1.895928,-1.015780,2.153877,-2.735399,-1.579399,-0.331462,0.130862,-0.173422,-7.951924,-0.455016,-0.088730,-0.005411
0.007645,0.557028,-0.001788,-0.999898,-0.003112,-0.008395,0.011141,-1.897376,-1.015772,2.153873,-2.735416,-1.579480,-0.332919,0.130901,-0.173411,-7.950266,-0.454828,-0.089066,-0.005415
0.008471,0.557011,-0.001795,-0.999898,-0.003110,-0.008448,0.011113,-1.898822,-1.015753,2.153871,-2.735421,-1.579559,-0.334364,0.129882,-0.172480,-7.962566,-0.455614,-0.089636,-0.005407
0.009299,0.556993,-0.001801,-0.999898,-0.003121,-0.008506,0.011083,-1.900267,-1.015738,2.153862,-2.735430,-1.579653,-0.335832,0.128475,-0.171388,-7.974016,-0.456378,-0.090211,-0.005401
0.010136,0.556982,-0.001798,-0.999897,-0.003127,-0.008578,0.011065,-1.901712,-1.015731,2.153845,-2.735445,-1.579764,-0.337290,0.128193,-0.171166,-7.971318,-0.456162,-0.090542,-0.005409
0.010972,0.556970,-0.001796,-0.999897,-0.003133,-0.008652,0.011044,-1.903155,-1.015721,2.153825,-2.735455,-1.579878,-0.338748,0.128368,-0.171086,-7.969387,-0.455965,-0.090860,-0.005418
0.011807,0.556957,-0.001795,-0.999896,-0.003137,-0.008720,0.011022,-1.904598,-1.015709,2.153802,-2.735461,-1.579980,-0.340199,0.129243,-0.170775,-7.967771,-0.455757,-0.091270,-0.005429
0.012632,0.556947,-0.001795,-0.999896,-0.003140,-0.008769,0.011005,-1.906043,-1.015695,2.153777,-2.735464,-1.580041,-0.341650,0.129699,-0.170645,-7.965165,-0.455489,-0.091597,-0.005429
0.013452,0.556938,-0.001795,-0.999896,-0.003142,-0.008808,0.010991,-1.907488,-1.015680,2.153750,-2.735464,-1.580084,-0.343101,0.128885,-0.170930,-7.962252,-0.455236,-0.091769,-0.005431
0.014271,0.556928,-0.001795,-0.999896,-0.003145,-0.008845,0.010977,-1.908933,-1.015664,2.153719,-2.735461,-1.580124,-0.344551,0.128231,-0.171090,-7.960195,-0.455046,-0.091947,-0.005450
0.015091,0.556919,-0.001796,-0.999896,-0.003147,-0.008882,0.010962,-1.910376,-1.015646,2.153684,-2.735456,-1.580168,-0.346001,0.128154,-0.171538,-7.952786,-0.454489,-0.092032,-0.005463
0.015910,0.556909,-0.001796,-0.999895,-0.003147,-0.008918,0.010949,-1.911820,-1.015627,2.153647,-2.735449,-1.580197,-0.347441,0.129330,-0.171455,-7.946215,-0.453870,-0.092481,-0.005470
0.016696,0.556903,-0.001805,-0.999896,-0.003135,-0.008886,0.010944,-1.913269,-1.015596,2.153614,-2.735426,-1.580098,-0.348870,0.128921,-0.170145,-7.958392,-0.454558,-0.093257,-0.005490
0.017498,0.556898,-0.001807,-0.999896,-0.003140,-0.008887,0.010940,-1.914714,-1.015576,2.153571,-2.735415,-1.580073,-0.350322,0.126847,-0.169341,-7.968889,-0.455273,-0.093674,-0.005517
0.018313,0.556895,-0.001803,-0.999896,-0.003138,-0.008914,0.010936,-1.916157,-1.015559,2.153521,-2.735406,-1.580081,-0.351758,0.127715,-0.168857,-7.965723,-0.454916,-0.094184,-0.005518
0.019108,0.556897,-0.001800,-0.999896,-0.003133,-0.008897,0.010946,-1.917604,-1.015541,2.153469,-2.735391,-1.580004,-0.353198,0.128368,-0.168691,-7.963317,-0.454572,-0.094707,-0.005518
0.019917,0.556893,-0.001799,-0.999896,-0.003135,-0.008911,0.010942,-1.919045,-1.015519,2.153413,-2.735373,-1.580000,-0.354640,0.128834,-0.168498,-7.961955,-0.454300,-0.095252,-0.005535
0.020714,0.556893,-0.001798,-0.999896,-0.003126,-0.008901,0.010946,-1.920489,-1.015496,2.153355,-2.735352,-1.579934,-0.356068,0.129587,-0.168184,-7.960420,-0.454024,-0.095788,-0.005550
0.021521,0.556888,-0.001798,-0.999896,-0.003128,-0.008911,0.010941,-1.921929,-1.015469,2.153293,-2.735328,-1.579923,-0.357511,0.130326,-0.167854,-7.958927,-0.453753,-0.096324,-0.005568
0.022319,0.556887,-0.001797,-0.999896,-0.003119,-0.008903,0.010943,-1.923372,-1.015439,2.153231,-2.735297,-1.579856,-0.358924,0.138795,-0.174771,-7.846822,-0.445802,-0.094974,-0.005565
0.023117,0.556873,-0.001809,-0.999896,-0.003132,-0.008897,0.010924,-1.924809,-1.015398,2.153169,-2.735260,-1.579838,-0.360402,0.145175,-0.182040,-7.732078,-0.437848,-0.093274,-0.005564
0.023927,0.556871,-0.001806,-0.999896,-0.003121,-0.008914,0.010924,-1.926248,-1.015373,2.153094,-2.735235,-1.579818,-0.361810,0.145570,-0.181396,-7.728351,-0.437489,-0.093799,-0.005576
0.024721,0.556874,-0.001802,-0.999896,-0.003117,-0.008897,0.010934,-1.927688,-1.015347,2.153018,-2.735204,-1.579746,-0.363248,0.146644,-0.181929,-7.717080,-0.436525,-0.094187,-0.005580
0.025533,0.556870,-0.001800,-0.999896,-0.003114,-0.008916,0.010929,-1.929124,-1.015316,2.152937,-2.735171,-1.579747,-0.364672,0.147499,-0.182607,-7.706651,-0.435602,-0.094592,-0.005583
0.026329,0.556870,-0.001799,-0.999896,-0.003105,-0.008903,0.010934,-1.930562,-1.015284,2.152855,-2.735132,-1.579677,-0.366095,0.147681,-0.182586,-7.705086,-0.435309,-0.095148,-0.005588
0.027135,0.556865,-0.001799,-0.999896,-0.003104,-0.008912,0.010929,-1.931996,-1.015249,2.152769,-2.735092,-1.579664,-0.367525,0.147548,-0.182533,-7.703060,-0.435000,-0.095711,-0.005591
0.027933,0.556864,-0.001799,-0.999896,-0.003095,-0.008903,0.010931,-1.933433,-1.015210,2.152682,-2.735044,-1.579597,-0.368935,0.155460,-0.189559,-7.590845,-0.427042,-0.094382,-0.005573
0.028734,0.556849,-0.001811,-0.999896,-0.003109,-0.008906,0.010909,-1.934863,-1.015160,2.152595,-2.734991,-1.579597,-0.370406,0.163013,-0.196219,-7.477352,-0.419057,-0.093056,-0.005557
0.029545,0.556846,-0.001807,-0.999896,-0.003100,-0.008925,0.010907,-1.936295,-1.015126,2.152496,-2.734949,-1.579586,-0.371814,0.164270,-0.195148,-7.474686,-0.418648,-0.093963,-0.005558
0.030342,0.556849,-0.001803,-0.999896,-0.003091,-0.008912,0.010916,-1.937729,-1.015091,2.152395,-2.734902,-1.579514,-0.373232,0.165639,-0.194651,-7.473195,-0.418242,-0.094874,-0.005553
0.031140,0.556849,-0.001802,-0.999896,-0.003089,-0.008903,0.010920,-1.939161,-1.015053,2.152291,-2.734850,-1.579463,-0.374661,0.166598,-0.194272,-7.472513,-0.417880,-0.095814,-0.005556
0.031946,0.556845,-0.001801,-0.999896,-0.003082,-0.008911,0.010916,-1.940591,-1.015011,2.152184,-2.734795,-1.579438,-0.376073,0.167614,-0.193821,-7.471814,-0.417523,-0.096756,-0.005557
0.032743,0.556844,-0.001800,-0.999896,-0.003075,-0.008901,0.010919,-1.942022,-1.014969,2.152074,-2.734736,-1.579379,-0.377489,0.169887,-0.194809,-7.450463,-0.415726,-0.097370,-0.005552
0.033546,0.556827,-0.001812,-0.999896,-0.003078,-0.008908,0.010894,-1.943446,-1.014907,2.151968,-2.734664,-1.579382,-0.378922,0.171838,-0.195743,-7.435254,-0.414305,-0.098099,-0.005551
0.034362,0.556822,-0.001809,-0.999896,-0.003073,-0.008937,0.010887,-1.944871,-1.014864,2.151848,-2.734608,-1.579397,-0.380336,0.172573,-0.195191,-7.439999,-0.414287,-0.099147,-0.005542
0.035169,0.556820,-0.001806,-0.999896,-0.003068,-0.008946,0.010887,-1.946297,-1.014821,2.151725,-2.734547,-1.579374,-0.381753,0.173337,-0.194793,-7.438643,-0.413890,-0.100095,-0.005526
0.035972,0.556818,-0.001804,-0.999896,-0.003063,-0.008948,0.010887,-1.947723,-1.014775,2.151600,-2.734481,-1.579338,-0.383168,0.173301,-0.194754,-7.437290,-0.413513,-0.100959,-0.005509
0.036774,0.556816,-0.001803,-0.999896,-0.003059,-0.008948,0.010886,-1.949148,-1.014726,2.151472,-2.734411,-1.579303,-0.384584,0.172812,-0.194891,-7.435804,-0.413159,-0.101726,-0.005493
0.037577,0.556812,-0.001802,-0.999896,-0.003055,-0.008951,0.010882,-1.950571,-1.014676,2.151341,-2.734338,-1.579274,-0.385999,0.172544,-0.194939,-7.434335,-0.412811,-0.102487,-0.005476
0.038382,0.556807,-0.001803,-0.999896,-0.003052,-0.008958,0.010876,-1.951993,-1.014623,2.151206,-2.734263,-1.579254,-0.387415,0.172422,-0.194924,-7.432870,-0.412465,-0.103244,-0.005458
0.039190,0.556801,-0.001803,-0.999896,-0.003049,-0.008970,0.010869,-1.953414,-1.014568,2.151068,-2.734186,-1.579244,-0.388830,0.172363,-0.194882,-7.431410,-0.412122,-0.104000,-0.005439
0.039999,0.556794,-0.001803,-0.999896,-0.003048,-0.008986,0.010859,-1.954832,-1.014512,2.150926,-2.734107,-1.579245,-0.390245,0.170689,-0.195468,-7.429309,-0.411850,-0.104404,-0.005426
0.040811,0.556785,-0.001804,-0.999896,-0.003046,-0.009007,0.010847,-1.956249,-1.014454,2.150781,-2.734025,-1.579255,-0.391660,0.170436,-0.196789,-7.413660,-0.410645,-0.104561,-0.005407
0.041624,0.556776,-0.001805,-0.999896,-0.003046,-0.009033,0.010833,-1.957665,-1.014395,2.150633,-2.733941,-1.579276,-0.393074,0.172452,-0.197378,-7.399371,-0.409405,-0.105052,-0.005383
0.042432,0.556758,-0.001817,-0.999896,-0.003044,-0.009049,0.010803,-1.959078,-1.014319,2.150489,-2.733842,-1.579292,-0.394486,0.171205,-0.197209,-7.405312,-0.409683,-0.105581,-0.005381
0.043251,0.556748,-0.001816,-0.999896,-0.003046,-0.009087,0.010788,-1.960491,-1.014260,2.150331,-2.733758,-1.579337,-0.395901,0.169974,-0.196785,-7.410150,-0.409924,-0.106095,-0.005380
0.044074,0.556740,-0.001813,-0.999896,-0.003047,-0.009129,0.010773,-1.961902,-1.014201,2.150170,-2.733673,-1.579389,-0.397317,0.169541,-0.196844,-7.407348,-0.409639,-0.106442,-0.005370
0.044896,0.556729,-0.001811,-0.999895,-0.003049,-0.009174,0.010755,-1.963312,-1.014139,2.150005,-2.733582,-1.579448,-0.398730,0.169186,-0.196982,-7.405063,-0.409374,-0.106787,-0.005363
0.045720,0.556716,-0.001811,-0.999895,-0.003051,-0.009220,0.010733,-1.964720,-1.014074,2.149838,-2.733488,-1.579513,-0.400144,0.168980,-0.197054,-7.402703,-0.409109,-0.107125,-0.005355
0.046545,0.556702,-0.001811,-0.999895,-0.003054,-0.009270,0.010709,-1.966127,-1.014006,2.149667,-2.733391,-1.579586,-0.401558,0.161112,-0.189821,-7.510879,-0.416525,-0.109345,-0.005370
0.047371,0.556688,-0.001812,-0.999895,-0.003057,-0.009322,0.010683,-1.967533,-1.013937,2.149494,-2.733292,-1.579665,-0.402971,0.155930,-0.181940,-7.621924,-0.423922,-0.112027,-0.005384
0.048190,0.556676,-0.001813,-0.999895,-0.003056,-0.009358,0.010663,-1.968940,-1.013867,2.149317,-2.733190,-1.579702,-0.404375,0.157167,-0.181761,-7.622080,-0.423689,-0.112599,-0.005382
0.049000,0.556668,-0.001813,-0.999895,-0.003054,-0.009376,0.010651,-1.970348,-1.013797,2.149138,-2.733085,-1.579705,-0.405781,0.157908,-0.181226,-7.620521,-0.423410,-0.113170,-0.005380
0.049808,0.556660,-0.001814,-0.999895,-0.003053,-0.009389,0.010641,-1.971755,-1.013726,2.148956,-2.732977,-1.579698,-0.407185,0.158549,-0.180750,-7.618556,-0.423107,-0.113736,-0.005378
0.050616,0.556653,-0.001815,-0.999895,-0.003052,-0.009402,0.010631,-1.973161,-1.013653,2.148770,-2.732868,-1.579693,-0.408590,0.159102,-0.180337,-7.616798,-0.422812,-0.114305,-0.005382
0.051420,0.556647,-0.001815,-0.999895,-0.003047,-0.009408,0.010623,-1.974568,-1.013580,2.148581,-2.732755,-1.579666,-0.409985,0.160336,-0.179663,-7.615145,-0.422477,-0.114986,-0.005383
0.052211,0.556635,-0.001827,-0.999895,-0.003043,-0.009388,0.010608,-1.975974,-1.013491,2.148396,-2.732627,-1.579607,-0.411385,0.152784,-0.171580,-7.730877,-0.430272,-0.117723,-0.005411
0.053019,0.556630,-0.001826,-0.999895,-0.003043,-0.009401,0.010601,-1.977378,-1.013418,2.148199,-2.732515,-1.579600,-0.412785,0.145476,-0.163903,-7.847654,-0.438078,-0.120457,-0.005436
0.053823,0.556628,-0.001822,-0.999895,-0.003038,-0.009404,0.010601,-1.978782,-1.013346,2.147997,-2.732400,-1.579565,-0.414179,0.145559,-0.164244,-7.846588,-0.437777,-0.120921,-0.005434
0.054621,0.556628,-0.001820,-0.999895,-0.003033,-0.009395,0.010604,-1.980186,-1.013272,2.147793,-2.732280,-1.579509,-0.415574,0.144720,-0.164483,-7.844398,-0.437504,-0.121272,-0.005436
0.055424,0.556623,-0.001819,-0.999895,-0.003031,-0.009399,0.010599,-1.981588,-1.013194,2.147585,-2.732157,-1.579484,-0.416969,0.144078,-0.164657,-7.841463,-0.437191,-0.121604,-0.005429
0.056226,0.556619,-0.001819,-0.999895,-0.003026,-0.009399,0.010595,-1.982989,-1.013114,2.147375,-2.732030,-1.579448,-0.418361,0.143900,-0.164620,-7.838787,-0.436847,-0.122059,-0.005421
0.057026,0.556615,-0.001819,-0.999895,-0.003022,-0.009395,0.010592,-1.984389,-1.013033,2.147162,-2.731902,-1.579406,-0.419752,0.143713,-0.164555,-7.836628,-0.436537,-0.122522,-0.005422
0.057826,0.556611,-0.001820,-0.999895,-0.003018,-0.009392,0.010588,-1.985787,-1.012950,2.146945,-2.731770,-1.579367,-0.421142,0.143842,-0.164839,-7.829425,-0.435884,-0.122882,-0.005416
0.058628,0.556606,-0.001820,-0.999895,-0.003014,-0.009393,0.010582,-1.987185,-1.012865,2.146725,-2.731637,-1.579336,-0.422532,0.143626,-0.165255,-7.822438,-0.435241,-0.123257,-0.005410
0.059432,0.556600,-0.001821,-0.999895,-0.003011,-0.009398,0.010575,-1.988580,-1.012779,2.146501,-2.731501,-1.579315,-0.423922,0.143104,-0.165263,-7.820421,-0.434944,-0.123734,-0.005409
0.060238,0.556593,-0.001822,-0.999895,-0.003009,-0.009408,0.010565,-1.989974,-1.012692,2.146274,-2.731363,-1.579304,-0.425310,0.142931,-0.165097,-7.818123,-0.434640,-0.124196,-0.005409
0.061041,0.556580,-0.001830,-0.999896,-0.003001,-0.009413,0.010544,-1.991366,-1.012591,2.146049,-2.731212,-1.579292,-0.426689,0.141798,-0.163846,-7.832164,-0.435436,-0.125023,-0.005413
0.061853,0.556566,-0.001834,-0.999896,-0.003007,-0.009436,0.010523,-1.992755,-1.012498,2.145816,-2.731070,-1.579321,-0.428088,0.140432,-0.162517,-7.845247,-0.436216,-0.125784,-0.005419
0.062677,0.556555,-0.001832,-0.999895,-0.003009,-0.009483,0.010503,-1.994141,-1.012409,2.145575,-2.730932,-1.579388,-0.429481,0.140550,-0.162132,-7.842223,-0.435906,-0.126170,-0.005427
0.063501,0.556543,-0.001830,-0.999895,-0.003009,-0.009529,0.010481,-1.995527,-1.012318,2.145331,-2.730790,-1.579451,-0.430867,0.141298,-0.161741,-7.840210,-0.435608,-0.126613,-0.005434
0.064320,0.556531,-0.001829,-0.999895,-0.003010,-0.009567,0.010461,-1.996912,-1.012225,2.145085,-2.730643,-1.579498,-0.432254,0.141939,-0.161409,-7.837996,-0.435296,-0.127053,-0.005438
0.065139,0.556519,-0.001829,-0.999895,-0.003011,-0.009603,0.010440,-1.998296,-1.012130,2.144835,-2.730492,-1.579543,-0.433640,0.142397,-0.161126,-7.835748,-0.434985,-0.127498,-0.005443
0.065957,0.556506,-0.001830,-0.999895,-0.003012,-0.009639,0.010417,-1.999679,-1.012032,2.144583,-2.730339,-1.579592,-0.435027,0.142766,-0.160857,-7.833454,-0.434673,-0.127944,-0.005448
0.066777,0.556492,-0.001831,-0.999895,-0.003014,-0.009678,0.010393,-2.001060,-1.011933,2.144327,-2.730183,-1.579647,-0.436413,0.143579,-0.161078,-7.823855,-0.433864,-0.128242,-0.005447
0.067598,0.556477,-0.001832,-0.999894,-0.003017,-0.009720,0.010367,-2.002440,-1.011832,2.144068,-2.730025,-1.579708,-0.437798,0.144378,-0.161329,-7.814587,-0.433072,-0.128544,-0.005447
0.068418,0.556463,-0.001833,-0.999894,-0.003017,-0.009760,0.010341,-2.003819,-1.011730,2.143806,-2.729865,-1.579760,-0.439176,0.145399,-0.160659,-7.812852,-0.432728,-0.129170,-0.005449
0.069223,0.556455,-0.001834,-0.999894,-0.003012,-0.009768,0.010331,-2.005202,-1.011629,2.143542,-2.729702,-1.579738,-0.440549,0.146862,-0.159678,-7.810951,-0.432304,-0.129973,-0.005446
0.070019,0.556453,-0.001834,-0.999895,-0.003006,-0.009754,0.010331,-2.006585,-1.011527,2.143275,-2.729537,-1.579673,-0.441921,0.147780,-0.159009,-7.808994,-0.431862,-0.130793,-0.005440
0.070810,0.556452,-0.001835,-0.999895,-0.003001,-0.009733,0.010334,-2.007969,-1.011425,2.143004,-2.729369,-1.579597,-0.443293,0.147434,-0.159010,-7.806760,-0.431461,-0.131457,-0.005431
0.071614,0.556446,-0.001836,-0.999895,-0.003002,-0.009738,0.010325,-2.009347,-1.011319,2.142729,-2.729199,-1.579582,-0.444673,0.146480,-0.159310,-7.804360,-0.431089,-0.132010,-0.005422
0.072419,0.556438,-0.001837,-0.999895,-0.002997,-0.009746,0.010315,-2.010725,-1.011213,2.142451,-2.729028,-1.579565,-0.446041,0.146137,-0.159287,-7.802133,-0.430703,-0.132609,-0.005416
0.073220,0.556433,-0.001837,-0.999895,-0.002993,-0.009744,0.010309,-2.012102,-1.011105,2.142170,-2.728853,-1.579529,-0.447410,0.146092,-0.159133,-7.799941,-0.430324,-0.133201,-0.005410
0.074013,0.556422,-0.001847,-0.999895,-0.002984,-0.009729,0.010294,-2.013478,-1.010984,2.141892,-2.728665,-1.579477,-0.448769,0.145204,-0.158096,-7.811121,-0.430838,-0.134117,-0.005411
0.074813,0.556416,-0.001849,-0.999895,-0.002984,-0.009726,0.010286,-2.014853,-1.010874,2.141604,-2.728488,-1.579444,-0.450140,0.144264,-0.156931,-7.821593,-0.431327,-0.135027,-0.005411
0.075618,0.556413,-0.001846,-0.999895,-0.002981,-0.009733,0.010283,-2.016226,-1.010768,2.141310,-2.728312,-1.579423,-0.451508,0.143833,-0.156874,-7.818497,-0.430951,-0.135483,-0.005407
0.076424,0.556408,-0.001844,-0.999895,-0.002978,-0.009742,0.010277,-2.017598,-1.010658,2.141012,-2.728132,-1.579408,-0.452874,0.144270,-0.157337,-7.808921,-0.430112,-0.135779,-0.005396
0.077232,0.556401,-0.001843,-0.999895,-0.002976,-0.009754,0.010267,-2.018968,-1.010546,2.140712,-2.727948,-1.579402,-0.454239,0.144784,-0.157781,-7.799645,-0.429292,-0.136078,-0.005385
0.078040,0.556393,-0.001843,-0.999895,-0.002974,-0.009770,0.010253,-2.020336,-1.010431,2.140409,-2.727761,-1.579406,-0.455604,0.144166,-0.157930,-7.797363,-0.429004,-0.136416,-0.005384
0.078842,0.556387,-0.001844,-0.999895,-0.002965,-0.009770,0.010247,-2.021705,-1.010315,2.140104,-2.727571,-1.579368,-0.456955,0.144166,-0.157692,-7.794879,-0.428674,-0.136866,-0.005377
0.079641,0.556383,-0.001844,-0.999895,-0.002964,-0.009764,0.010243,-2.023073,-1.010198,2.139795,-2.727378,-1.579330,-0.458322,0.144022,-0.157567,-7.792311,-0.428333,-0.137318,-0.005369
0.080444,0.556376,-0.001845,-0.999896,-0.002959,-0.009768,0.010234,-2.024440,-1.010079,2.139483,-2.727184,-1.579304,-0.459674,0.144112,-0.157319,-7.789886,-0.427963,-0.137835,-0.005365
0.081244,0.556372,-0.001846,-0.999896,-0.002957,-0.009764,0.010228,-2.025805,-1.009959,2.139167,-2.726986,-1.579268,-0.461038,0.145178,-0.156573,-7.787991,-0.427549,-0.138537,-0.005362
0.082037,0.556362,-0.001854,-0.999896,-0.002945,-0.009749,0.010215,-2.027169,-1.009827,2.138854,-2.726776,-1.579214,-0.462379,0.144165,-0.155305,-7.801912,-0.428269,-0.139452,-0.005366
0.082841,0.556351,-0.001858,-0.999896,-0.002949,-0.009756,0.010199,-2.028530,-1.009702,2.138533,-2.726574,-1.579209,-0.463744,0.143051,-0.153878,-7.814886,-0.428955,-0.140356,-0.005366
0.083645,0.556349,-0.001855,-0.999896,-0.002942,-0.009759,0.010197,-2.029892,-1.009583,2.138205,-2.726375,-1.579174,-0.465092,0.144056,-0.153025,-7.811981,-0.428497,-0.141041,-0.005360
0.084441,0.556348,-0.001852,-0.999896,-0.002938,-0.009748,0.010200,-2.031255,-1.009462,2.137874,-2.726171,-1.579118,-0.466447,0.144130,-0.152952,-7.809515,-0.428108,-0.141552,-0.005355
0.085245,0.556343,-0.001852,-0.999896,-0.002933,-0.009752,0.010193,-2.032613,-1.009338,2.137540,-2.725964,-1.579094,-0.467794,0.145210,-0.153981,-7.790815,-0.426623,-0.141698,-0.005346
0.086043,0.556340,-0.001851,-0.999896,-0.002928,-0.009745,0.010190,-2.033972,-1.009211,2.137203,-2.725753,-1.579049,-0.469145,0.146559,-0.155072,-7.773000,-0.425151,-0.141906,-0.005334
0.086845,0.556334,-0.001852,-0.999896,-0.002923,-0.009747,0.010182,-2.035329,-1.009083,2.136863,-2.725540,-1.579021,-0.470489,0.146354,-0.155251,-7.771262,-0.424768,-0.142489,-0.005320
0.087644,0.556329,-0.001852,-0.999897,-0.002918,-0.009740,0.010177,-2.036685,-1.008953,2.136520,-2.725323,-1.578978,-0.471836,0.145410,-0.155500,-7.768383,-0.424363,-0.143017,-0.005301
0.088447,0.556322,-0.001853,-0.999897,-0.002916,-0.009744,0.010167,-2.038038,-1.008822,2.136174,-2.725105,-1.578959,-0.473183,0.144468,-0.155737,-7.765710,-0.423970,-0.143550,-0.005285
0.089249,0.556316,-0.001854,-0.999897,-0.002911,-0.009746,0.010158,-2.039391,-1.008689,2.135824,-2.724885,-1.578934,-0.474527,0.144571,-0.155452,-7.763578,-0.423534,-0.144266,-0.005269
0.090050,0.556310,-0.001855,-0.999897,-0.002908,-0.009746,0.010150,-2.040742,-1.008555,2.135471,-2.724662,-1.578905,-0.475870,0.144672,-0.155198,-7.761461,-0.423094,-0.144981,-0.005252
0.090853,0.556303,-0.001856,-0.999897,-0.002904,-0.009748,0.010140,-2.042092,-1.008419,2.135114,-2.724437,-1.578882,-0.477213,0.144699,-0.154997,-7.759372,-0.422654,-0.145699,-0.005234
0.091650,0.556289,-0.001866,-0.999897,-0.002897,-0.009743,0.010119,-2.043440,-1.008270,2.134761,-2.724198,-1.578855,-0.478547,0.143720,-0.154010,-7.770573,-0.423086,-0.146771,-0.005221
0.092455,0.556279,-0.001868,-0.999897,-0.002897,-0.009752,0.010104,-2.044786,-1.008131,2.134398,-2.723970,-1.578851,-0.479893,0.141850,-0.153315,-7.780783,-0.423549,-0.147663,-0.005211
0.093266,0.556273,-0.001865,-0.999897,-0.002896,-0.009771,0.010092,-2.046131,-1.007996,2.134028,-2.723743,-1.578860,-0.481235,0.140494,-0.153719,-7.777462,-0.423193,-0.148021,-0.005199
0.094077,0.556264,-0.001864,-0.999897,-0.002894,-0.009791,0.010078,-2.047474,-1.007858,2.133656,-2.723512,-1.578873,-0.482574,0.139941,-0.153931,-7.774990,-0.422867,-0.148393,-0.005188
0.094887,0.556255,-0.001863,-0.999897,-0.002892,-0.009808,0.010063,-2.048816,-1.007718,2.133281,-2.723277,-1.578881,-0.483913,0.140690,-0.153456,-7.772928,-0.422494,-0.148949,-0.005179
0.095696,0.556245,-0.001863,-0.999897,-0.002891,-0.009825,0.010046,-2.050156,-1.007575,2.132903,-2.723039,-1.578892,-0.485250,0.141382,-0.152978,-7.770720,-0.422116,-0.149503,-0.005169
0.096507,0.556234,-0.001864,-0.999897,-0.002890,-0.009845,0.010028,-2.051495,-1.007430,2.132522,-2.722799,-1.578908,-0.486588,0.140977,-0.153030,-7.768142,-0.421785,-0.149896,-0.005158
0.097318,0.556222,-0.001865,-0.999897,-0.002889,-0.009867,0.010007,-2.052832,-1.007284,2.132138,-2.722556,-1.578932,-0.487924,0.140615,-0.153042,-7.765622,-0.421460,-0.150288,-0.005150
0.098132,0.556209,-0.001866,-0.999897,-0.002889,-0.009893,0.009984,-2.054168,-1.007136,2.131750,-2.722310,-1.578965,-0.489260,0.141424,-0.153780,-7.749706,-0.420248,-0.150345,-0.005135
0.098947,0.556195,-0.001868,-0.999897,-0.002890,-0.009923,0.009959,-2.055501,-1.006986,2.131359,-2.722063,-1.579005,-0.490595,0.142443,-0.154569,-7.734476,-0.419064,-0.150403,-0.005122
0.099763,0.556179,-0.001869,-0.999897,-0.002891,-0.009956,0.009932,-2.056833,-1.006831,2.130967,-2.721810,-1.579049,-0.491920,0.150547,-0.160685,-7.624891,-0.411697,-0.147923,-0.005106
0.100573,0.556156,-0.001882,-0.999897,-0.002901,-0.009977,0.009891,-2.058163,-1.006668,2.130575,-2.721550,-1.579095,-0.493283,0.158226,-0.166285,-7.512961,-0.404266,-0.145428,-0.005091
0.101395,0.556141,-0.001881,-0.999897,-0.002901,-0.010021,0.009864,-2.059491,-1.006518,2.130171,-2.721302,-1.579163,-0.494609,0.157968,-0.165656,-7.508518,-0.403899,-0.145789,-0.005088
0.102218,0.556126,-0.001879,-0.999897,-0.002902,-0.010067,0.009835,-2.060818,-1.006367,2.129764,-2.721050,-1.579234,-0.495940,0.158552,-0.165181,-7.505902,-0.403538,-0.146244,-0.005084
0.103034,0.556113,-0.001878,-0.999897,-0.002900,-0.010097,0.009812,-2.062146,-1.006213,2.129355,-2.720794,-1.579270,-0.497262,0.159620,-0.164462,-7.503760,-0.403161,-0.146790,-0.005086
0.103843,0.556103,-0.001878,-0.999897,-0.002897,-0.010115,0.009795,-2.063474,-1.006058,2.128943,-2.720533,-1.579280,-0.498586,0.160708,-0.163721,-7.501538,-0.402783,-0.147333,-0.005087
0.104651,0.556092,-0.001879,-0.999897,-0.002895,-0.010128,0.009778,-2.064800,-1.005901,2.128529,-2.720270,-1.579284,-0.499909,0.160761,-0.163503,-7.498885,-0.402457,-0.147696,-0.005087
0.105459,0.556082,-0.001880,-0.999897,-0.002894,-0.010142,0.009760,-2.066126,-1.005743,2.128111,-2.720004,-1.579291,-0.501231,0.159851,-0.163786,-7.495718,-0.402176,-0.147873,-0.005087
0.106263,0.556073,-0.001881,-0.999897,-0.002888,-0.010148,0.009746,-2.067451,-1.005584,2.127691,-2.719736,-1.579274,-0.502544,0.161531,-0.164314,-7.476862,-0.400722,-0.147936,-0.005078
0.107056,0.556067,-0.001885,-0.999897,-0.002878,-0.010132,0.009739,-2.068777,-1.005417,2.127272,-2.719459,-1.579212,-0.503847,0.161186,-0.163878,-7.482089,-0.400806,-0.148659,-0.005042
0.107851,0.556054,-0.001894,-0.999897,-0.002884,-0.010121,0.009720,-2.070099,-1.005248,2.126849,-2.719181,-1.579185,-0.505184,0.157788,-0.162995,-7.501737,-0.402033,-0.149495,-0.005015
0.108660,0.556047,-0.001892,-0.999897,-0.002880,-0.010135,0.009709,-2.071420,-1.005089,2.126416,-2.718912,-1.579183,-0.506494,0.157820,-0.162288,-7.497834,-0.401632,-0.149958,-0.005014
0.109462,0.556043,-0.001889,-0.999897,-0.002874,-0.010136,0.009703,-2.072741,-1.004929,2.125980,-2.718638,-1.579153,-0.507805,0.158760,-0.161565,-7.495313,-0.401218,-0.150522,-0.005011
0.110261,0.556039,-0.001889,-0.999898,-0.002869,-0.010131,0.009698,-2.074061,-1.004766,2.125542,-2.718360,-1.579113,-0.509115,0.159520,-0.160981,-7.493016,-0.400810,-0.151096,-0.005008
0.111060,0.556034,-0.001889,-0.999898,-0.002865,-0.010125,0.009692,-2.075380,-1.004600,2.125101,-2.718079,-1.579075,-0.510423,0.160213,-0.160422,-7.490724,-0.400402,-0.151672,-0.005006
0.111860,0.556028,-0.001889,-0.999898,-0.002861,-0.010122,0.009684,-2.076697,-1.004433,2.124657,-2.717795,-1.579043,-0.511731,0.160942,-0.159817,-7.488528,-0.400003,-0.152251,-0.005008
0.112661,0.556021,-0.001890,-0.999898,-0.002857,-0.010122,0.009673,-2.078011,-1.004264,2.124209,-2.717509,-1.579020,-0.513039,0.161736,-0.159170,-7.486293,-0.399605,-0.152826,-0.005010
0.113464,0.556012,-0.001891,-0.999898,-0.002854,-0.010127,0.009660,-2.079324,-1.004093,2.123759,-2.717221,-1.579006,-0.514345,0.161644,-0.158998,-7.483527,-0.399250,-0.153216,-0.005011
0.114269,0.556003,-0.001892,-0.999898,-0.002851,-0.010135,0.009644,-2.080635,-1.003920,2.123305,-2.716931,-1.579002,-0.515651,0.161629,-0.158782,-7.480770,-0.398899,-0.153603,-0.005012
0.115076,0.555992,-0.001894,-0.999898,-0.002849,-0.010147,0.009626,-2.081944,-1.003746,2.122847,-2.716639,-1.579007,-0.516956,0.161715,-0.158509,-7.478000,-0.398549,-0.153987,-0.005013
0.115877,0.555973,-0.001906,-0.999898,-0.002845,-0.010150,0.009594,-2.083251,-1.003556,2.122394,-2.716333,-1.579009,-0.518255,0.162159,-0.158512,-7.470676,-0.397891,-0.154268,-0.005016
0.116689,0.555961,-0.001906,-0.999898,-0.002845,-0.010173,0.009572,-2.084556,-1.003381,2.121929,-2.716041,-1.579037,-0.519561,0.162691,-0.158562,-7.463599,-0.397240,-0.154547,-0.005019
0.117504,0.555949,-0.001904,-0.999898,-0.002845,-0.010201,0.009552,-2.085860,-1.003207,2.121459,-2.715747,-1.579071,-0.520864,0.163016,-0.158247,-7.461129,-0.396892,-0.154947,-0.005021
0.118317,0.555937,-0.001903,-0.999898,-0.002844,-0.010227,0.009530,-2.087162,-1.003030,2.120986,-2.715449,-1.579102,-0.522165,0.163230,-0.157886,-7.458373,-0.396538,-0.155342,-0.005023
0.119130,0.555924,-0.001903,-0.999898,-0.002843,-0.010251,0.009507,-2.088463,-1.002851,2.120510,-2.715147,-1.579134,-0.523465,0.163319,-0.157586,-7.455513,-0.396189,-0.155712,-0.005027
0.119943,0.555910,-0.001904,-0.999898,-0.002843,-0.010277,0.009481,-2.089762,-1.002669,2.120032,-2.714843,-1.579170,-0.524765,0.163446,-0.157268,-7.452648,-0.395840,-0.156080,-0.005031
0.120752,0.555899,-0.001905,-0.999898,-0.002838,-0.010292,0.009461,-2.091062,-1.002487,2.119551,-2.714536,-1.579173,-0.526052,0.164304,-0.156514,-7.450008,-0.395417,-0.156616,-0.005030
0.121544,0.555896,-0.001906,-0.999898,-0.002830,-0.010274,0.009460,-2.092364,-1.002305,2.119068,-2.714226,-1.579104,-0.527340,0.164707,-0.156035,-7.447337,-0.394982,-0.157166,-0.005023
0.122342,0.555890,-0.001907,-0.999899,-0.002830,-0.010266,0.009453,-2.093663,-1.002120,2.118582,-2.713914,-1.579073,-0.528639,0.163937,-0.156268,-7.444422,-0.394610,-0.157563,-0.005018
0.123145,0.555882,-0.001908,-0.999899,-0.002825,-0.010270,0.009439,-2.094960,-1.001934,2.118092,-2.713600,-1.579052,-0.529921,0.164073,-0.155951,-7.441785,-0.394170,-0.158124,-0.005014
0.123940,0.555877,-0.001909,-0.999899,-0.002821,-0.010258,0.009434,-2.096257,-1.001747,2.117598,-2.713284,-1.579005,-0.531213,0.156139,-0.149414,-7.546869,-0.400811,-0.161554,-0.005020
0.124742,0.555869,-0.001910,-0.999899,-0.002816,-0.010259,0.009421,-2.097551,-1.001558,2.117102,-2.712966,-1.578984,-0.532495,0.148375,-0.143313,-7.653542,-0.407490,-0.165000,-0.005023
0.125539,0.555864,-0.001912,-0.999899,-0.002812,-0.010250,0.009415,-2.098844,-1.001368,2.116602,-2.712646,-1.578943,-0.533782,0.148532,-0.143483,-7.652645,-0.407097,-0.165589,-0.005014
0.126338,0.555857,-0.001913,-0.999899,-0.002806,-0.010247,0.009404,-2.100136,-1.001177,2.116099,-2.712323,-1.578911,-0.535059,0.147785,-0.143575,-7.649935,-0.406692,-0.166086,-0.005005
0.127137,0.555850,-0.001914,-0.999900,-0.002803,-0.010241,0.009395,-2.101427,-1.000985,2.115592,-2.711998,-1.578878,-0.536344,0.147369,-0.143440,-7.647194,-0.406248,-0.166650,-0.004994
0.127930,0.555837,-0.001924,-0.999900,-0.002796,-0.010228,0.009375,-2.102714,-1.000779,2.115089,-2.711661,-1.578846,-0.537620,0.145348,-0.142997,-7.657241,-0.406718,-0.167417,-0.004993
0.128735,0.555826,-0.001927,-0.999900,-0.002794,-0.010236,0.009356,-2.104000,-1.000583,2.114576,-2.711334,-1.578843,-0.538898,0.143619,-0.142255,-7.666611,-0.407162,-0.168177,-0.004991
0.129539,0.555821,-0.001924,-0.999900,-0.002791,-0.010241,0.009348,-2.105286,-1.000391,2.114057,-2.711008,-1.578825,-0.540178,0.143839,-0.141745,-7.663297,-0.406691,-0.168723,-0.004979
0.130341,0.555815,-0.001923,-0.999900,-0.002787,-0.010243,0.009340,-2.106570,-1.000197,2.113535,-2.710677,-1.578801,-0.541454,0.143640,-0.141709,-7.660596,-0.406279,-0.169177,-0.004969
0.131143,0.555809,-0.001922,-0.999900,-0.002784,-0.010244,0.009330,-2.107853,-1.000000,2.113011,-2.710343,-1.578780,-0.542730,0.145503,-0.142818,-7.634801,-0.404365,-0.168987,-0.004990
0.131945,0.555801,-0.001923,-0.999900,-0.002780,-0.010247,0.009317,-2.109134,-0.999801,2.112484,-2.710007,-1.578765,-0.544005,0.148256,-0.143790,-7.610420,-0.402453,-0.168903,-0.005009
0.132749,0.555791,-0.001924,-0.999900,-0.002778,-0.010253,0.009301,-2.110413,-0.999599,2.111954,-2.709668,-1.578759,-0.545278,0.148483,-0.143794,-7.609108,-0.402101,-0.169368,-0.005000
0.133555,0.555781,-0.001925,-0.999900,-0.002776,-0.010263,0.009283,-2.111690,-0.999396,2.111420,-2.709326,-1.578761,-0.546551,0.147951,-0.143748,-7.606276,-0.401756,-0.169723,-0.004993
0.134362,0.555769,-0.001926,-0.999900,-0.002774,-0.010276,0.009263,-2.112965,-0.999192,2.110883,-2.708983,-1.578772,-0.547823,0.147658,-0.143558,-7.603282,-0.401407,-0.170067,-0.004988
0.135171,0.555756,-0.001928,-0.999901,-0.002773,-0.010293,0.009240,-2.114238,-0.998985,2.110343,-2.708638,-1.578792,-0.549094,0.147551,-0.143301,-7.600292,-0.401059,-0.170403,-0.004983
0.135977,0.555739,-0.001935,-0.999901,-0.002767,-0.010305,0.009210,-2.115509,-0.998768,2.109805,-2.708282,-1.578810,-0.550353,0.145995,-0.142005,-7.616422,-0.401930,-0.171320,-0.004973
0.136785,0.555720,-0.001942,-0.999901,-0.002772,-0.010323,0.009177,-2.116778,-0.998555,2.109261,-2.707931,-1.578844,-0.551632,0.144291,-0.140509,-7.631504,-0.402770,-0.172225,-0.004963
0.137601,0.555707,-0.001940,-0.999901,-0.002772,-0.010353,0.009152,-2.118046,-0.998349,2.108708,-2.707584,-1.578887,-0.552900,0.144325,-0.139963,-7.627455,-0.402370,-0.172565,-0.004960
0.138413,0.555695,-0.001939,-0.999901,-0.002770,-0.010377,0.009130,-2.119314,-0.998141,2.108152,-2.707233,-1.578916,-0.554165,0.144794,-0.139519,-7.624593,-0.401975,-0.172968,-0.004957
0.139222,0.555684,-0.001938,-0.999901,-0.002768,-0.010393,0.009110,-2.120580,-0.997931,2.107595,-2.706878,-1.578931,-0.555428,0.145217,-0.139094,-7.621874,-0.401572,-0.173405,-0.004953
0.140030,0.555672,-0.001939,-0.999901,-0.002767,-0.010407,0.009089,-2.121845,-0.997719,2.107034,-2.706520,-1.578943,-0.556690,0.146121,-0.139244,-7.610394,-0.400602,-0.173599,-0.004941
0.140838,0.555659,-0.001940,-0.999901,-0.002766,-0.010422,0.009067,-2.123109,-0.997504,2.106471,-2.706159,-1.578958,-0.557952,0.146958,-0.139475,-7.599329,-0.399650,-0.173804,-0.004930
0.141647,0.555646,-0.001941,-0.999901,-0.002765,-0.010439,0.009043,-2.124370,-0.997288,2.105905,-2.705796,-1.578980,-0.559212,0.146953,-0.139225,-7.596912,-0.399276,-0.174243,-0.004926
0.142457,0.555632,-0.001943,-0.999901,-0.002765,-0.010459,0.009017,-2.125630,-0.997070,2.105335,-2.705431,-1.579009,-0.560472,0.146804,-0.138927,-7.593954,-0.398893,-0.174656,-0.004922
0.143268,0.555616,-0.001945,-0.999901,-0.002765,-0.010482,0.008989,-2.126888,-0.996851,2.104762,-2.705064,-1.579045,-0.561730,0.146744,-0.138608,-7.590976,-0.398507,-0.175066,-0.004918
0.144079,0.555598,-0.001950,-0.999901,-0.002761,-0.010503,0.008956,-2.128144,-0.996623,2.104190,-2.704689,-1.579081,-0.562976,0.144812,-0.137157,-7.610870,-0.399572,-0.176187,-0.004885
0.144887,0.555575,-0.001960,-0.999901,-0.002768,-0.010522,0.008916,-2.129397,-0.996394,2.103614,-2.704313,-1.579126,-0.564249,0.141950,-0.135889,-7.629273,-0.400675,-0.177126,-0.004857
0.145706,0.555559,-0.001958,-0.999901,-0.002770,-0.010559,0.008885,-2.130650,-0.996175,2.103029,-2.703945,-1.579189,-0.565503,0.141555,-0.135482,-7.624743,-0.400330,-0.177330,-0.004866
0.146525,0.555542,-0.001957,-0.999901,-0.002771,-0.010597,0.008852,-2.131900,-0.995954,2.102440,-2.703574,-1.579257,-0.566758,0.142671,-0.134625,-7.621760,-0.399953,-0.177693,-0.004872
0.147345,0.555523,-0.001957,-0.999901,-0.002773,-0.010636,0.008816,-2.133149,-0.995729,2.101849,-2.703198,-1.579330,-0.568011,0.142876,-0.134315,-7.618632,-0.399653,-0.177893,-0.004878
0.148165,0.555503,-0.001958,-0.999901,-0.002775,-0.010677,0.008777,-2.134396,-0.995502,2.101256,-2.702820,-1.579407,-0.569264,0.143103,-0.133948,-7.615465,-0.399358,-0.178091,-0.004886
0.148985,0.555481,-0.001959,-0.999901,-0.002778,-0.010719,0.008736,-2.135641,-0.995273,2.100659,-2.702439,-1.579490,-0.570516,0.143473,-0.133464,-7.612227,-0.399066,-0.178282,-0.004896
0.149807,0.555458,-0.001961,-0.999900,-0.002781,-0.010763,0.008693,-2.136884,-0.995043,2.100060,-2.702056,-1.579579,-0.571766,0.143909,-0.132917,-7.608957,-0.398778,-0.178467,-0.004907
0.150630,0.555435,-0.001964,-0.999900,-0.002785,-0.010810,0.008648,-2.138126,-0.994810,2.099457,-2.701671,-1.579674,-0.573016,0.144452,-0.132295,-7.605651,-0.398493,-0.178647,-0.004921
0.151453,0.555411,-0.001966,-0.999900,-0.002789,-0.010858,0.008601,-2.139365,-0.994577,2.098851,-2.701284,-1.579774,-0.574265,0.144369,-0.132050,-7.602000,-0.398273,-0.178662,-0.004940
0.152269,0.555380,-0.001978,-0.999900,-0.002788,-0.010894,0.008544,-2.140603,-0.994328,2.098250,-2.700883,-1.579863,-0.575506,0.145342,-0.131427,-7.596136,-0.397814,-0.178791,-0.004959
0.153095,0.555354,-0.001981,-0.999900,-0.002796,-0.010948,0.008494,-2.141839,-0.994093,2.097637,-2.700494,-1.579977,-0.576756,0.146236,-0.130902,-7.590388,-0.397364,-0.178908,-0.004979
0.153889,0.555354,-0.001979,-0.999900,-0.002775,-0.010932,0.008498,-2.143086,-0.993863,2.097023,-2.700109,-1.579888,-0.577958,0.145784,-0.130889,-7.587312,-0.397179,-0.178932,-0.005000
0.154680,0.555355,-0.001977,-0.999900,-0.002778,-0.010911,0.008504,-2.144329,-0.993632,2.096405,-2.699721,-1.579828,-0.579209,0.144597,-0.131354,-7.584029,-0.396969,-0.178974,-0.005019
0.155494,0.555339,-0.001977,-0.999900,-0.002783,-0.010937,0.008475,-2.145564,-0.993395,2.095783,-2.699327,-1.579878,-0.580454,0.143549,-0.131816,-7.580178,-0.396723,-0.178996,-0.005041
0.156288,0.555336,-0.001978,-0.999901,-0.002767,-0.010922,0.008472,-2.146805,-0.993158,2.095160,-2.698932,-1.579809,-0.581661,0.142896,-0.131960,-7.576640,-0.396508,-0.179015,-0.005062
0.157088,0.555328,-0.001979,-0.999901,-0.002772,-0.010921,0.008460,-2.148040,-0.992918,2.094533,-2.698534,-1.579800,-0.582907,0.141903,-0.132348,-7.573065,-0.396282,-0.179043,-0.005083
0.157885,0.555323,-0.001980,-0.999901,-0.002756,-0.010911,0.008453,-2.149277,-0.992677,2.093905,-2.698134,-1.579742,-0.584108,0.140624,-0.132900,-7.569887,-0.396074,-0.179092,-0.005096
0.158679,0.555319,-0.001981,-0.999901,-0.002761,-0.010897,0.008449,-2.150510,-0.992435,2.093272,-2.697733,-1.579708,-0.585355,0.139126,-0.133604,-7.566670,-0.395859,-0.179148,-0.005108
0.159486,0.555306,-0.001983,-0.999901,-0.002751,-0.010910,0.008427,-2.151741,-0.992191,2.092636,-2.697329,-1.579708,-0.586561,0.137547,-0.134407,-7.563183,-0.395623,-0.179199,-0.005105
0.160285,0.555299,-0.001984,-0.999901,-0.002758,-0.010907,0.008416,-2.152970,-0.991946,2.091996,-2.696923,-1.579698,-0.587809,0.137548,-0.136199,-7.540587,-0.394167,-0.178665,-0.005108
0.161075,0.555298,-0.001985,-0.999902,-0.002743,-0.010883,0.008418,-2.154202,-0.991700,2.091355,-2.696517,-1.579613,-0.589007,0.137862,-0.138113,-7.518776,-0.392728,-0.178131,-0.005132
0.161881,0.555286,-0.001986,-0.999902,-0.002750,-0.010895,0.008396,-2.155426,-0.991452,2.090709,-2.696107,-1.579637,-0.590244,0.138662,-0.137426,-7.517490,-0.392330,-0.178617,-0.005152
0.162668,0.555287,-0.001988,-0.999902,-0.002733,-0.010865,0.008404,-2.156656,-0.991204,2.090062,-2.695696,-1.579532,-0.591442,0.138909,-0.136711,-7.515143,-0.391933,-0.179049,-0.005173
0.163472,0.555276,-0.001989,-0.999902,-0.002740,-0.010872,0.008385,-2.157878,-0.990954,2.089409,-2.695282,-1.579550,-0.592677,0.136924,-0.137694,-7.511232,-0.391735,-0.178992,-0.005190
0.164269,0.555271,-0.001990,-0.999902,-0.002722,-0.010863,0.008377,-2.159102,-0.990703,2.088755,-2.694867,-1.579495,-0.593864,0.135064,-0.138631,-7.507444,-0.391543,-0.178935,-0.005203
0.165072,0.555260,-0.001992,-0.999902,-0.002730,-0.010868,0.008360,-2.160321,-0.990449,2.088095,-2.694449,-1.579510,-0.595101,0.133196,-0.139610,-7.503658,-0.391347,-0.178878,-0.005216
0.165859,0.555261,-0.001993,-0.999903,-0.002709,-0.010839,0.008366,-2.161545,-0.990197,2.087436,-2.694030,-1.579403,-0.596280,0.131288,-0.140638,-7.499874,-0.391148,-0.178823,-0.005229
0.166661,0.555252,-0.001994,-0.999903,-0.002718,-0.010843,0.008350,-2.162761,-0.989941,2.086770,-2.693608,-1.579416,-0.597515,0.129288,-0.141748,-7.496089,-0.390944,-0.178772,-0.005242
0.167460,0.555244,-0.001996,-0.999903,-0.002698,-0.010840,0.008338,-2.163978,-0.989684,2.086103,-2.693184,-1.579369,-0.598690,0.127129,-0.142969,-7.492447,-0.390743,-0.178730,-0.005243
0.168259,0.555237,-0.001997,-0.999903,-0.002708,-0.010835,0.008328,-2.165192,-0.989426,2.085431,-2.692758,-1.579365,-0.599927,0.126742,-0.145438,-7.465934,-0.389086,-0.177980,-0.005272
0.169054,0.555233,-0.001999,-0.999903,-0.002690,-0.010822,0.008323,-2.166408,-0.989168,2.084758,-2.692331,-1.579299,-0.601102,0.126625,-0.148159,-7.440553,-0.387454,-0.177238,-0.005308
0.169860,0.555220,-0.002000,-0.999903,-0.002700,-0.010834,0.008301,-2.167617,-0.988906,2.084079,-2.691901,-1.579326,-0.602330,0.129117,-0.146327,-7.440277,-0.386818,-0.178154,-0.005322
0.170650,0.555219,-0.002001,-0.999903,-0.002688,-0.010812,0.008302,-2.168830,-0.988646,2.083400,-2.691469,-1.579249,-0.603523,0.131242,-0.144294,-7.438446,-0.386132,-0.179058,-0.005337
0.171455,0.555208,-0.002003,-0.999904,-0.002685,-0.010821,0.008282,-2.170037,-0.988383,2.082715,-2.691035,-1.579246,-0.604712,0.133115,-0.142570,-7.435300,-0.385361,-0.179922,-0.005320
0.172252,0.555201,-0.002004,-0.999904,-0.002690,-0.010814,0.008272,-2.171244,-0.988118,2.082028,-2.690600,-1.579219,-0.605934,0.138999,-0.138011,-7.433267,-0.384046,-0.181701,-0.005285
0.173050,0.555195,-0.002006,-0.999904,-0.002693,-0.010808,0.008262,-2.172450,-0.987853,2.081338,-2.690162,-1.579197,-0.607146,0.144910,-0.133376,-7.431995,-0.382772,-0.183508,-0.005271
0.173841,0.555193,-0.002007,-0.999904,-0.002686,-0.010788,0.008263,-2.173656,-0.987587,2.080645,-2.689723,-1.579134,-0.608342,0.146597,-0.131825,-7.429550,-0.382023,-0.184407,-0.005272
0.174640,0.555186,-0.002008,-0.999904,-0.002670,-0.010784,0.008251,-2.174859,-0.987319,2.079949,-2.689280,-1.579097,-0.609510,0.143574,-0.133699,-7.425960,-0.381791,-0.184411,-0.005255
0.175445,0.555173,-0.002010,-0.999904,-0.002679,-0.010795,0.008229,-2.176057,-0.987049,2.079248,-2.688836,-1.579121,-0.610722,0.144758,-0.132447,-7.424293,-0.381073,-0.185354,-0.005228
0.176231,0.555176,-0.002011,-0.999905,-0.002665,-0.010762,0.008238,-2.177261,-0.986780,2.078547,-2.688390,-1.579020,-0.611905,0.146914,-0.131688,-7.411821,-0.379668,-0.185960,-0.005206
0.177039,0.555161,-0.002013,-0.999905,-0.002664,-0.010779,0.008212,-2.178456,-0.986507,2.077840,-2.687942,-1.579044,-0.613087,0.149027,-0.131145,-7.399343,-0.378246,-0.186558,-0.005169
0.177831,0.555158,-0.002014,-0.999905,-0.002665,-0.010761,0.008210,-2.179654,-0.986234,2.077131,-2.687492,-1.579000,-0.614300,0.150551,-0.129908,-7.396701,-0.377459,-0.187457,-0.005143
0.178626,0.555154,-0.002015,-0.999905,-0.002646,-0.010747,0.008205,-2.180851,-0.985961,2.076419,-2.687039,-1.578940,-0.615452,0.148494,-0.131106,-7.392282,-0.377202,-0.187421,-0.005133
0.179431,0.555142,-0.002017,-0.999905,-0.002648,-0.010758,0.008182,-2.182042,-0.985685,2.075703,-2.686585,-1.578952,-0.616641,0.150631,-0.129156,-7.389891,-0.376473,-0.188317,-0.005100
0.180229,0.555135,-0.002018,-0.999905,-0.002651,-0.010751,0.008173,-2.183234,-0.985408,2.074984,-2.686128,-1.578926,-0.617842,0.156699,-0.124361,-7.388901,-0.375215,-0.190135,-0.005065
0.181021,0.555132,-0.002020,-0.999906,-0.002646,-0.010734,0.008170,-2.184425,-0.985130,2.074263,-2.685670,-1.578878,-0.619029,0.158884,-0.122474,-7.386418,-0.374469,-0.191028,-0.005051
0.181817,0.555126,-0.002021,-0.999906,-0.002631,-0.010723,0.008162,-2.185615,-0.984851,2.073538,-2.685209,-1.578831,-0.620186,0.157011,-0.123675,-7.381761,-0.374190,-0.190977,-0.005048
0.182619,0.555116,-0.002023,-0.999906,-0.002623,-0.010726,0.008145,-2.186802,-0.984571,2.072810,-2.684746,-1.578812,-0.621349,0.159434,-0.121730,-7.378391,-0.373396,-0.191828,-0.005022
0.183419,0.555108,-0.002024,-0.999906,-0.002632,-0.010724,0.008131,-2.187987,-0.984288,2.072078,-2.684282,-1.578809,-0.622555,0.165884,-0.116728,-7.377133,-0.372130,-0.193619,-0.004997
0.184213,0.555104,-0.002026,-0.999906,-0.002629,-0.010710,0.008126,-2.189171,-0.984005,2.071344,-2.683815,-1.578769,-0.623738,0.170137,-0.113218,-7.376388,-0.371209,-0.194974,-0.005000
0.185009,0.555098,-0.002027,-0.999906,-0.002620,-0.010701,0.008117,-2.190355,-0.983721,2.070606,-2.683346,-1.578733,-0.624903,0.170295,-0.112790,-7.373865,-0.370779,-0.195401,-0.004997
0.185806,0.555091,-0.002028,-0.999907,-0.002610,-0.010693,0.008108,-2.191536,-0.983436,2.069866,-2.682875,-1.578700,-0.626064,0.166223,-0.115629,-7.368109,-0.370714,-0.194901,-0.004984
0.186605,0.555083,-0.002030,-0.999907,-0.002603,-0.010690,0.008094,-2.192715,-0.983149,2.069122,-2.682402,-1.578678,-0.627228,0.164179,-0.116855,-7.363934,-0.370467,-0.194863,-0.004975
0.187401,0.555077,-0.002031,-0.999907,-0.002595,-0.010681,0.008085,-2.193894,-0.982861,2.068375,-2.681926,-1.578641,-0.628390,0.164178,-0.116559,-7.361068,-0.370014,-0.195284,-0.004957
0.188200,0.555069,-0.002033,-0.999907,-0.002592,-0.010677,0.008072,-2.195070,-0.982572,2.067625,-2.681449,-1.578621,-0.629558,0.166421,-0.114609,-7.358771,-0.369281,-0.196178,-0.004947
0.188997,0.555063,-0.002034,-0.999907,-0.002586,-0.010668,0.008063,-2.196246,-0.982281,2.066871,-2.680970,-1.578583,-0.630721,0.170677,-0.111077,-7.357930,-0.368357,-0.197527,-0.004933
0.189795,0.555055,-0.002036,-0.999907,-0.002585,-0.010663,0.008051,-2.197419,-0.981989,2.066115,-2.680489,-1.578559,-0.631889,0.174768,-0.107707,-7.356827,-0.367414,-0.198869,-0.004902
0.190591,0.555049,-0.002037,-0.999908,-0.002582,-0.010654,0.008041,-2.198591,-0.981696,2.065355,-2.680006,-1.578531,-0.633060,0.178842,-0.104305,-7.356116,-0.366496,-0.200223,-0.004883
0.191388,0.555042,-0.002039,-0.999908,-0.002575,-0.010647,0.008031,-2.199761,-0.981402,2.064592,-2.679520,-1.578499,-0.634213,0.180762,-0.102550,-7.354290,-0.365824,-0.201087,-0.004873
0.192186,0.555035,-0.002040,-0.999908,-0.002571,-0.010640,0.008020,-2.200930,-0.981107,2.063826,-2.679034,-1.578470,-0.635373,0.182769,-0.100810,-7.351955,-0.365120,-0.201930,-0.004848
0.192983,0.555029,-0.002041,-0.999908,-0.002567,-0.010632,0.008011,-2.202097,-0.980810,2.063057,-2.678545,-1.578442,-0.636534,0.182618,-0.100816,-7.347868,-0.364582,-0.202315,-0.004809
0.193780,0.555022,-0.002043,-0.999908,-0.002560,-0.010626,0.007999,-2.203263,-0.980512,2.062285,-2.678053,-1.578409,-0.637678,0.180149,-0.102532,-7.342177,-0.364232,-0.202230,-0.004762
0.194576,0.555015,-0.002045,-0.999908,-0.002560,-0.010616,0.007989,-2.204426,-0.980212,2.061510,-2.677559,-1.578387,-0.638851,0.177545,-0.104253,-7.337239,-0.363930,-0.202171,-0.004722
0.195374,0.555008,-0.002046,-0.999909,-0.002550,-0.010610,0.007977,-2.205589,-0.979911,2.060732,-2.677064,-1.578354,-0.639986,0.172842,-0.107401,-7.332984,-0.363981,-0.201689,-0.004708
0.196171,0.555000,-0.002048,-0.999909,-0.002549,-0.010603,0.007965,-2.206750,-0.979609,2.059950,-2.676566,-1.578330,-0.641146,0.168471,-0.110063,-7.329915,-0.364125,-0.201219,-0.004712
0.196968,0.554994,-0.002049,-0.999909,-0.002545,-0.010595,0.007955,-2.207909,-0.979306,2.059165,-2.676067,-1.578302,-0.642299,0.163947,-0.112949,-7.326070,-0.364217,-0.200724,-0.004705
0.197765,0.554987,-0.002051,-0.999909,-0.002539,-0.010588,0.007944,-2.209067,-0.979002,2.058377,-2.675566,-1.578272,-0.643444,0.161326,-0.114561,-7.322430,-0.364030,-0.200660,-0.004673
0.198562,0.554980,-0.002052,-0.999909,-0.002534,-0.010579,0.007933,-2.210223,-0.978696,2.057586,-2.675062,-1.578245,-0.644592,0.161371,-0.114445,-7.318069,-0.363481,-0.201029,-0.004651
0.199358,0.554973,-0.002054,-0.999910,-0.002525,-0.010571,0.007923,-2.211378,-0.978389,2.056793,-2.674556,-1.578210,-0.645726,0.155062,-0.119187,-7.310156,-0.363590,-0.200013,-0.004622
0.200156,0.554965,-0.002056,-0.999910,-0.002524,-0.010566,0.007909,-2.212531,-0.978080,2.055996,-2.674049,-1.578193,-0.646875,0.152831,-0.120574,-7.305848,-0.363334,-0.199970,-0.004597
0.200953,0.554958,-0.002057,-0.999910,-0.002518,-0.010556,0.007899,-2.213682,-0.977771,2.055195,-2.673539,-1.578159,-0.648015,0.152639,-0.120229,-7.303838,-0.362942,-0.200408,-0.004597
0.201750,0.554951,-0.002059,-0.999910,-0.002514,-0.010549,0.007887,-2.214832,-0.977460,2.054392,-2.673028,-1.578135,-0.649158,0.150158,-0.121701,-7.300506,-0.362779,-0.200352,-0.004579
0.202547,0.554944,-0.002060,-0.999910,-0.002509,-0.010542,0.007876,-2.215981,-0.977148,2.053585,-2.672514,-1.578106,-0.650295,0.151977,-0.120081,-7.298292,-0.362084,-0.201197,-0.004543
0.203344,0.554937,-0.002061,-0.999910,-0.002505,-0.010534,0.007865,-2.217127,-0.976835,2.052776,-2.671999,-1.578077,-0.651433,0.149516,-0.121623,-7.294506,-0.361889,-0.201126,-0.004525
0.204136,0.554928,-0.002069,-0.999911,-0.002495,-0.010517,0.007850,-2.218272,-0.976512,2.051969,-2.671474,-1.578045,-0.652563,0.138839,-0.127480,-7.305255,-0.363495,-0.200252,-0.004512
0.204930,0.554916,-0.002076,-0.999911,-0.002488,-0.010507,0.007831,-2.219415,-0.976191,2.051156,-2.670952,-1.578019,-0.653689,0.130311,-0.131568,-7.314947,-0.364750,-0.199829,-0.004480
0.205730,0.554910,-0.002074,-0.999911,-0.002485,-0.010504,0.007822,-2.220557,-0.975878,2.050334,-2.670434,-1.578003,-0.654826,0.128085,-0.132928,-7.308497,-0.364382,-0.199752,-0.004454
0.206529,0.554904,-0.002073,-0.999911,-0.002480,-0.010501,0.007811,-2.221698,-0.975563,2.049510,-2.669913,-1.577980,-0.655953,0.126321,-0.133966,-7.305219,-0.364187,-0.199732,-0.004472
0.207327,0.554898,-0.002073,-0.999911,-0.002478,-0.010494,0.007801,-2.222837,-0.975246,2.048684,-2.669388,-1.577952,-0.657087,0.124870,-0.134477,-7.303496,-0.364112,-0.199736,-0.004509
0.208125,0.554891,-0.002074,-0.999912,-0.002475,-0.010488,0.007789,-2.223974,-0.974926,2.047855,-2.668861,-1.577926,-0.658216,0.125346,-0.133725,-7.300731,-0.363657,-0.200164,-0.004502
0.208922,0.554884,-0.002075,-0.999912,-0.002473,-0.010481,0.007778,-2.225110,-0.974604,2.047024,-2.668332,-1.577898,-0.659348,0.129533,-0.130197,-7.299509,-0.362692,-0.201521,-0.004462
0.209719,0.554877,-0.002076,-0.999912,-0.002472,-0.010473,0.007766,-2.226244,-0.974281,2.046189,-2.667800,-1.577871,-0.660478,0.135503,-0.125230,-7.300083,-0.361550,-0.203351,-0.004420
0.210515,0.554870,-0.002078,-0.999912,-0.002468,-0.010462,0.007756,-2.227377,-0.973957,2.045352,-2.667267,-1.577835,-0.661602,0.139379,-0.121955,-7.298782,-0.360573,-0.204712,-0.004372
0.211311,0.554864,-0.002079,-0.999912,-0.002466,-0.010453,0.007745,-2.228508,-0.973631,2.044511,-2.666732,-1.577811,-0.662733,0.143373,-0.118538,-7.297826,-0.359623,-0.206081,-0.004351
0.212107,0.554857,-0.002081,-0.999913,-0.002461,-0.010444,0.007734,-2.229637,-0.973304,2.043668,-2.666194,-1.577784,-0.663850,0.142982,-0.118465,-7.295192,-0.359191,-0.206494,-0.004334
0.212904,0.554850,-0.002082,-0.999913,-0.002453,-0.010436,0.007722,-2.230765,-0.972975,2.042821,-2.665655,-1.577758,-0.664965,0.136593,-0.123322,-7.287354,-0.359305,-0.205481,-0.004301
0.213702,0.554840,-0.002084,-0.999913,-0.002448,-0.010432,0.007707,-2.231891,-0.972645,2.041971,-2.665114,-1.577736,-0.666073,0.132609,-0.126255,-7.280753,-0.359193,-0.204948,-0.004278
0.214501,0.554831,-0.002086,-0.999913,-0.002448,-0.010429,0.007690,-2.233015,-0.972314,2.041119,-2.664570,-1.577727,-0.667200,0.132680,-0.125855,-7.277315,-0.358696,-0.205362,-0.004243
0.215295,0.554826,-0.002088,-0.999913,-0.002446,-0.010414,0.007683,-2.234138,-0.971981,2.040263,-2.664025,-1.577687,-0.668319,0.134978,-0.123687,-7.275625,-0.357991,-0.206290,-0.004222
0.216093,0.554817,-0.002090,-0.999913,-0.002443,-0.010408,0.007668,-2.235259,-0.971647,2.039404,-2.663477,-1.577670,-0.669434,0.137461,-0.121229,-7.275002,-0.357359,-0.207250,-0.004228
0.216886,0.554812,-0.002091,-0.999914,-0.002434,-0.010393,0.007661,-2.236380,-0.971313,2.038543,-2.662928,-1.577630,-0.670543,0.138034,-0.120404,-7.272585,-0.356927,-0.207706,-0.004239
0.217683,0.554804,-0.002093,-0.999914,-0.002425,-0.010385,0.007647,-2.237498,-0.970977,2.037678,-2.662376,-1.577605,-0.671639,0.134103,-0.123076,-7.268188,-0.356989,-0.207204,-0.004256
0.218480,0.554796,-0.002095,-0.999914,-0.002420,-0.010379,0.007633,-2.238615,-0.970639,2.036810,-2.661823,-1.577581,-0.672742,0.134350,-0.122340,-7.266710,-0.356651,-0.207639,-0.004260
0.219279,0.554787,-0.002097,-0.999914,-0.002417,-0.010374,0.007618,-2.239730,-0.970301,2.035939,-2.661268,-1.577562,-0.673851,0.138921,-0.118348,-7.266480,-0.355769,-0.209007,-0.004253
0.220074,0.554780,-0.002098,-0.999914,-0.002415,-0.010363,0.007607,-2.240844,-0.969961,2.035065,-2.660711,-1.577531,-0.674959,0.138939,-0.117940,-7.263670,-0.355309,-0.209442,-0.004234
0.220869,0.554774,-0.002100,-0.999915,-0.002410,-0.010352,0.007597,-2.241956,-0.969620,2.034187,-2.660152,-1.577499,-0.676064,0.136745,-0.119327,-7.259516,-0.355071,-0.209393,-0.004200
0.221666,0.554766,-0.002101,-0.999915,-0.002405,-0.010343,0.007585,-2.243067,-0.969278,2.033307,-2.659591,-1.577475,-0.677163,0.134601,-0.120778,-7.254896,-0.354800,-0.209337,-0.004168
0.222463,0.554758,-0.002103,-0.999915,-0.002400,-0.010335,0.007571,-2.244176,-0.968934,2.032424,-2.659028,-1.577450,-0.678260,0.136657,-0.118783,-7.253477,-0.354148,-0.210227,-0.004149
0.223259,0.554751,-0.002105,-0.999915,-0.002398,-0.010326,0.007559,-2.245283,-0.968589,2.031537,-2.658464,-1.577429,-0.679366,0.140802,-0.115091,-7.253797,-0.353327,-0.211573,-0.004155
0.224051,0.554741,-0.002112,-0.999916,-0.002387,-0.010310,0.007542,-2.246388,-0.968234,2.030654,-2.657891,-1.577403,-0.680452,0.134802,-0.117756,-7.264992,-0.354370,-0.211575,-0.004144
0.224848,0.554726,-0.002120,-0.999916,-0.002380,-0.010306,0.007517,-2.247491,-0.967882,2.029764,-2.657321,-1.577388,-0.681532,0.128932,-0.120025,-7.274397,-0.355319,-0.211570,-0.004114
0.225646,0.554721,-0.002118,-0.999916,-0.002381,-0.010299,0.007509,-2.248594,-0.967538,2.028866,-2.656753,-1.577364,-0.682640,0.131166,-0.117639,-7.271267,-0.354573,-0.212450,-0.004096
0.226445,0.554715,-0.002117,-0.999916,-0.002380,-0.010294,0.007498,-2.249694,-0.967191,2.027965,-2.656184,-1.577345,-0.683738,0.133482,-0.115497,-7.269933,-0.353889,-0.213373,-0.004086
0.227239,0.554711,-0.002116,-0.999916,-0.002371,-0.010279,0.007493,-2.250795,-0.966842,2.027062,-2.655610,-1.577302,-0.684826,0.131996,-0.116609,-7.264843,-0.353555,-0.213335,-0.004077
0.228037,0.554703,-0.002117,-0.999916,-0.002364,-0.010273,0.007479,-2.251893,-0.966491,2.026157,-2.655034,-1.577277,-0.685902,0.134351,-0.116658,-7.242983,-0.351886,-0.213161,-0.004062
0.228834,0.554695,-0.002119,-0.999917,-0.002364,-0.010267,0.007465,-2.252988,-0.966137,2.025249,-2.654456,-1.577262,-0.686999,0.142540,-0.112106,-7.227440,-0.349717,-0.214415,-0.004044
0.229628,0.554678,-0.002130,-0.999917,-0.002366,-0.010257,0.007436,-2.254080,-0.965769,2.024346,-2.653869,-1.577266,-0.688096,0.148035,-0.106405,-7.240988,-0.349329,-0.216695,-0.004030
0.230431,0.554666,-0.002132,-0.999917,-0.002359,-0.010262,0.007413,-2.255172,-0.965413,2.023431,-2.653291,-1.577266,-0.689171,0.149174,-0.103765,-7.249361,-0.349268,-0.217983,-0.003995
0.231220,0.554668,-0.002129,-0.999917,-0.002351,-0.010237,0.007419,-2.256267,-0.965062,2.022512,-2.652707,-1.577187,-0.690249,0.146550,-0.105492,-7.243184,-0.348926,-0.217866,-0.003941
0.232022,0.554658,-0.002129,-0.999917,-0.002355,-0.010239,0.007401,-2.257355,-0.964705,2.021590,-2.652125,-1.577198,-0.691346,0.143843,-0.107398,-7.238583,-0.348650,-0.217799,-0.003905
0.232820,0.554651,-0.002129,-0.999918,-0.002347,-0.010233,0.007388,-2.258443,-0.964346,2.020667,-2.651538,-1.577172,-0.692418,0.141524,-0.108922,-7.234520,-0.348418,-0.217743,-0.003886
0.233609,0.554650,-0.002130,-0.999918,-0.002343,-0.010209,0.007388,-2.259532,-0.963987,2.019741,-2.650947,-1.577117,-0.693503,0.136430,-0.112799,-7.227744,-0.348465,-0.216957,-0.003882
0.234410,0.554638,-0.002132,-0.999918,-0.002335,-0.010208,0.007368,-2.260616,-0.963624,2.018811,-2.650356,-1.577108,-0.694563,0.131485,-0.116515,-7.221079,-0.348527,-0.216172,-0.003882
0.235197,0.554632,-0.002139,-0.999918,-0.002326,-0.010181,0.007359,-2.261700,-0.963252,2.017885,-2.649756,-1.577058,-0.695639,0.124688,-0.119804,-7.231724,-0.349660,-0.215985,-0.003858
0.236003,0.554610,-0.002146,-0.999919,-0.002328,-0.010196,0.007319,-2.262778,-0.962881,2.016953,-2.649163,-1.577106,-0.696712,0.119892,-0.121207,-7.242474,-0.350527,-0.216263,-0.003827
0.236804,0.554603,-0.002144,-0.999919,-0.002323,-0.010196,0.007305,-2.263859,-0.962519,2.016012,-2.648570,-1.577090,-0.697785,0.124192,-0.117027,-7.241702,-0.349664,-0.217604,-0.003815
0.237597,0.554601,-0.002142,-0.999919,-0.002318,-0.010178,0.007304,-2.264939,-0.962156,2.015069,-2.647971,-1.577037,-0.698853,0.126220,-0.115025,-7.240983,-0.349060,-0.218489,-0.003808
0.238386,0.554600,-0.002142,-0.999919,-0.002312,-0.010154,0.007304,-2.266019,-0.961790,2.014124,-2.647369,-1.576973,-0.699920,0.123991,-0.116551,-7.236841,-0.348820,-0.218426,-0.003800
0.239189,0.554588,-0.002144,-0.999919,-0.002315,-0.010158,0.007281,-2.267092,-0.961419,2.013177,-2.646769,-1.576992,-0.701000,0.121773,-0.118086,-7.232098,-0.348551,-0.218341,-0.003780
0.239989,0.554577,-0.002145,-0.999919,-0.002310,-0.010158,0.007262,-2.268165,-0.961048,2.012226,-2.646166,-1.576986,-0.702063,0.119617,-0.119608,-7.226808,-0.348253,-0.218234,-0.003750
0.240784,0.554571,-0.002147,-0.999920,-0.002305,-0.010146,0.007250,-2.269238,-0.960675,2.011273,-2.645559,-1.576955,-0.703126,0.121493,-0.117759,-7.225021,-0.347590,-0.219088,-0.003718
0.241577,0.554565,-0.002148,-0.999920,-0.002300,-0.010131,0.007241,-2.270309,-0.960302,2.010318,-2.644950,-1.576918,-0.704187,0.125366,-0.114292,-7.224687,-0.346703,-0.220441,-0.003682
0.242371,0.554559,-0.002150,-0.999920,-0.002296,-0.010116,0.007231,-2.271379,-0.959927,2.009359,-2.644339,-1.576883,-0.705248,0.125120,-0.114251,-7.220932,-0.346185,-0.220840,-0.003648
0.243163,0.554551,-0.002155,-0.999920,-0.002289,-0.010099,0.007218,-2.272447,-0.959544,2.008402,-2.643723,-1.576847,-0.706299,0.121060,-0.114856,-7.238188,-0.347180,-0.221662,-0.003609
0.243955,0.554537,-0.002165,-0.999921,-0.002291,-0.010084,0.007196,-2.273512,-0.959159,2.007441,-2.643106,-1.576832,-0.707371,0.116969,-0.115037,-7.254586,-0.348172,-0.222476,-0.003579
0.244757,0.554528,-0.002163,-0.999921,-0.002288,-0.010086,0.007179,-2.274576,-0.958784,2.006470,-2.642495,-1.576832,-0.708427,0.117071,-0.114202,-7.250534,-0.347698,-0.222872,-0.003576
0.245558,0.554519,-0.002162,-0.999921,-0.002284,-0.010087,0.007162,-2.275638,-0.958406,2.005497,-2.641881,-1.576830,-0.709482,0.119733,-0.111733,-7.249189,-0.347039,-0.223767,-0.003578
0.246359,0.554509,-0.002162,-0.999921,-0.002281,-0.010088,0.007143,-2.276698,-0.958026,2.004522,-2.641265,-1.576832,-0.710536,0.120170,-0.111071,-7.246690,-0.346611,-0.224185,-0.003574
0.247161,0.554497,-0.002163,-0.999921,-0.002279,-0.010090,0.007121,-2.277756,-0.957643,2.003545,-2.640646,-1.576839,-0.711590,0.120592,-0.110393,-7.244094,-0.346181,-0.224601,-0.003561
0.247963,0.554485,-0.002165,-0.999921,-0.002277,-0.010094,0.007097,-2.278813,-0.957258,2.002564,-2.640025,-1.576852,-0.712642,0.126940,-0.106755,-7.227304,-0.344273,-0.225398,-0.003546
0.248767,0.554471,-0.002167,-0.999921,-0.002275,-0.010101,0.007070,-2.279867,-0.956872,2.001581,-2.639403,-1.576871,-0.713693,0.131192,-0.105108,-7.210576,-0.342633,-0.225744,-0.003539
0.249571,0.554456,-0.002169,-0.999922,-0.002274,-0.010109,0.007042,-2.280919,-0.956484,2.000595,-2.638780,-1.576896,-0.714743,0.129724,-0.106188,-7.207886,-0.342477,-0.225698,-0.003538
0.250376,0.554440,-0.002171,-0.999922,-0.002273,-0.010120,0.007011,-2.281970,-0.956094,1.999607,-2.638155,-1.576928,-0.715792,0.128247,-0.106936,-7.203496,-0.342269,-0.225610,-0.003532
0.251174,0.554418,-0.002184,-0.999922,-0.002272,-0.010119,0.006972,-2.283018,-0.955691,1.998623,-2.637521,-1.576955,-0.716840,0.130324,-0.104174,-7.207065,-0.341958,-0.226651,-0.003532
0.251984,0.554401,-0.002183,-0.999922,-0.002272,-0.010139,0.006939,-2.284065,-0.955302,1.997626,-2.636896,-1.577004,-0.717887,0.132549,-0.101301,-7.210974,-0.341665,-0.227698,-0.003537
0.252795,0.554384,-0.002182,-0.999922,-0.002272,-0.010160,0.006905,-2.285110,-0.954912,1.996626,-2.636269,-1.577056,-0.718933,0.131436,-0.101848,-7.207034,-0.341482,-0.227606,-0.003539
0.253606,0.554366,-0.002182,-0.999922,-0.002273,-0.010182,0.006869,-2.286154,-0.954519,1.995623,-2.635639,-1.577111,-0.719978,0.131087,-0.103039,-7.192160,-0.340666,-0.227066,-0.003531
0.254417,0.554346,-0.002183,-0.999922,-0.002273,-0.010204,0.006830,-2.287195,-0.954124,1.994619,-2.635008,-1.577171,-0.721022,0.130528,-0.104468,-7.178026,-0.339876,-0.226554,-0.003523
0.255228,0.554325,-0.002185,-0.999922,-0.002275,-0.010227,0.006790,-2.288235,-0.953726,1.993612,-2.634374,-1.577235,-0.722065,0.129455,-0.104996,-7.175009,-0.339742,-0.226488,-0.003529
0.256040,0.554304,-0.002187,-0.999922,-0.002276,-0.010252,0.006748,-2.289272,-0.953327,1.992602,-2.633739,-1.577304,-0.723106,0.128690,-0.105124,-7.170916,-0.339579,-0.226382,-0.003535
0.256852,0.554281,-0.002189,-0.999922,-0.002278,-0.010278,0.006704,-2.290308,-0.952927,1.991589,-2.633102,-1.577377,-0.724147,0.127802,-0.105379,-7.166764,-0.339408,-0.226274,-0.003543
0.257665,0.554258,-0.002192,-0.999922,-0.002280,-0.010305,0.006658,-2.291342,-0.952524,1.990573,-2.632463,-1.577454,-0.725186,0.129936,-0.103085,-7.165345,-0.338966,-0.226887,-0.003544
0.258470,0.554230,-0.002205,-0.999922,-0.002282,-0.010320,0.006605,-2.292375,-0.952108,1.989564,-2.631816,-1.577524,-0.726223,0.131696,-0.100568,-7.169172,-0.338823,-0.227711,-0.003551
0.259287,0.554206,-0.002205,-0.999922,-0.002285,-0.010355,0.006557,-2.293405,-0.951706,1.988540,-2.631177,-1.577615,-0.727260,0.135440,-0.098394,-7.155179,-0.337587,-0.227913,-0.003568
0.260105,0.554183,-0.002204,-0.999922,-0.002288,-0.010391,0.006510,-2.294434,-0.951304,1.987513,-2.630537,-1.577708,-0.728297,0.139860,-0.096617,-7.136891,-0.336070,-0.227907,-0.003581
0.260922,0.554158,-0.002204,-0.999922,-0.002291,-0.010427,0.006460,-2.295461,-0.950899,1.986484,-2.629893,-1.577803,-0.729331,0.139303,-0.097026,-7.134177,-0.335946,-0.227810,-0.003596
0.261739,0.554132,-0.002206,-0.999922,-0.002295,-0.010462,0.006409,-2.296487,-0.950491,1.985452,-2.629248,-1.577899,-0.730365,0.138830,-0.096939,-7.130428,-0.335816,-0.227693,-0.003613
0.262557,0.554106,-0.002208,-0.999922,-0.002298,-0.010498,0.006357,-2.297511,-0.950081,1.984419,-2.628600,-1.577999,-0.731397,0.138670,-0.096577,-7.126512,-0.335689,-0.227559,-0.003633
0.263374,0.554079,-0.002210,-0.999922,-0.002302,-0.010535,0.006303,-2.298533,-0.949670,1.983382,-2.627951,-1.578102,-0.732428,0.138582,-0.096200,-7.122387,-0.335551,-0.227412,-0.003654
0.264192,0.554051,-0.002212,-0.999922,-0.002306,-0.010572,0.006247,-2.299553,-0.949257,1.982343,-2.627300,-1.578208,-0.733458,0.138331,-0.095971,-7.118248,-0.335409,-0.227266,-0.003676
0.265010,0.554023,-0.002215,-0.999922,-0.002311,-0.010611,0.006191,-2.300571,-0.948842,1.981301,-2.626647,-1.578317,-0.734486,0.138113,-0.095703,-7.114266,-0.335278,-0.227124,-0.003700
0.265819,0.553989,-0.002229,-0.999922,-0.002315,-0.010635,0.006128,-2.301588,-0.948414,1.980265,-2.625986,-1.578415,-0.735513,0.137790,-0.095083,-7.114381,-0.335389,-0.227139,-0.003730
0.266641,0.553961,-0.002229,-0.999922,-0.002320,-0.010680,0.006070,-2.302603,-0.948000,1.979214,-2.625333,-1.578536,-0.736539,0.137618,-0.094351,-7.114272,-0.335494,-0.227139,-0.003762
0.267463,0.553932,-0.002228,-0.999922,-0.002325,-0.010726,0.006013,-2.303617,-0.947585,1.978161,-2.624678,-1.578657,-0.737564,0.139696,-0.094659,-7.088281,-0.334115,-0.226068,-0.003814
0.268273,0.553914,-0.002228,-0.999922,-0.002316,-0.010746,0.005977,-2.304634,-0.947169,1.977108,-2.624022,-1.578689,-0.738558,0.142795,-0.094404,-7.064276,-0.332604,-0.225252,-0.003849
0.269056,0.553920,-0.002229,-0.999922,-0.002313,-0.010709,0.005993,-2.305655,-0.946753,1.976054,-2.623367,-1.578593,-0.739579,0.143256,-0.093952,-7.062138,-0.332327,-0.225363,-0.003860
0.269856,0.553910,-0.002230,-0.999922,-0.002317,-0.010707,0.005976,-2.306670,-0.946334,1.974996,-2.622708,-1.578601,-0.740598,0.142117,-0.094573,-7.058121,-0.332175,-0.225239,-0.003889
0.270658,0.553898,-0.002231,-0.999922,-0.002311,-0.010711,0.005953,-2.307683,-0.945913,1.973935,-2.622047,-1.578604,-0.741597,0.142403,-0.093814,-7.054199,-0.331843,-0.225316,-0.003913
0.271447,0.553898,-0.002233,-0.999923,-0.002306,-0.010686,0.005956,-2.308698,-0.945492,1.972873,-2.621386,-1.578540,-0.742605,0.142572,-0.093194,-7.050346,-0.331509,-0.225398,-0.003935
0.272247,0.553887,-0.002234,-0.999923,-0.002307,-0.010687,0.005936,-2.309708,-0.945068,1.971806,-2.620722,-1.578548,-0.743614,0.142574,-0.092765,-7.046583,-0.331168,-0.225490,-0.003958
0.273037,0.553880,-0.002241,-0.999923,-0.002294,-0.010665,0.005927,-2.310719,-0.944635,1.970744,-2.620052,-1.578499,-0.744602,0.140990,-0.091795,-7.060372,-0.331833,-0.226305,-0.003965
0.273832,0.553868,-0.002248,-0.999923,-0.002300,-0.010658,0.005905,-2.311726,-0.944205,1.969674,-2.619384,-1.578502,-0.745618,0.139125,-0.090782,-7.073209,-0.332467,-0.227110,-0.003971
0.274630,0.553864,-0.002246,-0.999923,-0.002294,-0.010650,0.005899,-2.312733,-0.943782,1.968597,-2.618718,-1.578468,-0.746611,0.139972,-0.089287,-7.068715,-0.331904,-0.227406,-0.003987
0.275424,0.553862,-0.002245,-0.999923,-0.002293,-0.010636,0.005898,-2.313739,-0.943357,1.967517,-2.618051,-1.578435,-0.747619,0.140220,-0.089288,-7.060670,-0.331296,-0.227323,-0.004003
0.276223,0.553855,-0.002245,-0.999924,-0.002285,-0.010633,0.005885,-2.314742,-0.942929,1.966435,-2.617380,-1.578417,-0.748603,0.140430,-0.089302,-7.052932,-0.330703,-0.227256,-0.004018
0.277018,0.553849,-0.002245,-0.999924,-0.002284,-0.010623,0.005877,-2.315745,-0.942499,1.965351,-2.616707,-1.578393,-0.749604,0.141261,-0.088067,-7.049711,-0.330173,-0.227595,-0.004030
0.277813,0.553844,-0.002247,-0.999924,-0.002280,-0.010611,0.005868,-2.316745,-0.942067,1.964265,-2.616033,-1.578366,-0.750597,0.141980,-0.086867,-7.046354,-0.329635,-0.227938,-0.004048
0.278609,0.553837,-0.002248,-0.999924,-0.002276,-0.010602,0.005858,-2.317744,-0.941634,1.963175,-2.615356,-1.578342,-0.751586,0.142752,-0.085643,-7.043006,-0.329095,-0.228282,-0.004068
0.279407,0.553828,-0.002250,-0.999924,-0.002275,-0.010598,0.005842,-2.318740,-0.941199,1.962083,-2.614678,-1.578339,-0.752580,0.143489,-0.084484,-7.039679,-0.328549,-0.228629,-0.004080
0.280204,0.553821,-0.002251,-0.999924,-0.002269,-0.010592,0.005829,-2.319736,-0.940762,1.960988,-2.613999,-1.578319,-0.753562,0.144190,-0.083379,-7.036333,-0.327996,-0.228978,-0.004089
0.280991,0.553815,-0.002260,-0.999925,-0.002260,-0.010565,0.005822,-2.320731,-0.940316,1.959897,-2.613312,-1.578270,-0.754543,0.142316,-0.083106,-7.046957,-0.328440,-0.229698,-0.004100
0.281791,0.553800,-0.002265,-0.999925,-0.002261,-0.010566,0.005796,-2.321721,-0.939874,1.958797,-2.612628,-1.578287,-0.755530,0.140271,-0.082765,-7.056825,-0.328860,-0.230410,-0.004109
0.282590,0.553795,-0.002263,-0.999925,-0.002256,-0.010563,0.005786,-2.322712,-0.939438,1.957691,-2.611947,-1.578268,-0.756513,0.141144,-0.081966,-7.047438,-0.327966,-0.230539,-0.004108
0.283384,0.553794,-0.002261,-0.999925,-0.002250,-0.010548,0.005786,-2.323703,-0.939001,1.956582,-2.611262,-1.578224,-0.757492,0.141983,-0.081513,-7.039157,-0.327094,-0.230697,-0.004104
0.284178,0.553790,-0.002261,-0.999925,-0.002249,-0.010536,0.005781,-2.324692,-0.938560,1.955472,-2.610575,-1.578195,-0.758478,0.142194,-0.080944,-7.036254,-0.326528,-0.231089,-0.004106
0.284976,0.553782,-0.002262,-0.999925,-0.002244,-0.010531,0.005767,-2.325678,-0.938117,1.954359,-2.609886,-1.578181,-0.759452,0.142401,-0.080272,-7.033053,-0.325953,-0.231478,-0.004107
0.285771,0.553778,-0.002263,-0.999926,-0.002239,-0.010519,0.005760,-2.326663,-0.937672,1.953243,-2.609195,-1.578150,-0.760428,0.142570,-0.079665,-7.029760,-0.325367,-0.231868,-0.004102
0.286566,0.553772,-0.002265,-0.999926,-0.002237,-0.010508,0.005751,-2.327646,-0.937226,1.952125,-2.608503,-1.578128,-0.761407,0.142650,-0.079163,-7.026593,-0.324779,-0.232268,-0.004099
0.287364,0.553763,-0.002266,-0.999926,-0.002233,-0.010504,0.005735,-2.328627,-0.936778,1.951004,-2.607808,-1.578120,-0.762379,0.142758,-0.078646,-7.023463,-0.324189,-0.232671,-0.004094
0.288160,0.553756,-0.002268,-0.999926,-0.002229,-0.010496,0.005724,-2.329607,-0.936329,1.949880,-2.607112,-1.578101,-0.763351,0.142820,-0.078190,-7.020287,-0.323591,-0.233076,-0.004084
0.288948,0.553745,-0.002280,-0.999926,-0.002224,-0.010473,0.005707,-2.330585,-0.935866,1.948762,-2.606408,-1.578070,-0.764320,0.142362,-0.077643,-7.022255,-0.323268,-0.233712,-0.004076
0.289746,0.553739,-0.002280,-0.999927,-0.002221,-0.010469,0.005696,-2.331562,-0.935418,1.947630,-2.605711,-1.578058,-0.765290,0.142188,-0.077311,-7.019878,-0.322694,-0.234177,-0.004062
0.290546,0.553733,-0.002278,-0.999927,-0.002218,-0.010467,0.005685,-2.332537,-0.934968,1.946494,-2.605012,-1.578048,-0.766258,0.142407,-0.077259,-7.012647,-0.321842,-0.234429,-0.004043
0.291347,0.553723,-0.002277,-0.999927,-0.002217,-0.010469,0.005666,-2.333510,-0.934516,1.945357,-2.604310,-1.578060,-0.767230,0.141974,-0.077347,-7.009728,-0.321287,-0.234802,-0.004027
0.292155,0.553706,-0.002278,-0.999927,-0.002217,-0.010485,0.005632,-2.334478,-0.934060,1.944217,-2.603606,-1.578111,-0.768200,0.140608,-0.078320,-7.005893,-0.320951,-0.234869,-0.004031
0.292961,0.553689,-0.002280,-0.999927,-0.002211,-0.010498,0.005600,-2.335447,-0.933603,1.943074,-2.602900,-1.578135,-0.769149,0.142851,-0.075777,-7.002310,-0.320132,-0.235466,-0.004023
0.293751,0.553688,-0.002281,-0.999927,-0.002213,-0.010476,0.005602,-2.336418,-0.933146,1.941931,-2.602193,-1.578090,-0.770132,0.145957,-0.072352,-6.999319,-0.319148,-0.236297,-0.003998
0.294553,0.553676,-0.002283,-0.999927,-0.002208,-0.010480,0.005578,-2.337384,-0.932686,1.940783,-2.601483,-1.578097,-0.771080,0.147524,-0.070410,-6.996195,-0.318338,-0.236931,-0.003980
0.295346,0.553672,-0.002284,-0.999927,-0.002210,-0.010466,0.005572,-2.338350,-0.932225,1.939633,-2.600772,-1.578075,-0.772059,0.149296,-0.068296,-6.993024,-0.317529,-0.237555,-0.003964
0.296137,0.553670,-0.002286,-0.999928,-0.002199,-0.010446,0.005571,-2.339317,-0.931764,1.938481,-2.600060,-1.578020,-0.772998,0.148382,-0.068826,-6.989477,-0.317229,-0.237616,-0.003957
0.296936,0.553660,-0.002288,-0.999928,-0.002200,-0.010443,0.005554,-2.340279,-0.931300,1.937325,-2.599345,-1.578027,-0.773964,0.149111,-0.069871,-6.968394,-0.315923,-0.236951,-0.003965
0.297730,0.553655,-0.002289,-0.999928,-0.002190,-0.010431,0.005545,-2.341241,-0.930836,1.936167,-2.598629,-1.577992,-0.774906,0.150157,-0.070933,-6.948252,-0.314645,-0.236296,-0.003972
0.298529,0.553645,-0.002291,-0.999928,-0.002187,-0.010428,0.005528,-2.342201,-0.930370,1.935006,-2.597911,-1.577987,-0.775855,0.151186,-0.069790,-6.946000,-0.314073,-0.236718,-0.003960
0.299324,0.553639,-0.002293,-0.999928,-0.002190,-0.010418,0.005517,-2.343159,-0.929903,1.933842,-2.597192,-1.577972,-0.776823,0.155745,-0.064709,-6.943938,-0.312820,-0.237930,-0.003949
0.300116,0.553636,-0.002295,-0.999928,-0.002184,-0.010401,0.005514,-2.344117,-0.929435,1.932675,-2.596471,-1.577931,-0.777770,0.157544,-0.062391,-6.941257,-0.312057,-0.238573,-0.003949
0.300912,0.553628,-0.002296,-0.999928,-0.002176,-0.010393,0.005501,-2.345073,-0.928965,1.931505,-2.595749,-1.577912,-0.778708,0.155475,-0.064005,-6.937458,-0.311951,-0.238413,-0.003943
0.301710,0.553619,-0.002298,-0.999929,-0.002174,-0.010389,0.005485,-2.346026,-0.928494,1.930332,-2.595024,-1.577905,-0.779653,0.156128,-0.062932,-6.934182,-0.311350,-0.238815,-0.003920
0.302505,0.553613,-0.002300,-0.999929,-0.002173,-0.010377,0.005475,-2.346979,-0.928022,1.929157,-2.594298,-1.577880,-0.780605,0.159394,-0.059266,-6.931396,-0.310250,-0.239781,-0.003888
0.303300,0.553607,-0.002301,-0.999929,-0.002174,-0.010368,0.005464,-2.347930,-0.927549,1.927978,-2.593571,-1.577866,-0.781558,0.162625,-0.055616,-6.928821,-0.309162,-0.240756,-0.003867
0.304096,0.553600,-0.002303,-0.999929,-0.002173,-0.010359,0.005452,-2.348879,-0.927074,1.926797,-2.592842,-1.577852,-0.782506,0.166032,-0.051743,-6.926674,-0.308103,-0.241742,-0.003867
0.304890,0.553595,-0.002305,-0.999929,-0.002168,-0.010346,0.005445,-2.349827,-0.926598,1.925612,-2.592111,-1.577826,-0.783446,0.169351,-0.049757,-6.909748,-0.306524,-0.241779,-0.003867
0.305685,0.553588,-0.002307,-0.999929,-0.002158,-0.010336,0.005434,-2.350774,-0.926121,1.924425,-2.591378,-1.577797,-0.784370,0.169924,-0.050821,-6.892675,-0.305434,-0.241251,-0.003844
0.306481,0.553581,-0.002308,-0.999930,-0.002154,-0.010327,0.005422,-2.351719,-0.925642,1.923236,-2.590644,-1.577777,-0.785304,0.170500,-0.050038,-6.890322,-0.304868,-0.241669,-0.003814
0.307277,0.553575,-0.002310,-0.999930,-0.002158,-0.010318,0.005411,-2.352662,-0.925162,1.922043,-2.589909,-1.577770,-0.786259,0.173759,-0.046177,-6.888294,-0.303830,-0.242661,-0.003807
0.308070,0.553571,-0.002312,-0.999930,-0.002150,-0.010302,0.005405,-2.353605,-0.924681,1.920847,-2.589171,-1.577734,-0.787186,0.174574,-0.044820,-6.885440,-0.303276,-0.243068,-0.003810
0.308865,0.553564,-0.002313,-0.999930,-0.002142,-0.010293,0.005394,-2.354545,-0.924199,1.919649,-2.588432,-1.577716,-0.788111,0.172656,-0.046346,-6.881384,-0.303174,-0.242878,-0.003805
0.309662,0.553556,-0.002315,-0.999930,-0.002135,-0.010285,0.005381,-2.355484,-0.923715,1.918447,-2.587691,-1.577697,-0.789033,0.170580,-0.048049,-6.877493,-0.303075,-0.242697,-0.003788
0.310456,0.553550,-0.002317,-0.999931,-0.002130,-0.010274,0.005371,-2.356422,-0.923230,1.917243,-2.586949,-1.577672,-0.789960,0.168286,-0.049997,-6.873574,-0.302967,-0.242519,-0.003749
0.311254,0.553542,-0.002319,-0.999931,-0.002131,-0.010268,0.005356,-2.357357,-0.922744,1.916036,-2.586205,-1.577668,-0.790894,0.168608,-0.049269,-6.870550,-0.302387,-0.242920,-0.003715
0.312049,0.553536,-0.002320,-0.999931,-0.002128,-0.010258,0.005345,-2.358292,-0.922256,1.914826,-2.585459,-1.577645,-0.791824,0.171816,-0.045583,-6.868413,-0.301344,-0.243889,-0.003696
0.312844,0.553529,-0.002322,-0.999931,-0.002130,-0.010247,0.005335,-2.359224,-0.921767,1.913613,-2.584712,-1.577634,-0.792762,0.175599,-0.041883,-6.861598,-0.300049,-0.244648,-0.003688
0.313634,0.553528,-0.002324,-0.999931,-0.002120,-0.010227,0.005335,-2.360157,-0.921278,1.912398,-2.583963,-1.577581,-0.793677,0.176777,-0.040872,-6.854157,-0.299241,-0.244836,-0.003690
0.314435,0.553515,-0.002326,-0.999931,-0.002115,-0.010229,0.005311,-2.361086,-0.920786,1.911179,-2.583213,-1.577591,-0.794588,0.177419,-0.039780,-6.851211,-0.298687,-0.245223,-0.003676
0.315228,0.553511,-0.002327,-0.999932,-0.002118,-0.010215,0.005305,-2.362014,-0.920293,1.909958,-2.582461,-1.577574,-0.795531,0.178135,-0.038572,-6.847992,-0.298063,-0.245666,-0.003660
0.316018,0.553510,-0.002329,-0.999932,-0.002101,-0.010193,0.005305,-2.362943,-0.919800,1.908734,-2.581706,-1.577511,-0.796423,0.176370,-0.039938,-6.844171,-0.297861,-0.245605,-0.003653
0.316821,0.553496,-0.002331,-0.999932,-0.002107,-0.010199,0.005278,-2.363866,-0.919304,1.907506,-2.580952,-1.577546,-0.797354,0.174482,-0.041261,-6.841573,-0.297726,-0.245590,-0.003655
0.317610,0.553496,-0.002333,-0.999932,-0.002096,-0.010176,0.005281,-2.364792,-0.918808,1.906277,-2.580194,-1.577484,-0.798263,0.172975,-0.042247,-6.838974,-0.297599,-0.245562,-0.003658
0.318413,0.553481,-0.002334,-0.999932,-0.002096,-0.010182,0.005253,-2.365712,-0.918310,1.905043,-2.579436,-1.577512,-0.799176,0.171558,-0.043206,-6.835897,-0.297450,-0.245509,-0.003651
0.319198,0.553485,-0.002336,-0.999932,-0.002089,-0.010150,0.005264,-2.366636,-0.917812,1.903809,-2.578675,-1.577434,-0.800094,0.169941,-0.044378,-6.832791,-0.297292,-0.245461,-0.003644
